Pre-made_Targets/Patch Width 12-15mm - Intermediate (Easy with ruler)/Generated Targets/CM-Interm-A4-182p-1page-w14.0mm-13x14/CM-Interm-A4-182p-1page.ti2
CTI2   

DESCRIPTOR "Argyll Calibration Target chart information 2"
ORIGINATOR "Argyll printtarg"
CREATED "Mon Feb  9 15:31:56 2026"
TARGET_INSTRUMENT "X-Rite ColorMunki"
COMP_GREY_STEPS "36"
APPROX_WHITE_POINT "95.106486 100.000000 108.844025"
TOTAL_INK_LIMIT "300.0"
COLOR_REP "iRGB"
PAPER_SIZE "210.0x297.0"
RANDOM_START "92"
STEPS_IN_PASS "14"
PASSES_IN_STRIPS2 "13"
STRIP_INDEX_PATTERN "A-Z, A-Z"
PATCH_INDEX_PATTERN "0-9,@-9,@-9;1-999"
INDEX_ORDER "STRIP_THEN_PATCH"

NUMBER_OF_FIELDS 8
BEGIN_DATA_FORMAT
SAMPLE_ID SAMPLE_LOC RGB_R RGB_G RGB_B XYZ_X XYZ_Y XYZ_Z 
END_DATA_FORMAT

NUMBER_OF_SETS 182
BEGIN_DATA
1 "M10" 100.0000 100.0000 100.0000 95.10649 100.0000 108.8440 
2 "G2" 100.0000 100.0000 100.0000 95.10649 100.0000 108.8440 
3 "C4" 100.0000 100.0000 100.0000 95.10649 100.0000 108.8440 
4 "M12" 0.00000 0.00000 0.00000 1.000000 1.000000 1.000000 
5 "K12" 0.00000 0.00000 0.00000 1.000000 1.000000 1.000000 
6 "B3" 0.00000 0.00000 0.00000 1.000000 1.000000 1.000000 
7 "L4" 97.14351 97.14351 97.14351 89.10542 93.68688 101.9669 
8 "D2" 94.28550 94.28550 94.28550 83.33372 87.61505 95.35269 
9 "G4" 91.42901 91.42901 91.42901 77.78882 81.78182 88.99835 
10 "B6" 88.57099 88.57099 88.57099 72.46810 76.18442 82.90092 
11 "E11" 85.71450 85.71450 85.71450 67.36889 70.82005 77.05733 
12 "I8" 82.85649 82.85649 82.85649 62.48846 65.68585 71.46447 
13 "K10" 80.00000 80.00000 80.00000 57.82407 60.77891 66.11917 
14 "H12" 77.14351 77.14351 77.14351 53.37288 56.09625 61.01820 
15 "L12" 74.28550 74.28550 74.28550 49.13201 51.63486 56.15825 
16 "D4" 71.42901 71.42901 71.42901 45.09852 47.39164 51.53597 
17 "C9" 68.57099 68.57099 68.57099 41.26942 43.36342 47.14790 
18 "J11" 65.71450 65.71450 65.71450 37.64163 39.54698 42.99052 
19 "E8" 62.85649 62.85649 62.85649 34.21200 35.93901 39.06024 
20 "E6" 60.00000 60.00000 60.00000 30.97732 32.53613 35.35337 
21 "M3" 57.14351 57.14351 57.14351 27.93428 29.33486 31.86611 
22 "H8" 54.28550 54.28550 54.28550 25.07950 26.33163 28.59459 
23 "H4" 51.42901 51.42901 51.42901 22.40949 23.52278 25.53482 
24 "H6" 48.57099 48.57099 48.57099 19.92067 20.90454 22.68268 
25 "A8" 45.71450 45.71450 45.71450 17.60934 18.47302 20.03395 
26 "F11" 42.85649 42.85649 42.85649 15.47169 16.22421 17.58425 
27 "B10" 40.00000 40.00000 40.00000 13.50377 14.15396 15.32905 
28 "C13" 37.14351 37.14351 37.14351 11.70150 12.25798 13.26369 
29 "F5" 34.28550 34.28550 34.28550 10.06064 10.53179 11.38330 
30 "M1" 31.42901 31.42901 31.42901 8.576762 8.970752 9.682808 
31 "A4" 28.57099 28.57099 28.57099 7.245259 7.570011 8.156934 
32 "H14" 25.71450 25.71450 25.71450 6.061297 6.324483 6.800138 
33 "E14" 22.85649 22.85649 22.85649 5.019792 5.228820 5.606596 
34 "C6" 20.00000 20.00000 20.00000 4.115373 4.277372 4.570151 
35 "A12" 17.14351 17.14351 17.14351 3.342333 3.464134 3.684263 
36 "C11" 14.28550 14.28550 14.28550 2.694563 2.782680 2.941933 
37 "M8" 11.42901 11.42901 11.42901 2.165473 2.226078 2.335608 
38 "F9" 8.570993 8.570993 8.570993 1.747869 1.786758 1.857041 
39 "B13" 5.714504 5.714504 5.714504 1.433776 1.456332 1.497098 
40 "I1" 2.856489 2.856489 2.856489 1.208108 1.218930 1.238487 
41 "H9" 0.00000 0.00000 100.0000 18.87111 8.147314 95.12896 
42 "A13" 0.00000 32.37659 65.70535 10.98540 9.839772 38.64821 
43 "J7" 100.0000 0.00000 0.00000 41.83017 22.05217 2.913230 
44 "E4" 0.00000 100.0000 0.00000 36.40521 71.80052 12.80184 
45 "E13" 100.0000 91.77691 42.85649 73.71848 81.42334 27.10179 
46 "F4" 0.00000 42.49485 0.00000 6.347332 11.69317 2.782459 
47 "F3" 0.00000 98.35203 81.58846 46.37156 73.68691 71.77057 
48 "H13" 73.49355 0.00000 47.49065 24.81246 12.88183 19.98601 
49 "F6" 36.24170 0.00000 47.46014 8.829503 4.641531 19.21141 
50 "B12" 0.00000 71.36339 92.87098 32.66580 40.15212 86.09812 
51 "B14" 53.39590 22.86412 16.94667 13.02726 9.396730 4.271119 
52 "B5" 94.64714 70.28611 100.0000 70.91086 58.73355 102.1527 
53 "L6" 37.92020 74.28855 74.28550 33.09874 43.36984 55.40731 
54 "K9" 92.31556 57.21370 25.71756 46.17513 39.26130 11.04665 
55 "C12" 100.0000 36.63844 47.46471 49.16222 31.24433 22.22653 
56 "G5" 0.00000 27.41894 85.70077 15.76262 10.36521 68.08215 
57 "K13" 88.03845 0.00000 93.33639 46.86917 22.88280 82.91987 
58 "L3" 66.84977 94.76158 57.48074 54.02574 74.24119 39.50799 
59 "G6" 22.40635 24.55634 0.00000 4.417306 5.342856 1.658314 
60 "B8" 81.55947 57.38460 65.06142 43.78133 37.44998 41.46463 
61 "M13" 30.08469 0.00000 18.17960 4.502735 2.748739 3.749431 
62 "I6" 47.00237 36.67659 52.10498 16.75307 14.45817 24.69617 
63 "C5" 0.00000 91.28252 88.57099 43.35749 63.99151 82.07840 
64 "F7" 33.25551 51.13451 39.99847 15.02050 19.76068 16.33013 
65 "A9" 77.66690 100.0000 0.00000 59.47520 83.69548 13.88285 
66 "D9" 0.00000 3.726253 22.80156 1.861841 1.508026 5.035650 
67 "E12" 27.28466 55.40398 82.83665 24.61230 25.88122 65.74238 
68 "L7" 76.94667 69.50942 51.23369 43.24071 45.48700 28.50217 
69 "C7" 52.90761 58.64500 0.00000 21.60505 27.54310 5.038361 
70 "C3" 78.22995 98.86320 88.56336 72.51317 87.49941 85.06844 
71 "J2" 73.23262 73.40658 88.57862 52.43518 52.11977 79.32435 
72 "K2" 71.34508 50.58061 40.00610 30.22810 27.32666 16.99523 
73 "B2" 54.86839 41.07881 0.00000 16.67001 16.46486 3.159858 
74 "K7" 72.10803 0.00000 18.15976 21.03508 11.27299 4.518924 
75 "G7" 25.87778 0.00000 0.00000 3.223603 2.146497 1.104194 
76 "M5" 96.92683 59.71466 57.14351 55.30984 44.97440 33.44418 
77 "B9" 79.21569 31.76165 8.519112 28.16898 19.31505 3.842357 
78 "A3" 76.75288 32.77943 47.46471 29.99255 20.16465 21.09712 
79 "G1" 0.00000 70.92088 42.27817 19.99899 34.72134 20.50596 
80 "J9" 69.17830 88.56794 97.35256 62.51569 70.67383 99.35475 
81 "L13" 66.00137 39.69635 83.91394 33.69614 23.33896 66.57894 
82 "C14" 38.16739 74.33127 0.00000 24.04876 39.79612 7.274846 
83 "M14" 91.12840 0.00000 18.17960 34.56458 18.24872 5.158076 
84 "J14" 0.00000 37.37240 47.46471 8.497416 10.52294 20.36813 
85 "D7" 41.87228 43.12047 85.69619 25.08993 20.14999 69.47133 
86 "G8" 0.00000 38.19181 37.14199 7.300242 10.34770 13.12632 
87 "J10" 0.00000 92.26978 42.85649 33.24350 61.08146 25.30687 
88 "J3" 62.85649 75.20714 56.87648 39.08706 47.67836 34.54613 
89 "M11" 67.65087 78.15671 39.75891 40.58871 51.25297 20.90580 
90 "G3" 65.13008 97.24880 97.93545 66.85868 82.30180 102.5748 
91 "F2" 61.62509 48.35889 48.05676 25.35694 23.61755 22.49247 
92 "K1" 63.09300 0.366217 100.0000 33.41066 15.65887 95.81314 
93 "D12" 0.00000 68.92958 57.48836 21.50972 33.72238 33.40727 
94 "F12" 73.79873 79.85046 0.00000 42.86738 54.18249 9.060691 
95 "D5" 44.06958 60.52796 100.0000 37.03183 34.57462 99.27371 
96 "K4" 0.00000 66.95201 77.14656 25.31481 33.70982 58.18104 
97 "I7" 84.60212 68.00793 28.55421 45.02056 45.63684 13.50808 
98 "E7" 0.00000 10.67369 47.49523 4.816949 3.155242 19.16533 
99 "M2" 54.88975 100.0000 39.49340 49.41964 78.24343 25.47862 
100 "L11" 100.0000 78.41611 0.00000 62.27046 62.92703 9.726716 
101 "J8" 98.79606 100.0000 77.15724 86.07643 96.26028 67.07085 
102 "J1" 36.11505 0.00000 70.81254 13.59352 6.543112 44.47200 
103 "I10" 40.13275 63.97955 32.23621 20.97151 30.40520 13.56944 
104 "H5" 94.94621 0.00000 47.46014 40.71086 21.07966 20.70531 
105 "G9" 51.97986 3.341726 21.62661 11.28447 6.359254 5.090571 
106 "J5" 30.22812 41.62966 18.14755 9.648868 12.99888 5.448733 
107 "I5" 58.07279 31.10246 0.00000 15.89681 12.82215 2.497432 
108 "C1" 39.41558 25.66262 28.69612 9.352547 7.983124 8.180148 
109 "L9" 72.56580 39.51781 40.00000 27.77896 21.33798 15.96394 
110 "C10" 55.89990 100.0000 0.00000 47.54264 77.54301 13.32372 
111 "J12" 59.78180 0.00000 53.22194 18.28263 9.404357 24.67462 
112 "K14" 24.93019 32.77333 47.46471 9.590962 9.643700 20.14079 
113 "K3" 71.43511 60.43641 98.43290 48.83700 40.67828 96.52327 
114 "D14" 57.36782 26.96422 47.03593 18.23231 12.60253 19.91113 
115 "D10" 0.00000 12.18738 0.00000 1.487118 1.974100 1.162374 
116 "A1" 86.95354 48.42603 73.73617 46.80552 34.07416 52.10247 
117 "G11" 37.10842 0.00000 32.64515 7.189444 4.011404 9.408968 
118 "J6" 0.00000 16.90547 24.42969 2.728164 3.065716 5.863245 
119 "H3" 59.77111 0.308232 70.18235 21.95892 10.88759 44.02133 
120 "M7" 58.09720 6.346227 0.00000 13.30412 7.620279 1.629871 
121 "E9" 72.83894 0.00000 32.64515 22.54114 11.92679 10.12832 
122 "F1" 4.148928 66.27298 18.96391 15.71298 29.37034 8.509089 
123 "C8" 86.86656 36.58503 31.60754 36.03265 24.68381 11.35819 
124 "F13" 58.16434 98.33219 74.67918 56.47405 79.10586 61.64308 
125 "D3" 91.14519 51.14366 35.03014 43.84060 34.69214 14.67815 
126 "B7" 0.00000 77.70199 83.90173 33.03622 45.84841 70.93854 
127 "H2" 64.38544 56.69795 65.02327 32.95437 31.47368 40.83546 
128 "D13" 21.07729 13.12886 0.00000 3.044544 2.872958 1.253853 
129 "F14" 13.69650 0.00000 9.198138 1.841453 1.415617 1.862600 
130 "A10" 81.76699 69.66964 64.42969 49.25084 48.40104 42.52835 
131 "G12" 40.75074 28.70222 9.578088 9.181582 8.718494 2.937813 
132 "I11" 60.10071 39.14092 47.46471 21.96731 18.08474 21.11881 
133 "D1" 0.00000 52.48035 32.70924 10.97803 18.45527 12.02991 
134 "L1" 40.91707 82.01572 39.75738 31.64343 50.08141 21.15033 
135 "D6" 46.96269 45.27657 34.16495 16.46477 17.86105 12.39482 
136 "G10" 27.63104 36.59113 31.60754 8.891425 10.69177 10.08680 
137 "C2" 74.48234 0.00000 0.00000 22.00734 11.83145 1.984367 
138 "I3" 81.76699 59.97864 58.89677 43.62990 39.07262 34.75654 
139 "B4" 40.75227 39.82147 8.557259 11.44471 13.28527 3.564027 
140 "K8" 38.24826 48.06592 57.21218 18.02541 19.51426 30.56323 
141 "A14" 0.00000 47.86297 40.00763 10.27239 15.74183 15.81119 
142 "B1" 27.98199 16.58503 39.77111 6.774278 4.937731 13.75423 
143 "G14" 62.56962 44.36866 23.99481 21.96590 20.41288 8.041120 
144 "A6" 44.92866 36.58808 31.60754 13.30139 12.96470 10.29328 
145 "H10" 100.0000 85.39254 94.41215 82.27196 77.83539 93.76913 
146 "H7" 21.33669 82.85344 21.17342 26.31848 48.30769 12.25370 
147 "I9" 95.45281 71.54803 54.46708 58.99237 55.08361 32.53397 
148 "J13" 36.05097 58.71824 0.00000 16.11849 24.75776 4.789676 
149 "E3" 80.49592 91.26268 88.57099 68.34157 76.85127 83.24481 
150 "I2" 47.87518 28.91890 97.41665 28.20427 16.65218 90.86694 
151 "H11" 71.44884 68.33906 35.34142 37.01473 41.67386 16.55979 
152 "I14" 100.0000 14.70054 77.32204 52.49796 27.39057 55.79563 
153 "J4" 62.20951 25.94797 9.578088 17.19021 12.20530 3.189126 
154 "K5" 100.0000 98.85863 0.00000 76.32333 91.02884 14.41105 
155 "M6" 84.51209 86.45609 76.10895 64.00207 70.15312 61.61914 
156 "F10" 91.43969 100.0000 57.08248 74.83435 91.02445 41.24214 
157 "E1" 71.80285 93.27230 35.03777 52.38295 72.14371 21.46159 
158 "E2" 69.17067 51.52209 74.94774 36.22333 30.08434 53.63778 
159 "L5" 56.39277 9.117266 34.41062 14.39477 8.163339 10.76601 
160 "L2" 47.45556 66.96727 77.14656 33.12986 37.74938 58.54919 
161 "K6" 36.26154 55.48180 57.31136 20.06455 24.33405 31.48822 
162 "A2" 56.39582 69.66659 63.98108 34.60668 40.85994 41.30862 
163 "E10" 42.44450 73.01900 54.84703 29.25373 40.88943 31.72821 
164 "L8" 45.58022 89.78714 100.0000 53.76171 67.29096 104.7078 
165 "B11" 3.904784 10.82017 63.28069 7.926383 4.426922 34.85612 
166 "D8" 60.39216 52.99763 29.26528 24.03691 25.49407 11.04064 
167 "M9" 23.08232 70.28611 100.0000 36.65404 41.07035 100.5475 
168 "H1" 86.79789 58.65263 0.00000 41.35246 37.72973 5.964617 
169 "I13" 59.17144 48.74037 37.16640 22.82145 22.65949 14.70036 
170 "E5" 89.88174 0.00000 32.41779 34.58822 18.14087 10.57679 
171 "A7" 100.0000 44.79438 0.00000 47.81322 34.01659 4.907596 
172 "L14" 14.85008 2.671855 0.00000 1.859830 1.551981 1.061263 
173 "M4" 39.12108 87.64477 0.00000 32.43359 56.17511 9.994854 
174 "K11" 35.57031 46.24094 0.00000 11.64689 15.99426 3.333576 
175 "I4" 0.00000 55.98383 77.15572 20.63867 24.35453 56.63566 
176 "I12" 73.84298 31.30083 97.40902 41.26887 24.01089 91.58365 
177 "D11" 20.44099 0.00000 21.64034 3.095556 2.001001 4.685034 
178 "A11" 39.76959 100.0000 0.00000 41.76444 74.56376 13.05296 
179 "A5" 82.49332 74.34348 15.64813 45.93219 51.04472 10.27289 
180 "F8" 96.26001 100.0000 39.42321 76.14984 92.02660 26.68634 
181 "G13" 47.25414 48.43214 73.73617 24.80219 22.73222 51.07201 
182 "L10" 35.32006 53.96201 33.07088 15.72051 21.67649 12.58962 
END_DATA
