Pre-made_Targets/Patch Width 12-15mm - Intermediate (Easy with ruler)/Generated Targets/CM-Interm-A4-182p-1page-w14.0mm-13x14/CM-Interm-A4-182p-1page.ti1
CTI1   

DESCRIPTOR "Argyll Calibration Target chart information 1"
ORIGINATOR "Argyll targen"
CREATED "Mon Feb  9 15:31:41 2026"
APPROX_WHITE_POINT "95.106486 100.000000 108.844025"
COLOR_REP "iRGB"
TOTAL_INK_LIMIT "300.0"
WHITE_COLOR_PATCHES "3"
BLACK_COLOR_PATCHES "3"
COMP_GREY_STEPS "36"
IFP_PATCHES "142"

NUMBER_OF_FIELDS 7
BEGIN_DATA_FORMAT
SAMPLE_ID RGB_R RGB_G RGB_B XYZ_X XYZ_Y XYZ_Z 
END_DATA_FORMAT

NUMBER_OF_SETS 182
BEGIN_DATA
1 100.0000 100.0000 100.0000 95.10649 100.0000 108.8440 
2 100.0000 100.0000 100.0000 95.10649 100.0000 108.8440 
3 100.0000 100.0000 100.0000 95.10649 100.0000 108.8440 
4 0.00000 0.00000 0.00000 1.000000 1.000000 1.000000 
5 0.00000 0.00000 0.00000 1.000000 1.000000 1.000000 
6 0.00000 0.00000 0.00000 1.000000 1.000000 1.000000 
7 97.14286 97.14286 97.14286 89.10542 93.68688 101.9669 
8 94.28571 94.28571 94.28571 83.33372 87.61505 95.35269 
9 91.42857 91.42857 91.42857 77.78882 81.78182 88.99835 
10 88.57143 88.57143 88.57143 72.46810 76.18442 82.90092 
11 85.71429 85.71429 85.71429 67.36889 70.82005 77.05733 
12 82.85714 82.85714 82.85714 62.48846 65.68585 71.46447 
13 80.00000 80.00000 80.00000 57.82407 60.77891 66.11917 
14 77.14286 77.14286 77.14286 53.37288 56.09625 61.01820 
15 74.28571 74.28571 74.28571 49.13201 51.63486 56.15825 
16 71.42857 71.42857 71.42857 45.09852 47.39164 51.53597 
17 68.57143 68.57143 68.57143 41.26942 43.36342 47.14790 
18 65.71429 65.71429 65.71429 37.64163 39.54698 42.99052 
19 62.85714 62.85714 62.85714 34.21200 35.93901 39.06024 
20 60.00000 60.00000 60.00000 30.97732 32.53613 35.35337 
21 57.14286 57.14286 57.14286 27.93428 29.33486 31.86611 
22 54.28571 54.28571 54.28571 25.07950 26.33163 28.59459 
23 51.42857 51.42857 51.42857 22.40949 23.52278 25.53482 
24 48.57143 48.57143 48.57143 19.92067 20.90454 22.68268 
25 45.71429 45.71429 45.71429 17.60934 18.47302 20.03395 
26 42.85714 42.85714 42.85714 15.47169 16.22421 17.58425 
27 40.00000 40.00000 40.00000 13.50377 14.15396 15.32905 
28 37.14286 37.14286 37.14286 11.70150 12.25798 13.26369 
29 34.28571 34.28571 34.28571 10.06064 10.53179 11.38330 
30 31.42857 31.42857 31.42857 8.576762 8.970752 9.682808 
31 28.57143 28.57143 28.57143 7.245259 7.570011 8.156934 
32 25.71429 25.71429 25.71429 6.061297 6.324483 6.800138 
33 22.85714 22.85714 22.85714 5.019792 5.228820 5.606596 
34 20.00000 20.00000 20.00000 4.115373 4.277372 4.570151 
35 17.14286 17.14286 17.14286 3.342333 3.464134 3.684263 
36 14.28571 14.28571 14.28571 2.694563 2.782680 2.941933 
37 11.42857 11.42857 11.42857 2.165473 2.226078 2.335608 
38 8.571429 8.571429 8.571429 1.747869 1.786758 1.857041 
39 5.714286 5.714286 5.714286 1.433776 1.456332 1.497098 
40 2.857143 2.857143 2.857143 1.208108 1.218930 1.238487 
41 0.00000 0.00000 100.0000 18.87111 8.147314 95.12896 
42 0.00000 32.37632 65.70462 10.98540 9.839772 38.64821 
43 100.0000 0.00000 0.00000 41.83017 22.05217 2.913230 
44 0.00000 100.0000 0.00000 36.40521 71.80052 12.80184 
45 100.0000 91.77751 42.85709 73.71848 81.42334 27.10179 
46 0.00000 42.49525 0.00000 6.347332 11.69317 2.782459 
47 0.00000 98.35261 81.58920 46.37156 73.68691 71.77057 
48 73.49395 0.00000 47.49140 24.81246 12.88183 19.98601 
49 36.24211 0.00000 47.45967 8.829503 4.641531 19.21141 
50 0.00000 71.36313 92.87103 32.66580 40.15212 86.09812 
51 53.39660 22.86410 16.94658 13.02726 9.396730 4.271119 
52 94.64763 70.28604 100.0000 70.91086 58.73355 102.1527 
53 37.91964 74.28792 74.28571 33.09874 43.36984 55.40731 
54 92.31533 57.21393 25.71807 46.17513 39.26130 11.04665 
55 100.0000 36.63884 47.46491 49.16222 31.24433 22.22653 
56 0.00000 27.41960 85.70069 15.76262 10.36521 68.08215 
57 88.03862 0.00000 93.33691 46.86917 22.88280 82.91987 
58 66.84909 94.76185 57.48016 54.02574 74.24119 39.50799 
59 22.40657 24.55611 0.00000 4.417306 5.342856 1.658314 
60 81.55956 57.38510 65.06122 43.78133 37.44998 41.46463 
61 30.08460 0.00000 18.17905 4.502735 2.748739 3.749431 
62 47.00268 36.67636 52.10530 16.75307 14.45817 24.69617 
63 0.00000 91.28305 88.57026 43.35749 63.99151 82.07840 
64 33.25500 51.13393 39.99802 15.02050 19.76068 16.33013 
65 77.66617 100.0000 0.00000 59.47520 83.69548 13.88285 
66 0.00000 3.725953 22.80083 1.861841 1.508026 5.035650 
67 27.28493 55.40391 82.83699 24.61230 25.88122 65.74238 
68 76.94651 69.50890 51.23309 43.24071 45.48700 28.50217 
69 52.90766 58.64484 0.00000 21.60505 27.54310 5.038361 
70 78.23071 98.86291 88.56359 72.51317 87.49941 85.06844 
71 73.23211 73.40646 88.57888 52.43518 52.11977 79.32435 
72 71.34449 50.58053 40.00656 30.22810 27.32666 16.99523 
73 54.86906 41.07836 0.00000 16.67001 16.46486 3.159858 
74 72.10742 0.00000 18.15926 21.03508 11.27299 4.518924 
75 25.87744 0.00000 0.00000 3.223603 2.146497 1.104194 
76 96.92731 59.71464 57.14383 55.30984 44.97440 33.44418 
77 79.21623 31.76230 8.519297 28.16898 19.31505 3.842357 
78 76.75231 32.77917 47.46450 29.99255 20.16465 21.09712 
79 0.00000 70.92019 42.27848 19.99899 34.72134 20.50596 
80 69.17776 88.56733 97.35201 62.51569 70.67383 99.35475 
81 66.00123 39.69664 83.91408 33.69614 23.33896 66.57894 
82 38.16745 74.33150 0.00000 24.04876 39.79612 7.274846 
83 91.12828 0.00000 18.17905 34.56458 18.24872 5.158076 
84 0.00000 37.37217 47.46454 8.497416 10.52294 20.36813 
85 41.87275 43.12001 85.69590 25.08993 20.14999 69.47133 
86 0.00000 38.19227 37.14213 7.300242 10.34770 13.12632 
87 0.00000 92.26983 42.85697 33.24350 61.08146 25.30687 
88 62.85721 75.20729 56.87593 39.08706 47.67836 34.54613 
89 67.65018 78.15746 39.75858 40.58871 51.25297 20.90580 
90 65.12946 97.24837 97.93520 66.85868 82.30180 102.5748 
91 61.62441 48.35890 48.05660 25.35694 23.61755 22.49247 
92 63.09326 0.366684 100.0000 33.41066 15.65887 95.81314 
93 0.00000 68.92993 57.48791 21.50972 33.72238 33.40727 
94 73.79833 79.85064 0.00000 42.86738 54.18249 9.060691 
95 44.06933 60.52757 100.0000 37.03183 34.57462 99.27371 
96 0.00000 66.95265 77.14702 25.31481 33.70982 58.18104 
97 84.60280 68.00814 28.55475 45.02056 45.63684 13.50808 
98 0.00000 10.67340 47.49597 4.816949 3.155242 19.16533 
99 54.89050 100.0000 39.49357 49.41964 78.24343 25.47862 
100 100.0000 78.41586 0.00000 62.27046 62.92703 9.726716 
101 98.79648 100.0000 77.15755 86.07643 96.26028 67.07085 
102 36.11492 0.00000 70.81308 13.59352 6.543112 44.47200 
103 40.13237 63.97896 32.23612 20.97151 30.40520 13.56944 
104 94.94635 0.00000 47.45967 40.71086 21.07966 20.70531 
105 51.98061 3.342145 21.62637 11.28447 6.359254 5.090571 
106 30.22768 41.62892 18.14772 9.648868 12.99888 5.448733 
107 58.07209 31.10188 0.00000 15.89681 12.82215 2.497432 
108 39.41621 25.66300 28.69545 9.352547 7.983124 8.180148 
109 72.56588 39.51765 40.00001 27.77896 21.33798 15.96394 
110 55.90033 100.0000 0.00000 47.54264 77.54301 13.32372 
111 59.78186 0.00000 53.22249 18.28263 9.404357 24.67462 
112 24.93025 32.77285 47.46451 9.590962 9.643700 20.14079 
113 71.43507 60.43705 98.43219 48.83700 40.67828 96.52327 
114 57.36731 26.96450 47.03649 18.23231 12.60253 19.91113 
115 0.00000 12.18705 0.00000 1.487118 1.974100 1.162374 
116 86.95285 48.42602 73.73598 46.80552 34.07416 52.10247 
117 37.10871 0.00000 32.64547 7.189444 4.011404 9.408968 
118 0.00000 16.90528 24.42977 2.728164 3.065716 5.863245 
119 59.77179 0.308031 70.18281 21.95892 10.88759 44.02133 
120 58.09746 6.345712 0.00000 13.30412 7.620279 1.629871 
121 72.83903 0.00000 32.64547 22.54114 11.92679 10.12832 
122 4.149371 66.27240 18.96385 15.71298 29.37034 8.509089 
123 86.86628 36.58445 31.60820 36.03265 24.68381 11.35819 
124 58.16510 98.33148 74.67897 56.47405 79.10586 61.64308 
125 91.14505 51.14426 35.03001 43.84060 34.69214 14.67815 
126 0.00000 77.70152 83.90217 33.03622 45.84841 70.93854 
127 64.38593 56.69819 65.02346 32.95437 31.47368 40.83546 
128 21.07765 13.12873 0.00000 3.044544 2.872958 1.253853 
129 13.69647 0.00000 9.198478 1.841453 1.415617 1.862600 
130 81.76710 69.66946 64.42933 49.25084 48.40104 42.52835 
131 40.75142 28.70264 9.577842 9.181582 8.718494 2.937813 
132 60.10052 39.14085 47.46512 21.96731 18.08474 21.11881 
133 0.00000 52.48034 32.70853 10.97803 18.45527 12.02991 
134 40.91741 82.01502 39.75788 31.64343 50.08141 21.15033 
135 46.96308 45.27657 34.16426 16.46477 17.86105 12.39482 
136 27.63064 36.59069 31.60820 8.891425 10.69177 10.08680 
137 74.48309 0.00000 0.00000 22.00734 11.83145 1.984367 
138 81.76763 59.97795 58.89684 43.62990 39.07262 34.75654 
139 40.75231 39.82219 8.556875 11.44471 13.28527 3.564027 
140 38.24833 48.06593 57.21182 18.02541 19.51426 30.56323 
141 0.00000 47.86364 40.00828 10.27239 15.74183 15.81119 
142 27.98161 16.58473 39.77036 6.774278 4.937731 13.75423 
143 62.57023 44.36840 23.99442 21.96590 20.41288 8.041120 
144 44.92934 36.58807 31.60820 13.30139 12.96470 10.29328 
145 100.0000 85.39291 94.41154 82.27196 77.83539 93.76913 
146 21.33686 82.85373 21.17396 26.31848 48.30769 12.25370 
147 95.45238 71.54874 54.46773 58.99237 55.08361 32.53397 
148 36.05102 58.71790 0.00000 16.11849 24.75776 4.789676 
149 80.49595 91.26217 88.57024 68.34157 76.85127 83.24481 
150 47.87548 28.91959 97.41656 28.20427 16.65218 90.86694 
151 71.44960 68.33972 35.34075 37.01473 41.67386 16.55979 
152 100.0000 14.70027 77.32247 52.49796 27.39057 55.79563 
153 62.20909 25.94745 9.578255 17.19021 12.20530 3.189126 
154 100.0000 98.85899 0.00000 76.32333 91.02884 14.41105 
155 84.51158 86.45599 76.10845 64.00207 70.15312 61.61914 
156 91.44008 100.0000 57.08274 74.83435 91.02445 41.24214 
157 71.80308 93.27159 35.03736 52.38295 72.14371 21.46159 
158 69.17126 51.52221 74.94754 36.22333 30.08434 53.63778 
159 56.39247 9.116697 34.41070 14.39477 8.163339 10.76601 
160 47.45507 66.96694 77.14702 33.12986 37.74938 58.54919 
161 36.26207 55.48187 57.31087 20.06455 24.33405 31.48822 
162 56.39633 69.66631 63.98061 34.60668 40.85994 41.30862 
163 42.44453 73.01928 54.84666 29.25373 40.88943 31.72821 
164 45.57989 89.78711 100.0000 53.76171 67.29096 104.7078 
165 3.905339 10.82068 63.28101 7.926383 4.426922 34.85612 
166 60.39284 52.99731 29.26526 24.03691 25.49407 11.04064 
167 23.08157 70.28568 100.0000 36.65404 41.07035 100.5475 
168 86.79724 58.65290 0.00000 41.35246 37.72973 5.964617 
169 59.17094 48.73972 37.16709 22.82145 22.65949 14.70036 
170 89.88230 0.00000 32.41735 34.58822 18.14087 10.57679 
171 100.0000 44.79508 0.00000 47.81322 34.01659 4.907596 
172 14.85070 2.671507 0.00000 1.859830 1.551981 1.061263 
173 39.12137 87.64447 0.00000 32.43359 56.17511 9.994854 
174 35.56997 46.24124 0.00000 11.64689 15.99426 3.333576 
175 0.00000 55.98332 77.15638 20.63867 24.35453 56.63566 
176 73.84312 31.30056 97.40895 41.26887 24.01089 91.58365 
177 20.44098 0.00000 21.64031 3.095556 2.001001 4.685034 
178 39.76924 100.0000 0.00000 41.76444 74.56376 13.05296 
179 82.49313 74.34274 15.64748 45.93219 51.04472 10.27289 
180 96.25947 100.0000 39.42388 76.14984 92.02660 26.68634 
181 47.25483 48.43255 73.73598 24.80219 22.73222 51.07201 
182 35.32053 53.96251 33.07116 15.72051 21.67649 12.58962 
END_DATA
CTI1   

DESCRIPTOR "Argyll Calibration Target chart information 1"
ORIGINATOR "Argyll targen"
DENSITY_EXTREME_VALUES "8"
CREATED "February 9, 2026"

NUMBER_OF_FIELDS 7
BEGIN_DATA_FORMAT
INDEX RGB_R RGB_G RGB_B XYZ_X XYZ_Y XYZ_Z 
END_DATA_FORMAT

NUMBER_OF_SETS 8
BEGIN_DATA
0 100.0000 100.0000 100.0000 95.10649 100.0000 108.8440 
1 0.00000 47.36069 100.0000 25.61297 21.62916 97.37627 
2 100.0000 0.00000 79.35138 52.42580 26.28975 58.72152 
3 0.00000 0.00000 58.99714 6.485834 3.193987 29.89445 
4 100.0000 66.65930 0.00000 56.05879 50.50543 7.656144 
5 0.00000 35.60114 0.00000 4.685619 8.370208 2.228550 
6 84.44436 0.00000 0.00000 28.84279 15.35583 2.304665 
7 0.00000 0.00000 0.00000 1.000000 1.000000 1.000000 
END_DATA
CTI1   

DESCRIPTOR "Argyll Calibration Target chart information 1"
ORIGINATOR "Argyll targen"
DEVICE_COMBINATION_VALUES "9"
CREATED "February 9, 2026"

NUMBER_OF_FIELDS 7
BEGIN_DATA_FORMAT
INDEX RGB_R RGB_G RGB_B XYZ_X XYZ_Y XYZ_Z 
END_DATA_FORMAT

NUMBER_OF_SETS 9
BEGIN_DATA
0 100.0000 100.0000 100.0000 95.10649 100.0000 108.8440 
1 0.00000 100.0000 100.0000 54.27632 78.94783 106.9308 
2 100.0000 0.00000 100.0000 59.70128 29.19948 97.04219 
3 0.00000 0.00000 100.0000 18.87111 8.147314 95.12896 
4 100.0000 100.0000 0.00000 77.23538 92.85269 14.71507 
5 0.00000 100.0000 0.00000 36.40521 71.80052 12.80184 
6 100.0000 0.00000 0.00000 41.83017 22.05217 2.913230 
7 0.00000 0.00000 0.00000 1.000000 1.000000 1.000000 
8 50.00000 50.00000 50.00000 21.14266 22.19007 24.08306 
END_DATA
