Pre-made_Targets/Patch Width 8-11mm - Expert (Use rig-guide-ruler)/Designed Targets/i1Pro-Expert-10x15cm-484p-4pages-w8.5mm-11x11/10x15-profile.ti2
CTI2   

DESCRIPTOR "Argyll Calibration Target chart information 2"
ORIGINATOR "Argyll printtarg"
CREATED "Sat Nov 05 20:10:20 2022"
TARGET_INSTRUMENT "GretagMacbeth i1 Pro"
COMP_GREY_STEPS "128"
APPROX_WHITE_POINT "95.106486 100.000000 108.844025"
COLOR_REP "iRGB"
PAPER_SIZE "101.6x152.4"
RANDOM_START "180"
STEPS_IN_PASS "11"
PASSES_IN_STRIPS2 "11,11,11,11"
STRIP_INDEX_PATTERN "A-Z, A-Z"
PATCH_INDEX_PATTERN "0-9,@-9,@-9;1-999"
INDEX_ORDER "STRIP_THEN_PATCH"

NUMBER_OF_FIELDS 8
BEGIN_DATA_FORMAT
SAMPLE_ID SAMPLE_LOC RGB_R RGB_G RGB_B XYZ_X XYZ_Y XYZ_Z 
END_DATA_FORMAT

NUMBER_OF_SETS 484
BEGIN_DATA
1 "Y3" 100 100 100 95.1065 100 108.844 
2 "Q1" 26.1021 38.3261 62.5757 13.8065 13.2619 35.4322 
3 "F2" 52.7565 52.7565 52.7565 23.6271 24.8037 26.9302 
4 "AK4" 100 40.676 100 64.5749 38.9454 98.6667 
5 "N8" 48.1041 90.4723 91.7067 51.9341 67.4319 88.1173 
6 "M8" 100 100 26.1982 78.2327 93.2516 19.9682 
7 "Z7" 12.1233 29.8695 78.3734 14.432 10.5484 56.1593 
8 "AN6" 0.00000 100 61.4832 42.4122 74.2029 44.4413 
9 "M1" 42.1286 51.7327 11.3313 15.4311 20.5236 5.15308 
10 "K4" 74.4152 54.9905 19.1699 31.8284 30.6607 7.96648 
11 "AH11" 20.2945 100 57.499 42.9797 74.5906 40.177 
12 "O8" 53.0724 8.96315 54.4915 15.8566 8.57289 25.8507 
13 "T2" 100 19.1821 21.8326 43.6128 24.499 6.95521 
14 "AL3" 38.941 60.0031 0.00000 17.4063 26.1989 5.00002 
15 "V5" 98.4253 98.4253 98.4253 91.7703 96.4903 105.021 
16 "AP3" 97.6379 97.6379 97.6379 90.1285 94.7631 103.139 
17 "AM6" 96.8505 96.8505 96.8505 88.5041 93.0543 101.278 
18 "V2" 96.0632 96.0632 96.0632 86.8972 91.3638 99.4363 
19 "AK5" 95.2758 95.2758 95.2758 85.3076 89.6915 97.6147 
20 "AR8" 94.4884 94.4884 94.4884 83.7352 88.0375 95.8128 
21 "A2" 93.7011 93.7011 93.7011 82.1802 86.4015 94.0307 
22 "X9" 92.9137 92.9137 92.9137 80.6423 84.7837 92.2684 
23 "E6" 92.1263 92.1263 92.1263 79.1215 83.1838 90.5256 
24 "G10" 91.339 91.339 91.339 77.6178 81.6019 88.8024 
25 "AD7" 90.5516 90.5516 90.5516 76.1312 80.038 87.0987 
26 "Z5" 89.7642 89.7642 89.7642 74.6615 78.4919 85.4145 
27 "AC6" 88.9769 88.9769 88.9769 73.2087 76.9635 83.7496 
28 "N10" 88.1895 88.1895 88.1895 71.7727 75.4529 82.1041 
29 "AQ8" 87.4022 87.4022 87.4022 70.3536 73.96 80.4778 
30 "AG3" 86.6148 86.6148 86.6148 68.9512 72.4846 78.8706 
31 "F4" 85.8274 85.8274 85.8274 67.5655 71.0269 77.2826 
32 "W8" 85.0401 85.0401 85.0401 66.1964 69.5866 75.7137 
33 "F9" 84.2527 84.2527 84.2527 64.8439 68.1637 74.1637 
34 "W3" 83.4653 83.4653 83.4653 63.5079 66.7583 72.6327 
35 "M2" 82.678 82.678 82.678 62.1883 65.3701 71.1205 
36 "H7" 81.8891 81.8891 81.8891 60.8851 63.9991 69.6271 
37 "AE6" 81.1017 81.1017 81.1017 59.5983 62.6454 68.1524 
38 "P5" 80.3143 80.3143 80.3143 58.3277 61.3088 66.6964 
39 "E4" 79.527 79.527 79.527 57.0734 59.9892 65.2589 
40 "R9" 78.7396 78.7396 78.7396 55.8352 58.6866 63.84 
41 "V8" 77.9522 77.9522 77.9522 54.6131 57.401 62.4395 
42 "Z2" 77.1649 77.1649 77.1649 53.4071 56.1323 61.0574 
43 "L10" 76.3775 76.3775 76.3775 52.217 54.8803 59.6936 
44 "AL4" 75.5901 75.5901 75.5901 51.0429 53.6451 58.3481 
45 "B5" 74.8028 74.8028 74.8028 49.8846 52.4266 57.0207 
46 "U4" 74.0154 74.0154 74.0154 48.7421 51.2246 55.7114 
47 "O7" 73.228 73.228 73.228 47.6153 50.0393 54.4201 
48 "C2" 72.4407 72.4407 72.4407 46.5042 48.8704 53.1468 
49 "AN2" 71.6533 71.6533 71.6533 45.4087 47.7179 51.8914 
50 "A7" 70.8659 70.8659 70.8659 44.3287 46.5818 50.6538 
51 "O9" 70.0786 70.0786 70.0786 43.2642 45.4619 49.4339 
52 "C9" 69.2912 69.2912 69.2912 42.2151 44.3583 48.2317 
53 "O2" 68.5039 68.5039 68.5039 41.1814 43.2708 47.047 
54 "A9" 67.7165 67.7165 67.7165 40.163 42.1994 45.8799 
55 "I2" 66.9291 66.9291 66.9291 39.1598 41.1441 44.7303 
56 "I4" 66.1418 66.1418 66.1418 38.1717 40.1046 43.598 
57 "X7" 65.3544 65.3544 65.3544 37.1987 39.081 42.4829 
58 "O4" 64.567 64.567 64.567 36.2407 38.0733 41.3851 
59 "N5" 63.7797 63.7797 63.7797 35.2977 37.0812 40.3045 
60 "AJ2" 62.9923 62.9923 62.9923 34.3696 36.1048 39.2409 
61 "Q6" 62.2049 62.2049 62.2049 33.4563 35.144 38.1942 
62 "AL10" 61.4176 61.4176 61.4176 32.5578 34.1988 37.1645 
63 "I9" 60.6302 60.6302 60.6302 31.6739 33.2689 36.1516 
64 "M9" 59.8428 59.8428 59.8428 30.8046 32.3545 35.1555 
65 "AC2" 59.0555 59.0555 59.0555 29.9499 31.4553 34.176 
66 "AG5" 58.2681 58.2681 58.2681 29.1097 30.5714 33.2131 
67 "AD9" 57.4807 57.4807 57.4807 28.2838 29.7026 32.2667 
68 "T10" 56.6934 56.6934 56.6934 27.4723 28.8489 31.3367 
69 "AJ7" 55.906 55.906 55.906 26.6751 28.0101 30.4231 
70 "AN7" 55.1186 55.1186 55.1186 25.892 27.1864 29.5257 
71 "X4" 54.3313 54.3313 54.3313 25.123 26.3774 28.6445 
72 "J5" 53.5439 53.5439 53.5439 24.3681 25.5832 27.7793 
73 "W5" 100 100 100 95.1065 100 108.844 
74 "AE4" 51.9692 51.9692 51.9692 22.9001 24.0389 26.097 
75 "A4" 51.1818 51.1818 51.1818 22.1868 23.2885 25.2796 
76 "AD2" 50.3944 50.3944 50.3944 21.4873 22.5526 24.478 
77 "C4" 49.6056 49.6056 49.6056 20.8014 21.8311 23.692 
78 "AH10" 48.8182 48.8182 48.8182 20.1292 21.1239 22.9216 
79 "AD4" 48.0308 48.0308 48.0308 19.4704 20.4309 22.1667 
80 "AJ4" 47.2435 47.2435 47.2435 18.8251 19.752 21.4271 
81 "AE9" 46.4561 46.4561 46.4561 18.1931 19.0871 20.7029 
82 "S6" 45.6687 45.6687 45.6687 17.5743 18.4362 19.9938 
83 "AG8" 44.8814 44.8814 44.8814 16.9688 17.7992 19.2999 
84 "U2" 44.094 44.094 44.094 16.3764 17.1759 18.621 
85 "AI2" 43.3066 43.3066 43.3066 15.797 16.5664 17.957 
86 "AH8" 42.5193 42.5193 42.5193 15.2305 15.9705 17.3078 
87 "AA10" 41.7319 41.7319 41.7319 14.6769 15.3881 16.6734 
88 "B8" 40.9445 40.9445 40.9445 14.136 14.8191 16.0536 
89 "AN4" 40.1572 40.1572 40.1572 13.6079 14.2635 15.4484 
90 "P8" 39.3698 39.3698 39.3698 13.0923 13.7211 14.8576 
91 "P3" 38.5824 38.5824 38.5824 12.5893 13.1919 14.2811 
92 "AC4" 37.7951 37.7951 37.7951 12.0987 12.6758 13.7188 
93 "C7" 37.0077 37.0077 37.0077 11.6204 12.1726 13.1707 
94 "M7" 36.2203 36.2203 36.2203 11.1543 11.6824 12.6367 
95 "P10" 35.433 35.433 35.433 10.7005 11.2049 12.1165 
96 "J8" 34.6456 34.6456 34.6456 10.2586 10.7401 11.6102 
97 "D11" 33.8582 33.8582 33.8582 9.82877 10.2879 11.1176 
98 "F11" 33.0709 33.0709 33.0709 9.41078 9.84814 10.6386 
99 "AM1" 32.2835 32.2835 32.2835 9.00457 9.4208 10.1731 
100 "R1" 31.4961 31.4961 31.4961 8.61004 9.00576 9.72094 
101 "AP2" 30.7088 30.7088 30.7088 8.22709 8.6029 9.28209 
102 "S1" 29.9214 29.9214 29.9214 7.85563 8.21212 8.8564 
103 "AG11" 29.1341 29.1341 29.1341 7.49555 7.83331 8.44376 
104 "AK6" 28.3467 28.3467 28.3467 7.14675 7.46638 8.04404 
105 "R5" 27.5593 27.5593 27.5593 6.80912 7.1112 7.65713 
106 "AN11" 26.772 26.772 26.772 6.48257 6.76767 7.28291 
107 "AP11" 25.9846 25.9846 25.9846 6.16699 6.43567 6.92126 
108 "K6" 25.1972 25.1972 25.1972 5.86227 6.1151 6.57205 
109 "AJ11" 24.4099 24.4099 24.4099 5.56829 5.80584 6.23516 
110 "AE1" 23.6225 23.6225 23.6225 5.28495 5.50777 5.91047 
111 "G11" 22.8351 22.8351 22.8351 5.01214 5.22077 5.59783 
112 "H4" 22.0478 22.0478 22.0478 4.74974 4.94473 5.29712 
113 "AG2" 21.2604 21.2604 21.2604 4.49763 4.67951 5.00821 
114 "K1" 20.473 20.473 20.473 4.2557 4.42499 4.73096 
115 "AP5" 19.6857 19.6857 19.6857 4.02382 4.18106 4.46523 
116 "AQ4" 18.8983 18.8983 18.8983 3.80187 3.94757 4.21089 
117 "U11" 18.1109 18.1109 18.1109 3.58973 3.7244 3.96778 
118 "E5" 17.322 17.322 17.322 3.38727 3.5114 3.73575 
119 "F5" 16.5347 16.5347 16.5347 3.19435 3.30845 3.51468 
120 "AK11" 15.7473 15.7473 15.7473 3.01084 3.11541 3.30439 
121 "Z1" 14.9599 14.9599 14.9599 2.83662 2.93212 3.10473 
122 "AR4" 14.1726 14.1726 14.1726 2.67153 2.75845 2.91554 
123 "B3" 13.3852 13.3852 13.3852 2.51544 2.59425 2.73667 
124 "V1" 12.5978 12.5978 12.5978 2.36821 2.43935 2.56794 
125 "V10" 11.8105 11.8105 11.8105 2.22967 2.29361 2.40917 
126 "AF9" 11.0231 11.0231 11.0231 2.09968 2.15686 2.26021 
127 "P6" 10.2358 10.2358 10.2358 1.97808 2.02894 2.12086 
128 "AM5" 9.44839 9.44839 9.44839 1.86471 1.90967 1.99094 
129 "AE7" 8.66102 8.66102 8.66102 1.7594 1.79889 1.87025 
130 "AH1" 7.87366 7.87366 7.87366 1.66198 1.6964 1.75861 
131 "G7" 7.08629 7.08629 7.08629 1.57226 1.60202 1.6558 
132 "AK8" 6.29892 6.29892 6.29892 1.49007 1.51556 1.56161 
133 "H6" 5.51156 5.51156 5.51156 1.41522 1.43681 1.47583 
134 "F8" 4.72419 4.72419 4.72419 1.34749 1.36556 1.39822 
135 "O6" 3.93683 3.93683 3.93683 1.28669 1.3016 1.32854 
136 "N9" 3.14946 3.14946 3.14946 1.22941 1.24134 1.2629 
137 "V7" 2.3621 2.3621 2.3621 1.17206 1.181 1.19717 
138 "R10" 1.57473 1.57473 1.57473 1.11471 1.12067 1.13145 
139 "Y4" 0.787366 0.787366 0.787366 1.05735 1.06033 1.06572 
140 "AH9" 100 100 0.00000 77.2354 92.8527 14.7151 
141 "Q7" 100 0.00000 100 59.7013 29.1995 97.0422 
142 "D9" 0.00000 100 100 54.2763 78.9478 106.931 
143 "P11" 0.00000 100 0.00000 36.4052 71.8005 12.8018 
144 "X6" 0.00000 0.00000 100 18.8711 8.14731 95.129 
145 "AO2" 100 0.00000 0.00000 41.8302 22.0522 2.91323 
146 "AD8" 0.00000 34.4335 100 22.3105 15.0252 96.2754 
147 "AJ5" 100 52.5994 0.00000 50.288 38.9655 5.73254 
148 "AC5" 100 0.00000 75.1003 51.1962 25.798 52.2449 
149 "A5" 0.00000 100 39.6475 38.7359 72.7326 25.0776 
150 "L4" 41.1978 100 0.00000 42.1795 74.7778 13.0724 
151 "B7" 54.6151 0.00000 100 29.4569 13.6054 95.625 
152 "B9" 0.00000 74.6151 0.00000 19.2882 37.5714 7.09613 
153 "H10" 100 100 100 95.1065 100 108.844 
154 "AL2" 0.00000 0.00000 37.5692 3.08134 1.83241 11.9626 
155 "AO6" 46.6926 0.00000 0.00000 8.54138 4.88836 1.35338 
156 "K11" 100 100 55.2132 81.9802 94.7503 39.7063 
157 "F6" 54.6105 100 100 64.8606 84.4051 107.427 
158 "AB6" 0.00000 51.2398 100 26.8619 24.1267 97.7926 
159 "AP4" 100 0.00000 47.4907 45.2533 23.4212 20.9433 
160 "AL1" 0.00000 79.8657 66.363 29.4091 46.4337 45.5554 
161 "Z10" 0.00000 47.5853 0.00000 7.81096 14.62 3.27034 
162 "B1" 62.3362 39.2981 0.00000 19.6798 17.3575 3.17363 
163 "J2" 65.9159 0.00000 57.0809 22.1087 11.2935 28.6275 
164 "AO11" 56.6522 100 78.7274 58.2825 81.8765 68.1672 
165 "AH6" 100 58.1704 60.6119 58.1885 45.4517 37.0866 
166 "AN5" 61.5503 39.8444 100 37.2943 24.5711 97.3289 
167 "T7" 100 63.2059 100 72.3499 54.4932 101.258 
168 "AE3" 100 24.3198 0.00000 43.5366 25.4645 3.48204 
169 "AP8" 0.00000 20.2029 47.0237 5.54568 4.72894 19.0491 
170 "S2" 61.9287 100 0.00000 50.3499 78.9904 13.4553 
171 "AK7" 20.0763 50.8965 100 28.1081 24.5981 97.818 
172 "J7" 0.00000 100 81.2818 47.5886 76.2732 71.7059 
173 "V9" 42.0081 0.00000 45.4383 10.1311 5.34788 17.6816 
174 "Q11" 44.48 100 48.8167 46.8341 76.7575 32.2521 
175 "Y2" 19.2416 50.602 0.00000 10.0342 17.2001 3.65127 
176 "F1" 0.00000 0.00000 80.148 11.8359 5.33367 58.0737 
177 "AB11" 26.3828 100 100 56.5868 80.1391 107.039 
178 "G5" 0.00000 65.9586 100 32.7704 35.942 99.7621 
179 "Q5" 73.5317 0.00000 0.00000 21.4129 11.525 1.95651 
180 "Z4" 0.00000 57.9782 21.5229 12.1409 22.1909 8.06849 
181 "B6" 0.00000 21.4389 0.00000 2.3372 3.67402 1.44574 
182 "AC8" 26.4149 0.00000 100 21.1871 9.34146 95.2375 
183 "AI7" 100 100 80.5707 88.2 97.2378 72.4669 
184 "Y7" 78.88 0.00000 100 42.7575 20.4632 96.2482 
185 "AE11" 58.4649 78.7396 0.00000 33.9174 48.5903 8.45262 
186 "R11" 100 20.2564 39.9466 45.3987 25.4001 15.7851 
187 "D5" 0.00000 0.00000 0.00000 1 1 1 
188 "AA9" 100 85.9159 42.0523 69.5723 73.3059 25.1841 
189 "AR7" 19.3256 0.00000 0.00000 2.26744 1.6535 1.05939 
190 "AF8" 65.9983 85.771 100 59.9284 66.4294 104.217 
191 "R3" 81.854 100 20.0107 62.9547 85.421 17.1373 
192 "AG4" 100 78.1003 0.00000 62.0863 62.5588 9.66534 
193 "A6" 0.00000 0.00000 17.0047 1.43835 1.17531 3.30885 
194 "R2" 100 100 100 95.1065 100 108.844 
195 "P9" 64.9165 100 38.5443 54.0752 80.6572 25.095 
196 "R4" 80.7004 100 100 79.4182 91.9111 108.109 
197 "AJ3" 80.3586 59.8276 0.00000 37.1104 36.2508 5.90257 
198 "AE5" 100 19.6017 80.6332 53.9426 28.7018 61.1425 
199 "V3" 19.5209 100 0.00000 37.6967 72.4664 12.8624 
200 "AI9" 100 83.0045 100 82.927 75.6445 104.784 
201 "A11" 39.1455 38.1018 0.00000 10.4304 12.1652 2.65853 
202 "AN1" 100 39.9435 41.6251 49.1036 32.4647 18.0821 
203 "AA2" 62.9282 0.00000 79.3408 26.038 12.6845 57.4688 
204 "G8" 0.00000 46.1524 80.0763 18.1923 18.0794 60.0859 
205 "W10" 18.6709 84.3275 100 44.1276 56.889 103.207 
206 "U10" 42.0996 37.6532 100 29.0595 19.549 96.7932 
207 "S5" 43.3066 0.00000 86.865 20.4086 9.50479 69.7127 
208 "P1" 0.00000 37.0062 34.9676 6.78735 9.70594 11.7715 
209 "AE10" 20.8164 100 37.232 39.9055 73.369 23.6279 
210 "S7" 63.65 100 58.6206 56.6285 81.602 41.9872 
211 "AB1" 40.4746 0.00000 28.5374 7.745 4.34089 7.49236 
212 "X10" 0.00000 39.9496 55.9518 10.5764 12.3359 28.2914 
213 "AO7" 100 81.442 61.7746 70.1546 68.9827 42.3021 
214 "AF11" 80.7477 0.00000 37.0535 28.1966 14.7888 12.83 
215 "M11" 0.00000 0.00000 0.00000 1 1 1 
216 "I10" 82.5055 100 0.00000 62.829 85.4247 14.04 
217 "AR10" 21.146 31.6777 100 23.2702 14.715 96.165 
218 "AB4" 27.3564 60.6943 27.0268 16.1119 25.8363 10.5607 
219 "Y6" 77.0733 42.0905 71.0094 37.1819 26.476 47.3429 
220 "U1" 79.0051 79.9863 0.00000 46.3415 56.0945 9.24678 
221 "J3" 42.1637 42.9358 59.7467 18.1708 17.3127 32.8134 
222 "X8" 100 82.7588 21.7914 65.5981 68.4675 14.2712 
223 "O5" 19.7848 0.00000 57.1557 7.44202 3.7296 28.0165 
224 "A8" 0.00000 78.6893 21.9226 22.3047 42.4766 11.577 
225 "AO10" 32.5734 47.0481 73.2906 20.0531 19.6623 50.0959 
226 "AF3" 100 81.593 81.1704 75.3256 71.198 69.084 
227 "P7" 100 0.00000 22.9313 42.5983 22.3594 6.95901 
228 "H1" 0.00000 59.5682 64.9805 18.888 25.9125 40.4504 
229 "Z3" 62.1073 68.9677 16.0327 30.7725 39.0794 8.84912 
230 "AA7" 77.1344 22.8489 38.0087 27.3612 16.5882 13.8015 
231 "K7" 35.0973 73.5973 54.8211 27.5339 40.4629 31.7112 
232 "J6" 0.00000 0.00000 58.851 6.45592 3.18202 29.7369 
233 "AO5" 41.1276 57.8241 100 35.0242 31.9104 98.8652 
234 "H3" 0.00000 83.3906 100 42.3412 55.081 102.952 
235 "AJ8" 81.2696 25.2842 100 46.2545 24.9996 96.9397 
236 "E11" 100 42.8229 81.1261 58.4009 37.3747 63.3765 
237 "H8" 0.00000 100 18.1796 36.9005 71.9986 15.4106 
238 "AP9" 41.1429 100 27.0878 43.2289 75.1956 18.6852 
239 "L9" 18.6313 23.9963 0.00000 3.84632 4.93453 1.60957 
240 "E3" 37.8653 81.3062 0.00000 28.0048 47.8277 8.61682 
241 "D7" 100 100 100 95.1065 100 108.844 
242 "W11" 60.4807 0.00000 36.585 16.206 8.6125 11.9917 
243 "AQ3" 66.4683 57.7462 100 45.5449 37.2896 99.3494 
244 "AC1" 84.6418 39.1623 0.00000 33.4886 24.4282 3.81121 
245 "AH2" 100 19.6765 100 60.8379 31.4725 97.4211 
246 "R7" 38.8647 100 67.5517 48.9081 77.3915 52.0025 
247 "AK9" 62.5422 18.6389 62.15 22.4298 12.8627 34.4116 
248 "O3" 100 35.935 15.9701 45.9794 29.7231 6.22788 
249 "V4" 47.5105 10.7164 19.379 9.78115 6.05004 4.43568 
250 "G1" 70.6706 88.8212 28.4382 47.9185 65.2158 17.0838 
251 "AQ11" 82.6184 100 63.3219 69.3214 88.0307 47.8093 
252 "X5" 61.6709 19.7314 100 33.8307 17.5563 96.1573 
253 "AH5" 82.2538 0.00000 79.5453 37.8969 18.7919 58.3443 
254 "Y11" 38.1888 59.5789 48.6549 20.6324 27.1861 23.9279 
255 "T9" 0.00000 23.2929 72.8756 11.3262 7.63931 47.6498 
256 "AO4" 86.1036 36.6781 50.9178 37.9917 25.4329 24.6272 
257 "AB3" 100 63.9277 79.1882 65.3466 52.2061 62.787 
258 "N7" 100 35.8068 61.4633 51.5632 31.9121 35.7746 
259 "AK1" 23.9643 68.6839 100 35.9886 39.5398 100.287 
260 "N3" 81.9791 77.5387 100 64.8479 61.433 102.993 
261 "AM7" 59.2874 58.5916 0.00000 24.3741 28.9388 5.16194 
262 "J10" 48.632 68.2155 74.2443 33.3365 38.8437 54.461 
263 "Y8" 40.9094 83.6896 100 48.2205 58.3946 103.282 
264 "AL5" 56.8597 19.4064 0.00000 13.6674 9.17532 1.91091 
265 "Q8" 64.6586 30.5684 29.0425 20.2581 14.7859 9.07309 
266 "AO8" 55.9533 57.0779 31.0231 23.6701 27.5286 12.2725 
267 "L3" 57.1679 45.9068 67.219 26.3191 22.566 42.1869 
268 "AJ10" 86.3294 0.00000 60.1236 35.9822 18.3755 32.4912 
269 "AM3" 0.00000 36.5164 15.4223 5.25377 8.91766 4.23347 
270 "AR9" 36.6461 0.00000 12.6955 5.77768 3.43294 2.59789 
271 "AK10" 100 50.6661 26.4454 50.6446 38.053 10.8647 
272 "AB9" 34.4381 76.8994 37.4609 26.6008 42.9968 18.6041 
273 "Z8" 0.00000 17.3831 100 19.7749 9.95472 95.4302 
274 "AM8" 75.9808 100 83.1662 70.1438 87.8342 75.8513 
275 "AC3" 40.325 15.1156 100 25.0932 12.3997 95.6221 
276 "AI4" 19.2996 100 81.5854 48.9471 76.9627 72.2614 
277 "AR1" 18.1842 0.00000 18.5718 2.6473 1.78976 3.76664 
278 "U9" 25.5512 55.9396 58.5901 18.2439 23.6211 32.7839 
279 "AJ1" 7.37469 10.927 53.4005 6.08217 3.7155 24.387 
280 "C6" 92.3842 72.3186 33.2433 53.78 53.3392 16.7868 
281 "S9" 10.7637 71.4107 51.4824 22.1161 36.0256 28.0121 
282 "M6" 39.0127 100 87.7394 54.8378 79.7677 83.0203 
283 "AP10" 100 64.9332 42.1332 57.9064 49.9597 21.3493 
284 "W4" 26.9215 27.4968 72.7459 14.3037 10.0794 47.7821 
285 "G2" 47.8798 16.3531 31.8975 11.2517 7.31527 9.45431 
286 "B2" 0.00000 72.8008 83.3234 30.135 40.344 69.0547 
287 "M3" 61.622 0.00000 17.0871 15.2346 8.28824 3.97515 
288 "AD1" 45.3559 0.00000 62.62 14.3406 7.155 34.2767 
289 "AA4" 47.4434 88.9097 67.7455 43.3692 62.2355 49.6162 
290 "A10" 0.00000 78.732 45.2766 24.7158 43.4818 24.1503 
291 "U6" 19.0234 0.00000 38.0362 4.36652 2.48874 12.3074 
292 "N4" 31.8349 0.00000 74.1375 13.4745 6.37934 49.0874 
293 "L2" 58.0941 100 18.1384 49.0149 78.2451 15.9673 
294 "AJ6" 20.1846 88.5817 9.44533 29.4343 55.5571 10.894 
295 "R8" 0.00000 17.9355 21.6495 2.64485 3.18911 4.94112 
296 "AD10" 88.8685 25.2049 11.7281 34.3054 20.8625 4.29006 
297 "N6" 66.157 17.2427 77.2137 27.9928 15.0866 54.5459 
298 "AP6" 99.2126 99.2126 99.2126 93.4296 98.2359 106.922 
299 "P4" 18.6374 76.1334 0.00000 21.3164 39.8688 7.43279 
300 "L5" 56.9482 27.6555 40.7279 17.2668 12.3683 15.2698 
301 "AP7" 73.9864 11.7327 49.6086 25.9139 14.0899 21.9301 
302 "S11" 16.0647 12.7901 100 20.303 9.66917 95.3473 
303 "AG10" 67.0939 82.4872 43.4455 43.3776 56.5119 24.3156 
304 "U8" 37.142 12.9091 48.1819 9.71036 5.87847 19.9961 
305 "C8" 80.0977 19.0845 0.00000 26.7956 15.8936 2.5163 
306 "L6" 36.4187 86.9001 84.1428 43.3007 59.6366 73.4671 
307 "L1" 69.7017 55.874 39.7757 31.1123 30.5728 17.4244 
308 "U5" 81.6205 0.00000 17.0794 27.2329 14.4747 4.53561 
309 "I6" 9.93057 32.7657 39.1455 6.7782 8.32425 14.004 
310 "AF10" 72.4025 53.2799 86.0151 42.1209 33.6417 71.7337 
311 "AG9" 94.5068 94.1802 13.1151 68.0888 81.4147 14.4463 
312 "I8" 76.1837 73.1243 13.8582 40.8828 47.4744 9.47113 
313 "K2" 17.7707 91.9768 90.7378 45.7024 65.8503 86.3108 
314 "W1" 34.2596 33.4478 12.903 8.43449 9.60929 3.68819 
315 "P2" 100 14.2504 60.3677 48.2348 25.6292 33.5148 
316 "B10" 0.00000 0.00000 0.00000 1 1 1 
317 "AI5" 34.8928 65.7343 92.8496 33.9724 36.7269 85.3274 
318 "S3" 71.0369 46.5492 57.2122 31.525 25.7865 31.0632 
319 "AR11" 0.00000 59.6933 44.2145 15.0889 24.4751 20.1872 
320 "I5" 44.8005 78.8891 25.2613 29.5477 46.3598 13.1177 
321 "G6" 87.1885 58.8571 43.743 44.6077 39.1981 21.1265 
322 "AI8" 0.00000 0.00000 0.00000 1 1 1 
323 "F10" 100 65.8122 18.6786 56.1818 49.9185 10.2661 
324 "AL9" 71.7845 11.7357 10.9895 21.0116 11.9734 3.15356 
325 "N11" 24.1001 100 18.3368 38.8416 72.9985 15.5427 
326 "B11" 14.4228 52.6375 67.6783 17.647 21.2968 42.983 
327 "AK2" 61.7578 33.4005 61.5183 24.1041 17.01 34.4065 
328 "M4" 27.5929 47.541 45.2567 13.4105 17.1293 19.6428 
329 "D4" 25.742 46.3661 31.014 11.0425 15.5759 10.626 
330 "D2" 29.839 43.7156 90.7362 23.9711 19.6152 78.5288 
331 "L11" 10.2449 10.8995 72.0333 10.3645 5.44439 46.101 
332 "H11" 84.5258 49.2699 33.7911 37.9136 30.7344 13.5492 
333 "AR2" 72.0165 83.9628 90.0099 58.3962 64.3389 83.9942 
334 "O10" 16.6903 0.00000 80.7294 12.9815 5.90384 59.0533 
335 "E10" 90.1183 6.65751 90.3563 47.6425 23.7007 77.3605 
336 "J9" 90.4417 89.3629 61.9684 67.0539 75.0655 43.8614 
337 "K5" 46.1646 25.8488 90.0755 24.3819 14.2804 76.2461 
338 "J11" 36.2295 16.7697 0.00000 6.25477 4.96604 1.4888 
339 "AM2" 61.5091 70.9422 31.0155 32.4781 41.3196 14.4672 
340 "AN9" 38.6923 62.24 64.3503 24.9274 30.7138 40.3007 
341 "C10" 85.4841 100 41.7792 67.6304 87.5992 27.8559 
342 "AK3" 17.8958 68.8975 76.2799 27.1082 36.0624 57.2375 
343 "Q2" 27.0726 83.9567 23.7781 28.0868 50.2377 13.3985 
344 "K10" 90.1793 22.0829 50.602 38.6356 22.0511 23.6603 
345 "S8" 77.2213 57.9522 72.4712 42.8752 37.1001 51.1083 
346 "Y10" 56.0113 71.5404 100 46.7054 47.2074 101.203 
347 "H2" 34.931 19.9496 35.9609 8.15219 6.19925 11.5861 
348 "K9" 55.6634 50.0191 10.8186 19.8217 21.937 5.11263 
349 "Z11" 83.5111 50.7744 100 53.8599 37.8152 99.0129 
350 "AL6" 5.26131 57.8241 80.4334 22.4931 26.2535 62.0049 
351 "V11" 64.5853 41.8997 78.7716 31.9114 23.4346 58.3431 
352 "Q10" 59.9786 41.1551 47.0192 22.3427 19.0314 20.9219 
353 "AF1" 24.0955 63.0869 42.2461 18.1944 28.2514 19.3293 
354 "G9" 56.9909 50.7668 90.1411 34.5716 28.2997 78.5357 
355 "G3" 10.753 66.7491 63.4562 22.1704 32.3508 39.7018 
356 "AC11" 9.47738 89.5476 52.8618 33.2554 58.0382 32.9369 
357 "AD5" 7.23888 63.2639 9.01045 14.0829 26.5384 6.04221 
358 "L7" 49.305 76.9726 44.1199 32.0097 45.7498 23.3319 
359 "A1" 18.0484 23.0442 47.686 7.10646 6.02911 19.7549 
360 "K8" 16.2478 40.8072 52.3323 11.0521 12.9773 24.9188 
361 "T8" 43.8148 74.3435 86.688 38.6505 45.8392 75.4542 
362 "D10" 100 100 100 95.1065 100 108.844 
363 "AI10" 52.4132 88.1636 54.2321 41.8513 61.0265 34.3565 
364 "AR3" 37.8561 11.1467 62.8428 12.5568 6.85465 34.5702 
365 "C11" 49.7505 40.3006 19.4888 14.9879 15.2398 5.96626 
366 "Q3" 16.5194 34.8455 24.8203 6.37199 8.8978 6.94113 
367 "AB2" 34.6441 14.9294 77.203 15.6682 8.43233 53.8935 
368 "AF2" 0.00000 0.00000 0.00000 1 1 1 
369 "E7" 90.8766 19.4156 69.4545 42.839 23.3077 44.3497 
370 "W9" 73.4417 44.123 9.00435 27.3021 23.1411 4.6894 
371 "T4" 90.782 46.6377 67.2831 47.6406 33.8803 43.3277 
372 "AR6" 74.1054 73.7545 53.6431 44.0465 49.1274 31.3818 
373 "F3" 91.0765 9.00282 36.7468 36.3163 19.4283 13.1154 
374 "AI1" 76.4126 38.8037 93.9452 43.1645 27.4956 85.1926 
375 "AQ7" 42.4582 35.8755 74.2535 20.0317 15.3146 50.6335 
376 "C3" 18.4482 79.0845 39.1608 25.2666 44.1683 19.9593 
377 "E8" 71.3436 10.9071 91.8563 35.2269 17.5465 79.6531 
378 "E1" 53.1609 89.7108 32.9274 40.2418 62.1255 19.031 
379 "AQ5" 76.4767 68.809 33.3822 40.1813 43.6717 15.71 
380 "AF6" 74.4762 89.2668 55.0256 54.0808 68.441 35.9135 
381 "AF5" 44.6845 58.8754 85.0156 31.0554 31.1221 70.098 
382 "T1" 0.00000 0.00000 0.00000 1 1 1 
383 "AG7" 34.0856 70.8202 17.3648 21.6172 35.7362 9.00627 
384 "O11" 40.1801 50.1381 27.3091 15.1834 19.5021 9.50342 
385 "T6" 27.4739 9.54604 7.62493 3.95555 3.00039 1.86048 
386 "W6" 58.8098 65.2918 45.7481 30.1949 35.8564 22.7525 
387 "Q4" 55.0072 82.2858 79.1165 45.0538 56.2989 64.5348 
388 "AQ9" 9.13252 66.8269 33.4127 17.2961 30.4487 14.3791 
389 "AB7" 14.3313 10.9102 30.4387 3.49433 2.73415 8.27042 
390 "R6" 85.5024 85.8427 23.2059 55.4758 66.1798 14.8337 
391 "U7" 73.7087 67.8157 91.3985 50.8761 46.9694 83.6395 
392 "W2" 15.6527 72.7199 19.8337 19.7125 36.2071 9.86363 
393 "AL11" 72.9137 29.5369 82.2919 35.0427 20.9514 63.3398 
394 "M10" 55.1766 85.0919 13.8567 36.6929 55.8222 11.303 
395 "Q9" 41.8372 90.6767 11.5496 35.5459 60.8683 11.9173 
396 "Z9" 69.7887 29.1539 49.6132 25.3773 16.7658 22.4792 
397 "AB10" 91.0658 64.1932 69.0227 54.8677 47.303 47.7809 
398 "I7" 57.0428 12.845 41.9669 15.8013 9.11685 15.5667 
399 "T11" 69.2973 2.32547 68.5725 26.5967 13.4077 42.1389 
400 "W7" 13.4508 49.6345 19.0967 9.66457 16.4747 6.3753 
401 "K3" 27.7119 59.5727 80.4089 25.5666 28.8818 62.3133 
402 "Y5" 25.1453 79.0967 85.8885 36.6033 48.8226 74.7352 
403 "J1" 28.7098 89.0898 71.3802 39.3433 60.2379 54.2523 
404 "AN10" 52.1233 10.9499 72.9335 19.7456 10.2579 47.7941 
405 "AN8" 28.2795 87.0649 53.8323 34.0109 55.8898 33.3964 
406 "AN3" 88.8426 44.9271 21.1505 38.9019 29.402 7.93421 
407 "AH4" 8.03082 17.8393 86.8193 15.2161 8.23592 69.66 
408 "D6" 6.05783 84.6632 83.3677 37.3268 54.4026 71.4639 
409 "AL8" 90.4265 32.8954 82.1057 48.0658 28.5892 63.8217 
410 "AE8" 90.0694 9.07454 7.8645 33.6381 18.2681 3.27226 
411 "AF7" 67.924 27.8447 9.16457 20.4958 14.3453 3.37126 
412 "S10" 60.4456 60.5982 79.7375 36.4589 35.1513 61.8824 
413 "L8" 87.8538 75.8083 65.7404 57.3562 57.3738 45.4254 
414 "D3" 78.5367 31.7388 21.2406 28.2249 19.2768 6.57048 
415 "AI6" 47.3396 26.8437 50.8598 14.8103 10.7393 22.9602 
