Pre-made_Targets/Patch Width 8-11mm - Expert (Use rig-guide-ruler)/Designed Targets/i1Pro-Expert-10x15cm-484p-4pages-w8.5mm-11x11/10x15-profile.ti1
CTI1   

DESCRIPTOR "Argyll Calibration Target chart information 1"
ORIGINATOR "Argyll targen"
CREATED "Sat Nov 05 20:08:26 2022"
APPROX_WHITE_POINT "95.106486 100.000000 108.844025"
COLOR_REP "iRGB"
WHITE_COLOR_PATCHES "7"
BLACK_COLOR_PATCHES "6"
COMP_GREY_STEPS "128"
OFPS_PATCHES "345"

NUMBER_OF_FIELDS 7
BEGIN_DATA_FORMAT
SAMPLE_ID RGB_R RGB_G RGB_B XYZ_X XYZ_Y XYZ_Z 
END_DATA_FORMAT

NUMBER_OF_SETS 484
BEGIN_DATA
1 100 100 100 95.1065 100 108.844 
2 26.1015 38.3265 62.576 13.8065 13.2619 35.4322 
3 52.7559 52.7559 52.7559 23.6271 24.8037 26.9302 
4 100 40.6757 100 64.5749 38.9454 98.6667 
5 48.1046 90.473 91.7065 51.9341 67.4319 88.1173 
6 100 100 26.1988 78.2327 93.2516 19.9682 
7 12.123 29.8701 78.373 14.432 10.5484 56.1593 
8 0.00000 100 61.4828 42.4122 74.2029 44.4413 
9 42.1292 51.7327 11.3321 15.4311 20.5236 5.15308 
10 74.4147 54.9906 19.1699 31.8284 30.6607 7.96648 
11 20.2943 100 57.4993 42.9797 74.5906 40.177 
12 53.0717 8.96346 54.4912 15.8566 8.57289 25.8507 
13 100 19.1816 21.8321 43.6128 24.499 6.95521 
14 38.9414 60.0025 0.00000 17.4063 26.1989 5.00002 
15 98.4252 98.4252 98.4252 91.7703 96.4903 105.021 
16 97.6378 97.6378 97.6378 90.1285 94.7631 103.139 
17 96.8504 96.8504 96.8504 88.5041 93.0543 101.278 
18 96.063 96.063 96.063 86.8972 91.3638 99.4363 
19 95.2756 95.2756 95.2756 85.3076 89.6915 97.6147 
20 94.4882 94.4882 94.4882 83.7352 88.0375 95.8128 
21 93.7008 93.7008 93.7008 82.1802 86.4015 94.0307 
22 92.9134 92.9134 92.9134 80.6423 84.7837 92.2684 
23 92.126 92.126 92.126 79.1215 83.1838 90.5256 
24 91.3386 91.3386 91.3386 77.6178 81.6019 88.8024 
25 90.5512 90.5512 90.5512 76.1312 80.038 87.0987 
26 89.7638 89.7638 89.7638 74.6615 78.4919 85.4145 
27 88.9764 88.9764 88.9764 73.2087 76.9635 83.7496 
28 88.189 88.189 88.189 71.7727 75.4529 82.1041 
29 87.4016 87.4016 87.4016 70.3536 73.96 80.4778 
30 86.6142 86.6142 86.6142 68.9512 72.4846 78.8706 
31 85.8268 85.8268 85.8268 67.5655 71.0269 77.2826 
32 85.0394 85.0394 85.0394 66.1964 69.5866 75.7137 
33 84.252 84.252 84.252 64.8439 68.1637 74.1637 
34 83.4646 83.4646 83.4646 63.5079 66.7583 72.6327 
35 82.6772 82.6772 82.6772 62.1883 65.3701 71.1205 
36 81.8898 81.8898 81.8898 60.8851 63.9991 69.6271 
37 81.1024 81.1024 81.1024 59.5983 62.6454 68.1524 
38 80.315 80.315 80.315 58.3277 61.3088 66.6964 
39 79.5276 79.5276 79.5276 57.0734 59.9892 65.2589 
40 78.7402 78.7402 78.7402 55.8352 58.6866 63.84 
41 77.9528 77.9528 77.9528 54.6131 57.401 62.4395 
42 77.1654 77.1654 77.1654 53.4071 56.1323 61.0574 
43 76.378 76.378 76.378 52.217 54.8803 59.6936 
44 75.5906 75.5906 75.5906 51.0429 53.6451 58.3481 
45 74.8031 74.8031 74.8031 49.8846 52.4266 57.0207 
46 74.0157 74.0157 74.0157 48.7421 51.2246 55.7114 
47 73.2283 73.2283 73.2283 47.6153 50.0393 54.4201 
48 72.4409 72.4409 72.4409 46.5042 48.8704 53.1468 
49 71.6535 71.6535 71.6535 45.4087 47.7179 51.8914 
50 70.8661 70.8661 70.8661 44.3287 46.5818 50.6538 
51 70.0787 70.0787 70.0787 43.2642 45.4619 49.4339 
52 69.2913 69.2913 69.2913 42.2151 44.3583 48.2317 
53 68.5039 68.5039 68.5039 41.1814 43.2708 47.047 
54 67.7165 67.7165 67.7165 40.163 42.1994 45.8799 
55 66.9291 66.9291 66.9291 39.1598 41.1441 44.7303 
56 66.1417 66.1417 66.1417 38.1717 40.1046 43.598 
57 65.3543 65.3543 65.3543 37.1987 39.081 42.4829 
58 64.5669 64.5669 64.5669 36.2407 38.0733 41.3851 
59 63.7795 63.7795 63.7795 35.2977 37.0812 40.3045 
60 62.9921 62.9921 62.9921 34.3696 36.1048 39.2409 
61 62.2047 62.2047 62.2047 33.4563 35.144 38.1942 
62 61.4173 61.4173 61.4173 32.5578 34.1988 37.1645 
63 60.6299 60.6299 60.6299 31.6739 33.2689 36.1516 
64 59.8425 59.8425 59.8425 30.8046 32.3545 35.1555 
65 59.0551 59.0551 59.0551 29.9499 31.4553 34.176 
66 58.2677 58.2677 58.2677 29.1097 30.5714 33.2131 
67 57.4803 57.4803 57.4803 28.2838 29.7026 32.2667 
68 56.6929 56.6929 56.6929 27.4723 28.8489 31.3367 
69 55.9055 55.9055 55.9055 26.6751 28.0101 30.4231 
70 55.1181 55.1181 55.1181 25.892 27.1864 29.5257 
71 54.3307 54.3307 54.3307 25.123 26.3774 28.6445 
72 53.5433 53.5433 53.5433 24.3681 25.5832 27.7793 
73 100 100 100 95.1065 100 108.844 
74 51.9685 51.9685 51.9685 22.9001 24.0389 26.097 
75 51.1811 51.1811 51.1811 22.1868 23.2885 25.2796 
76 50.3937 50.3937 50.3937 21.4873 22.5526 24.478 
77 49.6063 49.6063 49.6063 20.8014 21.8311 23.692 
78 48.8189 48.8189 48.8189 20.1292 21.1239 22.9216 
79 48.0315 48.0315 48.0315 19.4704 20.4309 22.1667 
80 47.2441 47.2441 47.2441 18.8251 19.752 21.4271 
81 46.4567 46.4567 46.4567 18.1931 19.0871 20.7029 
82 45.6693 45.6693 45.6693 17.5743 18.4362 19.9938 
83 44.8819 44.8819 44.8819 16.9688 17.7992 19.2999 
84 44.0945 44.0945 44.0945 16.3764 17.1759 18.621 
85 43.3071 43.3071 43.3071 15.797 16.5664 17.957 
86 42.5197 42.5197 42.5197 15.2305 15.9705 17.3078 
87 41.7323 41.7323 41.7323 14.6769 15.3881 16.6734 
88 40.9449 40.9449 40.9449 14.136 14.8191 16.0536 
89 40.1575 40.1575 40.1575 13.6079 14.2635 15.4484 
90 39.3701 39.3701 39.3701 13.0923 13.7211 14.8576 
91 38.5827 38.5827 38.5827 12.5893 13.1919 14.2811 
92 37.7953 37.7953 37.7953 12.0987 12.6758 13.7188 
93 37.0079 37.0079 37.0079 11.6204 12.1726 13.1707 
94 36.2205 36.2205 36.2205 11.1543 11.6824 12.6367 
95 35.4331 35.4331 35.4331 10.7005 11.2049 12.1165 
96 34.6457 34.6457 34.6457 10.2586 10.7401 11.6102 
97 33.8583 33.8583 33.8583 9.82877 10.2879 11.1176 
98 33.0709 33.0709 33.0709 9.41078 9.84814 10.6386 
99 32.2835 32.2835 32.2835 9.00457 9.4208 10.1731 
100 31.4961 31.4961 31.4961 8.61004 9.00576 9.72094 
101 30.7087 30.7087 30.7087 8.22709 8.6029 9.28209 
102 29.9213 29.9213 29.9213 7.85563 8.21212 8.8564 
103 29.1339 29.1339 29.1339 7.49555 7.83331 8.44376 
104 28.3465 28.3465 28.3465 7.14675 7.46638 8.04404 
105 27.5591 27.5591 27.5591 6.80912 7.1112 7.65713 
106 26.7717 26.7717 26.7717 6.48257 6.76767 7.28291 
107 25.9843 25.9843 25.9843 6.16699 6.43567 6.92126 
108 25.1969 25.1969 25.1969 5.86227 6.1151 6.57205 
109 24.4094 24.4094 24.4094 5.56829 5.80584 6.23516 
110 23.622 23.622 23.622 5.28495 5.50777 5.91047 
111 22.8346 22.8346 22.8346 5.01214 5.22077 5.59783 
112 22.0472 22.0472 22.0472 4.74974 4.94473 5.29712 
113 21.2598 21.2598 21.2598 4.49763 4.67951 5.00821 
114 20.4724 20.4724 20.4724 4.2557 4.42499 4.73096 
115 19.685 19.685 19.685 4.02382 4.18106 4.46523 
116 18.8976 18.8976 18.8976 3.80187 3.94757 4.21089 
117 18.1102 18.1102 18.1102 3.58973 3.7244 3.96778 
118 17.3228 17.3228 17.3228 3.38727 3.5114 3.73575 
119 16.5354 16.5354 16.5354 3.19435 3.30845 3.51468 
120 15.748 15.748 15.748 3.01084 3.11541 3.30439 
121 14.9606 14.9606 14.9606 2.83662 2.93212 3.10473 
122 14.1732 14.1732 14.1732 2.67153 2.75845 2.91554 
123 13.3858 13.3858 13.3858 2.51544 2.59425 2.73667 
124 12.5984 12.5984 12.5984 2.36821 2.43935 2.56794 
125 11.811 11.811 11.811 2.22967 2.29361 2.40917 
126 11.0236 11.0236 11.0236 2.09968 2.15686 2.26021 
127 10.2362 10.2362 10.2362 1.97808 2.02894 2.12086 
128 9.44882 9.44882 9.44882 1.86471 1.90967 1.99094 
129 8.66142 8.66142 8.66142 1.7594 1.79889 1.87025 
130 7.87402 7.87402 7.87402 1.66198 1.6964 1.75861 
131 7.08661 7.08661 7.08661 1.57226 1.60202 1.6558 
132 6.29921 6.29921 6.29921 1.49007 1.51556 1.56161 
133 5.51181 5.51181 5.51181 1.41522 1.43681 1.47583 
134 4.72441 4.72441 4.72441 1.34749 1.36556 1.39822 
135 3.93701 3.93701 3.93701 1.28669 1.3016 1.32854 
136 3.14961 3.14961 3.14961 1.22941 1.24134 1.2629 
137 2.3622 2.3622 2.3622 1.17206 1.181 1.19717 
138 1.5748 1.5748 1.5748 1.11471 1.12067 1.13145 
139 0.787402 0.787402 0.787402 1.05735 1.06033 1.06572 
140 100 100 0.00000 77.2354 92.8527 14.7151 
141 100 0.00000 100 59.7013 29.1995 97.0422 
142 0.00000 100 100 54.2763 78.9478 106.931 
143 0.00000 100 0.00000 36.4052 71.8005 12.8018 
144 0.00000 0.00000 100 18.8711 8.14731 95.129 
145 100 0.00000 0.00000 41.8302 22.0522 2.91323 
146 0.00000 34.434 100 22.3105 15.0252 96.2754 
147 100 52.5987 0.00000 50.288 38.9655 5.73254 
148 100 0.00000 75.1003 51.1962 25.798 52.2449 
149 0.00000 100 39.6479 38.7359 72.7326 25.0776 
150 41.1983 100 0.00000 42.1795 74.7778 13.0724 
151 54.6144 0.00000 100 29.4569 13.6054 95.625 
152 0.00000 74.6148 0.00000 19.2882 37.5714 7.09613 
153 100 100 100 95.1065 100 108.844 
154 0.00000 0.00000 37.5691 3.08134 1.83241 11.9626 
155 46.6933 0.00000 0.00000 8.54138 4.88836 1.35338 
156 100 100 55.2127 81.9802 94.7503 39.7063 
157 54.6107 100 100 64.8606 84.4051 107.427 
158 0.00000 51.2398 100 26.8619 24.1267 97.7926 
159 100 0.00000 47.4907 45.2533 23.4212 20.9433 
160 0.00000 79.8651 66.3624 29.4091 46.4337 45.5554 
161 0.00000 47.5858 0.00000 7.81096 14.62 3.27034 
162 62.3366 39.2985 0.00000 19.6798 17.3575 3.17363 
163 65.9155 0.00000 57.0816 22.1087 11.2935 28.6275 
164 56.6527 100 78.7272 58.2825 81.8765 68.1672 
165 100 58.1712 60.6117 58.1885 45.4517 37.0866 
166 61.55 39.845 100 37.2943 24.5711 97.3289 
167 100 63.2057 100 72.3499 54.4932 101.258 
168 100 24.3201 0.00000 43.5366 25.4645 3.48204 
169 0.00000 20.2022 47.0236 5.54568 4.72894 19.0491 
170 61.929 100 0.00000 50.3499 78.9904 13.4553 
171 20.0766 50.8972 100 28.1081 24.5981 97.818 
172 0.00000 100 81.2817 47.5886 76.2732 71.7059 
173 42.008 0.00000 45.4388 10.1311 5.34788 17.6816 
174 44.4801 100 48.8166 46.8341 76.7575 32.2521 
175 19.2417 50.6022 0.00000 10.0342 17.2001 3.65127 
176 0.00000 0.00000 80.1478 11.8359 5.33367 58.0737 
177 26.3824 100 100 56.5868 80.1391 107.039 
178 0.00000 65.9586 100 32.7704 35.942 99.7621 
179 73.5322 0.00000 0.00000 21.4129 11.525 1.95651 
180 0.00000 57.9788 21.5226 12.1409 22.1909 8.06849 
181 0.00000 21.4395 0.00000 2.3372 3.67402 1.44574 
182 26.4143 0.00000 100 21.1871 9.34146 95.2375 
183 100 100 80.5703 88.2 97.2378 72.4669 
184 78.88 0.00000 100 42.7575 20.4632 96.2482 
185 58.4655 78.7403 0.00000 33.9174 48.5903 8.45262 
186 100 20.2571 39.9467 45.3987 25.4001 15.7851 
187 0.00000 0.00000 0.00000 1 1 1 
188 100 85.9162 42.0518 69.5723 73.3059 25.1841 
189 19.3254 0.00000 0.00000 2.26744 1.6535 1.05939 
190 65.9989 85.7706 100 59.9284 66.4294 104.217 
191 81.8545 100 20.0104 62.9547 85.421 17.1373 
192 100 78.1 0.00000 62.0863 62.5588 9.66534 
193 0.00000 0.00000 17.0052 1.43835 1.17531 3.30885 
194 100 100 100 95.1065 100 108.844 
195 64.9166 100 38.5446 54.0752 80.6572 25.095 
196 80.7004 100 100 79.4182 91.9111 108.109 
197 80.359 59.8269 0.00000 37.1104 36.2508 5.90257 
198 100 19.6012 80.6332 53.9426 28.7018 61.1425 
199 19.5205 100 0.00000 37.6967 72.4664 12.8624 
200 100 83.0038 100 82.927 75.6445 104.784 
201 39.1449 38.1017 0.00000 10.4304 12.1652 2.65853 
202 100 39.9441 41.6245 49.1036 32.4647 18.0821 
203 62.9277 0.00000 79.341 26.038 12.6845 57.4688 
204 0.00000 46.153 80.0765 18.1923 18.0794 60.0859 
205 18.6714 84.3268 100 44.1276 56.889 103.207 
206 42.0998 37.6538 100 29.0595 19.549 96.7932 
207 43.3073 0.00000 86.8647 20.4086 9.50479 69.7127 
208 0.00000 37.0056 34.967 6.78735 9.70594 11.7715 
209 20.8163 100 37.2319 39.9055 73.369 23.6279 
210 63.6497 100 58.6205 56.6285 81.602 41.9872 
211 40.4747 0.00000 28.5373 7.745 4.34089 7.49236 
212 0.00000 39.9501 55.9516 10.5764 12.3359 28.2914 
213 100 81.4426 61.774 70.1546 68.9827 42.3021 
214 80.7471 0.00000 37.0536 28.1966 14.7888 12.83 
215 0.00000 0.00000 0.00000 1 1 1 
216 82.5052 100 0.00000 62.829 85.4247 14.04 
217 21.1461 31.6782 100 23.2702 14.715 96.165 
218 27.3569 60.6944 27.0269 16.1119 25.8363 10.5607 
219 77.0727 42.0908 71.0088 37.1819 26.476 47.3429 
220 79.0045 79.9863 0.00000 46.3415 56.0945 9.24678 
221 42.1637 42.9351 59.747 18.1708 17.3127 32.8134 
222 100 82.7586 21.7907 65.5981 68.4675 14.2712 
223 19.7853 0.00000 57.1561 7.44202 3.7296 28.0165 
224 0.00000 78.689 21.9231 22.3047 42.4766 11.577 
225 32.5736 47.0482 73.2903 20.0531 19.6623 50.0959 
226 100 81.5923 81.1698 75.3256 71.198 69.084 
227 100 0.00000 22.9306 42.5983 22.3594 6.95901 
228 0.00000 59.568 64.9802 18.888 25.9125 40.4504 
229 62.1067 68.967 16.0319 30.7725 39.0794 8.84912 
230 77.1338 22.8491 38.0089 27.3612 16.5882 13.8015 
231 35.0969 73.5978 54.8207 27.5339 40.4629 31.7112 
232 0.00000 0.00000 58.8504 6.45592 3.18202 29.7369 
233 41.1276 57.824 100 35.0242 31.9104 98.8652 
234 0.00000 83.3906 100 42.3412 55.081 102.952 
235 81.2689 25.2836 100 46.2545 24.9996 96.9397 
236 100 42.8227 81.1265 58.4009 37.3747 63.3765 
237 0.00000 100 18.1799 36.9005 71.9986 15.4106 
238 41.1433 100 27.0874 43.2289 75.1956 18.6852 
239 18.6316 23.996 0.00000 3.84632 4.93453 1.60957 
240 37.8651 81.306 0.00000 28.0048 47.8277 8.61682 
241 100 100 100 95.1065 100 108.844 
242 60.4813 0.00000 36.5856 16.206 8.6125 11.9917 
243 66.4679 57.7464 100 45.5449 37.2896 99.3494 
244 84.6417 39.1619 0.00000 33.4886 24.4282 3.81121 
245 100 19.6761 100 60.8379 31.4725 97.4211 
246 38.8645 100 67.552 48.9081 77.3915 52.0025 
247 62.5417 18.639 62.1501 22.4298 12.8627 34.4116 
248 100 35.9343 15.9697 45.9794 29.7231 6.22788 
249 47.511 10.7161 19.3788 9.78115 6.05004 4.43568 
250 70.6702 88.8217 28.4381 47.9185 65.2158 17.0838 
251 82.6186 100 63.3226 69.3214 88.0307 47.8093 
252 61.6711 19.7308 100 33.8307 17.5563 96.1573 
253 82.2539 0.00000 79.5451 37.8969 18.7919 58.3443 
254 38.1893 59.5782 48.6553 20.6324 27.1861 23.9279 
255 0.00000 23.2923 72.8758 11.3262 7.63931 47.6498 
256 86.1034 36.6778 50.9183 37.9917 25.4329 24.6272 
257 100 63.9272 79.1879 65.3466 52.2061 62.787 
258 100 35.8071 61.4639 51.5632 31.9121 35.7746 
259 23.965 68.6834 100 35.9886 39.5398 100.287 
260 81.9785 77.5382 100 64.8479 61.433 102.993 
261 59.2874 58.5911 0.00000 24.3741 28.9388 5.16194 
262 48.6315 68.216 74.244 33.3365 38.8437 54.461 
263 40.9102 83.69 100 48.2205 58.3946 103.282 
264 56.8598 19.4068 0.00000 13.6674 9.17532 1.91091 
265 64.6593 30.5691 29.0432 20.2581 14.7859 9.07309 
266 55.9537 57.0782 31.0224 23.6701 27.5286 12.2725 
267 57.1682 45.9061 67.2194 26.3191 22.566 42.1869 
268 86.3292 0.00000 60.1232 35.9822 18.3755 32.4912 
269 0.00000 36.5169 15.4226 5.25377 8.91766 4.23347 
270 36.6466 0.00000 12.6962 5.77768 3.43294 2.59789 
271 100 50.6662 26.4459 50.6446 38.053 10.8647 
272 34.4379 76.8989 37.4608 26.6008 42.9968 18.6041 
273 0.00000 17.3829 100 19.7749 9.95472 95.4302 
274 75.9803 100 83.1659 70.1438 87.8342 75.8513 
275 40.325 15.1159 100 25.0932 12.3997 95.6221 
276 19.2999 100 81.5856 48.9471 76.9627 72.2614 
277 18.1845 0.00000 18.5719 2.6473 1.78976 3.76664 
278 25.5513 55.9395 58.5895 18.2439 23.6211 32.7839 
279 7.37506 10.927 53.4011 6.08217 3.7155 24.387 
280 92.3839 72.3189 33.2432 53.78 53.3392 16.7868 
281 10.7635 71.4109 51.4824 22.1161 36.0256 28.0121 
282 39.0131 100 87.7395 54.8378 79.7677 83.0203 
283 100 64.9337 42.1336 57.9064 49.9597 21.3493 
284 26.9212 27.4963 72.7463 14.3037 10.0794 47.7821 
285 47.8796 16.353 31.8975 11.2517 7.31527 9.45431 
286 0.00000 72.8001 83.3233 30.135 40.344 69.0547 
287 61.6213 0.00000 17.0863 15.2346 8.28824 3.97515 
288 45.3557 0.00000 62.6206 14.3406 7.155 34.2767 
289 47.4427 88.9102 67.7459 43.3692 62.2355 49.6162 
290 0.00000 78.7325 45.2771 24.7158 43.4818 24.1503 
291 19.0227 0.00000 38.0356 4.36652 2.48874 12.3074 
292 31.8345 0.00000 74.1376 13.4745 6.37934 49.0874 
293 58.0943 100 18.1382 49.0149 78.2451 15.9673 
294 20.1843 88.5814 9.44558 29.4343 55.5571 10.894 
295 0.00000 17.9362 21.6497 2.64485 3.18911 4.94112 
296 88.8691 25.2056 11.7279 34.3054 20.8625 4.29006 
297 66.1572 17.2424 77.2135 27.9928 15.0866 54.5459 
298 99.2126 99.2126 99.2126 93.4296 98.2359 106.922 
299 18.6374 76.1341 0.00000 21.3164 39.8688 7.43279 
300 56.9485 27.6556 40.7283 17.2668 12.3683 15.2698 
301 73.9864 11.7331 49.6081 25.9139 14.0899 21.9301 
302 16.0645 12.7905 100 20.303 9.66917 95.3473 
303 67.0932 82.4875 43.4456 43.3776 56.5119 24.3156 
304 37.1419 12.9093 48.1821 9.71036 5.87847 19.9961 
305 80.0977 19.0842 0.00000 26.7956 15.8936 2.5163 
306 36.419 86.8999 84.1429 43.3007 59.6366 73.4671 
307 69.7011 55.8738 39.776 31.1123 30.5728 17.4244 
308 81.621 0.00000 17.0791 27.2329 14.4747 4.53561 
309 9.931 32.7652 39.1452 6.7782 8.32425 14.004 
310 72.4022 53.2806 86.0145 42.1209 33.6417 71.7337 
311 94.5075 94.1804 13.1153 68.0888 81.4147 14.4463 
312 76.1832 73.1247 13.8575 40.8828 47.4744 9.47113 
313 17.7707 91.9761 90.7371 45.7024 65.8503 86.3108 
314 34.2591 33.4484 12.9034 8.43449 9.60929 3.68819 
315 100 14.2509 60.3676 48.2348 25.6292 33.5148 
316 0.00000 0.00000 0.00000 1 1 1 
317 34.8933 65.734 92.85 33.9724 36.7269 85.3274 
318 71.0375 46.549 57.212 31.525 25.7865 31.0632 
319 0.00000 59.6931 44.215 15.0889 24.4751 20.1872 
320 44.8008 78.889 25.262 29.5477 46.3598 13.1177 
321 87.1886 58.8572 43.7437 44.6077 39.1981 21.1265 
322 0.00000 0.00000 0.00000 1 1 1 
323 100 65.8121 18.6783 56.1818 49.9185 10.2661 
324 71.7842 11.735 10.9892 21.0116 11.9734 3.15356 
325 24.1002 100 18.3365 38.8416 72.9985 15.5427 
326 14.4228 52.6377 67.679 17.647 21.2968 42.983 
327 61.7573 33.4007 61.519 24.1041 17.01 34.4065 
328 27.5931 47.5403 45.256 13.4105 17.1293 19.6428 
329 25.7419 46.3664 31.0134 11.0425 15.5759 10.626 
330 29.8386 43.716 90.7362 23.9711 19.6152 78.5288 
331 10.2454 10.8996 72.0332 10.3645 5.44439 46.101 
332 84.5254 49.2692 33.7911 37.9136 30.7344 13.5492 
333 72.0172 83.9631 90.0096 58.3962 64.3389 83.9942 
334 16.6907 0.00000 80.7292 12.9815 5.90384 59.0533 
335 90.1187 6.6572 90.3562 47.6425 23.7007 77.3605 
336 90.4414 89.3622 61.969 67.0539 75.0655 43.8614 
337 46.1639 25.8488 90.076 24.3819 14.2804 76.2461 
338 36.2297 16.7692 0.00000 6.25477 4.96604 1.4888 
339 61.5088 70.9428 31.0154 32.4781 41.3196 14.4672 
340 38.6925 62.2401 64.3504 24.9274 30.7138 40.3007 
341 85.4844 100 41.7793 67.6304 87.5992 27.8559 
342 17.8958 68.8968 76.2801 27.1082 36.0624 57.2375 
343 27.0728 83.9565 23.7775 28.0868 50.2377 13.3985 
344 90.1793 22.0822 50.6013 38.6356 22.0511 23.6603 
345 77.2219 57.9521 72.4713 42.8752 37.1001 51.1083 
346 56.0108 71.54 100 46.7054 47.2074 101.203 
347 34.9312 19.9497 35.961 8.15219 6.19925 11.5861 
348 55.6639 50.0186 10.8185 19.8217 21.937 5.11263 
349 83.5106 50.7751 100 53.8599 37.8152 99.0129 
350 5.2606 57.8247 80.4326 22.4931 26.2535 62.0049 
351 64.5847 41.9004 78.7709 31.9114 23.4346 58.3431 
352 59.9789 41.155 47.0194 22.3427 19.0314 20.9219 
353 24.0959 63.0869 42.2461 18.1944 28.2514 19.3293 
354 56.9904 50.767 90.1407 34.5716 28.2997 78.5357 
355 10.7529 66.7493 63.4564 22.1704 32.3508 39.7018 
356 9.47684 89.5479 52.862 33.2554 58.0382 32.9369 
357 7.23838 63.2642 9.01102 14.0829 26.5384 6.04221 
358 49.3051 76.9733 44.1198 32.0097 45.7498 23.3319 
359 18.0482 23.0435 47.6867 7.10646 6.02911 19.7549 
360 16.2476 40.8077 52.3326 11.0521 12.9773 24.9188 
361 43.8142 74.3437 86.6885 38.6505 45.8392 75.4542 
362 100 100 100 95.1065 100 108.844 
363 52.4133 88.1636 54.2318 41.8513 61.0265 34.3565 
364 37.8561 11.1472 62.8429 12.5568 6.85465 34.5702 
365 49.7502 40.3004 19.4882 14.9879 15.2398 5.96626 
366 16.52 34.8456 24.8205 6.37199 8.8978 6.94113 
367 34.6448 14.9292 77.2023 15.6682 8.43233 53.8935 
368 0.00000 0.00000 0.00000 1 1 1 
369 90.876 19.4161 69.4538 42.839 23.3077 44.3497 
370 73.4412 44.1227 9.00492 27.3021 23.1411 4.6894 
371 90.7827 46.6375 67.2824 47.6406 33.8803 43.3277 
372 74.1058 73.7548 53.6428 44.0465 49.1274 31.3818 
373 91.0761 9.00303 36.7468 36.3163 19.4283 13.1154 
374 76.4126 38.8036 93.9446 43.1645 27.4956 85.1926 
375 42.4582 35.8755 74.2535 20.0317 15.3146 50.6335 
376 18.4487 79.0843 39.1609 25.2666 44.1683 19.9593 
377 71.3442 10.9066 91.8564 35.2269 17.5465 79.6531 
378 53.1616 89.7113 32.927 40.2418 62.1255 19.031 
379 76.4765 68.8086 33.3822 40.1813 43.6717 15.71 
380 74.4765 89.2672 55.0254 54.0808 68.441 35.9135 
381 44.6843 58.8751 85.0151 31.0554 31.1221 70.098 
382 0.00000 0.00000 0.00000 1 1 1 
383 34.0851 70.8207 17.3641 21.6172 35.7362 9.00627 
384 40.1794 50.1385 27.3089 15.1834 19.5021 9.50342 
385 27.4744 9.54607 7.62526 3.95555 3.00039 1.86048 
386 58.8093 65.2912 45.7477 30.1949 35.8564 22.7525 
387 55.0068 82.2854 79.117 45.0538 56.2989 64.5348 
388 9.13247 66.8273 33.4129 17.2961 30.4487 14.3791 
389 14.3319 10.9106 30.4386 3.49433 2.73415 8.27042 
390 85.503 85.8424 23.2062 55.4758 66.1798 14.8337 
391 73.7083 67.8162 91.3987 50.8761 46.9694 83.6395 
392 15.6522 72.7195 19.8333 19.7125 36.2071 9.86363 
393 72.9139 29.5363 82.2923 35.0427 20.9514 63.3398 
394 55.1761 85.0922 13.8567 36.6929 55.8222 11.303 
395 41.8368 90.677 11.5502 35.5459 60.8683 11.9173 
396 69.7884 29.1539 49.6132 25.3773 16.7658 22.4792 
397 91.0666 64.1933 69.0227 54.8677 47.303 47.7809 
398 57.0424 12.8458 41.9671 15.8013 9.11685 15.5667 
399 69.2974 2.32497 68.5718 26.5967 13.4077 42.1389 
400 13.4514 49.6346 19.0972 9.66457 16.4747 6.3753 
401 27.7115 59.5733 80.4093 25.5666 28.8818 62.3133 
402 25.1448 79.0969 85.8887 36.6033 48.8226 74.7352 
403 28.7106 89.0901 71.38 39.3433 60.2379 54.2523 
404 52.1226 10.9492 72.9343 19.7456 10.2579 47.7941 
405 28.2802 87.0651 53.833 34.0109 55.8898 33.3964 
406 88.843 44.9274 21.1502 38.9019 29.402 7.93421 
407 8.03074 17.8399 86.8187 15.2161 8.23592 69.66 
408 6.05775 84.6638 83.3676 37.3268 54.4026 71.4639 
409 90.4265 32.8953 82.106 48.0658 28.5892 63.8217 
410 90.0697 9.07407 7.86524 33.6381 18.2681 3.27226 
411 67.9244 27.8453 9.16386 20.4958 14.3453 3.37126 
412 60.4462 60.5984 79.738 36.4589 35.1513 61.8824 
413 87.8535 75.8077 65.7404 57.3562 57.3738 45.4254 
414 78.5362 31.7385 21.2413 28.2249 19.2768 6.57048 
415 47.34 26.8437 50.8601 14.8103 10.7393 22.9602 
416 60.8496 18.5654 20.4729 16.0532 10.2038 5.22522 
417 29.2417 8.38637 28.6769 5.30674 3.48689 7.51717 
418 7.98467 26.4594 19.0863 3.85007 5.39747 4.54028 
419 13.052 21.6614 62.5752 9.23856 6.54954 34.3762 
420 90.2011 68.1735 7.98231 48.3968 47.6192 8.17449 
421 1.9031 28.028 57.6308 8.53188 7.63584 29.2035 
422 54.4246 8.72555 7.58008 11.9138 7.04204 2.2163 
423 67.4714 86.7262 67.3961 50.8544 63.9061 49.0986 
424 92.9089 7.06703 54.2853 40.338 21.0722 26.7754 
425 87.2334 63.6275 89.7119 57.7661 47.7027 80.2653 
426 74.8062 41.7649 41.7613 29.9668 23.2838 17.4123 
427 70.4946 88.0133 11.3609 46.3064 63.674 11.8609 
428 84.7803 90.6935 73.5478 66.3987 75.7855 58.8539 
429 3.2752 18.6342 33.1479 3.73542 3.74899 9.80035 
430 47.1684 24.2805 65.8822 17.406 11.174 38.7863 
431 19.2207 43.4909 80.324 18.7615 17.2353 60.2872 
432 14.8449 59.0783 90.7463 27.0245 28.9384 80.1866 
433 83.4735 85.3776 38.6981 55.0906 65.3635 22.1859 
434 12.5158 88.6473 70.7851 36.7346 58.4579 53.2364 
435 91.5416 73.7962 85.0789 64.6468 58.864 73.7936 
436 66.5224 92.3919 78.5787 57.2835 72.7268 66.2231 
437 36.2154 20.5059 14.3728 6.95829 5.85798 3.32887 
438 15.1694 36.8062 6.60123 5.8657 9.36005 2.87589 
439 51.7771 29.7204 9.56996 13.1378 11.0149 3.17163 
440 4.74615 88.9001 9.43698 28.4295 55.3642 10.9085 
441 55.0218 74.2059 60.3129 35.5821 44.9752 37.8553 
442 35.7428 75.384 72.1087 32.5513 44.0502 52.4891 
443 22.2484 75.3332 63.3657 27.7601 41.7847 41.1218 
444 89.9038 72.5131 51.024 54.2271 53.4461 29.2733 
445 69.6821 61.1628 6.58269 30.9704 33.9017 6.28901 
446 44.5234 43.6492 87.2945 26.6058 21.085 72.3846 
447 47.3493 30.7991 28.7241 12.705 10.956 8.59005 
448 68.5451 10.8725 30.8234 20.2445 11.3632 9.2368 
449 34.4794 91.8583 41.1379 36.695 62.4467 24.1898 
450 8.36906 40.0546 67.5842 13.4361 13.5574 41.5899 
451 10.1583 52.1664 49.4532 13.4623 19.323 23.4632 
452 67.9289 42.662 22.9491 24.2716 20.9123 7.65121 
453 85.1598 20.5098 87.0759 43.6663 23.3124 71.5274 
454 10.0704 89.6068 29.7619 30.3054 56.9282 17.0042 
455 77.3052 15.1704 68.2199 32.099 17.2111 42.1276 
456 69.7776 94.252 94.4776 65.821 78.5398 94.9021 
457 61.1839 73.6011 86.952 45.3335 48.6777 76.1162 
458 25.3508 15.062 59.7232 9.46953 5.75284 31.0144 
459 80.0531 29.131 64.1598 34.7338 21.2561 37.731 
460 53.5391 11.446 89.1164 25.3381 12.6094 74.1047 
461 89.7782 31.9614 32.6145 37.4738 24.005 11.6574 
462 8.94633 49.385 34.1539 10.4308 16.6152 12.4665 
463 30.4409 25.8601 89.4368 19.8794 11.9874 74.8597 
