Pre-made_Targets/Patch Width 16-30mm - Easy (Freehand possible)/CM-Easy-A4-56p-1page-w23.6mm-7x8/CM-Easy-A4-56p-1page.ti1
CTI1   

DESCRIPTOR "Argyll Calibration Target chart information 1"
ORIGINATOR "Argyll targen"
CREATED "Sun Feb  8 01:06:02 2026"
APPROX_WHITE_POINT "95.106486 100.000000 108.844025"
COLOR_REP "iRGB"
TOTAL_INK_LIMIT "300.0"
WHITE_COLOR_PATCHES "2"
BLACK_COLOR_PATCHES "2"
COMP_GREY_STEPS "10"
IFP_PATCHES "44"

NUMBER_OF_FIELDS 7
BEGIN_DATA_FORMAT
SAMPLE_ID RGB_R RGB_G RGB_B XYZ_X XYZ_Y XYZ_Z 
END_DATA_FORMAT

NUMBER_OF_SETS 56
BEGIN_DATA
1 100.0000 100.0000 100.0000 95.10649 100.0000 108.8440 
2 100.0000 100.0000 100.0000 95.10649 100.0000 108.8440 
3 0.00000 0.00000 0.00000 1.000000 1.000000 1.000000 
4 0.00000 0.00000 0.00000 1.000000 1.000000 1.000000 
5 88.88889 88.88889 88.88889 73.04830 76.79480 83.56582 
6 77.77778 77.77778 77.77778 54.34375 57.11761 62.13080 
7 66.66667 66.66667 66.66667 38.82872 40.79580 44.35090 
8 55.55556 55.55556 55.55556 26.32527 27.64218 30.02222 
9 44.44444 44.44444 44.44444 16.63806 17.45124 18.92088 
10 33.33333 33.33333 33.33333 9.548794 9.993329 10.79674 
11 22.22222 22.22222 22.22222 4.807158 5.005130 5.362922 
12 11.11111 11.11111 11.11111 2.113706 2.171618 2.276283 
13 0.00000 0.00000 100.0000 18.87111 8.147314 95.12896 
14 0.00000 100.0000 0.00000 36.40521 71.80052 12.80184 
15 100.0000 0.00000 0.00000 41.83017 22.05217 2.913230 
16 100.0000 87.21485 33.31656 69.41879 74.62724 20.11090 
17 77.13630 0.00000 52.15557 27.91025 14.39020 24.14137 
18 56.06074 21.92904 22.12726 14.32072 9.857480 5.767420 
19 0.00000 0.204356 35.97441 2.906757 1.771541 11.01546 
20 100.0000 69.04706 54.28066 61.78691 54.64610 32.12194 
21 0.00000 100.0000 83.22319 48.19849 76.51709 74.91827 
22 0.00000 62.80161 100.0000 31.34194 33.08549 99.28594 
23 30.12092 53.99100 20.73944 13.60099 20.71038 7.462864 
24 73.50137 52.54396 10.96421 30.03960 28.47306 5.859033 
25 34.79522 88.88488 100.0000 50.02778 64.43672 104.3535 
26 87.12401 62.85134 100.0000 61.23901 48.53288 100.6931 
27 92.47674 0.00000 100.0000 53.05885 25.77463 96.73094 
28 22.58344 24.96038 0.00000 4.499615 5.469395 1.678405 
29 61.26073 69.05288 54.28067 34.57488 40.61977 30.84766 
30 75.63975 98.64018 55.61837 61.88490 82.76947 38.85283 
31 74.92021 82.17385 100.0000 62.86150 64.52795 103.6952 
32 81.84369 38.01037 10.84069 31.37850 22.91096 4.695428 
33 43.31373 24.95524 39.80554 11.56725 8.840567 14.27810 
34 73.50138 0.00000 11.10817 21.60523 11.59967 3.069117 
35 78.91305 41.95659 54.27166 34.68345 25.56266 27.92681 
36 63.51717 70.75373 22.19773 32.71121 41.37467 10.90562 
37 43.31712 24.95524 0.00000 9.218097 7.901179 1.899296 
38 100.0000 55.28639 55.55562 56.06703 42.82797 31.38714 
39 100.0000 81.15289 93.70905 79.32664 72.36685 91.48809 
40 22.58143 0.00000 0.00000 2.703653 1.878409 1.079830 
41 0.00000 58.88975 54.27385 16.39543 24.47460 28.68209 
42 57.49176 19.71925 0.00000 13.98420 9.388591 1.935388 
43 38.60150 77.60889 8.668099 26.14951 43.59082 8.653590 
44 78.91494 69.05793 48.14978 43.82661 45.51465 25.82345 
45 10.94322 41.40245 100.0000 24.40244 18.50858 96.83766 
46 32.65808 0.00000 35.92216 6.451589 3.591621 11.14998 
47 0.00000 28.57561 20.88578 3.992460 5.956789 5.165691 
48 58.33728 27.98894 76.37627 25.20811 15.70258 53.55117 
49 85.22023 100.0000 0.00000 64.82790 86.45535 14.13367 
50 0.00000 22.06623 36.64547 4.388903 4.615971 11.87789 
51 49.33362 48.66486 69.05313 24.40478 22.77762 44.69105 
52 0.00000 34.33581 11.00598 4.627448 7.920650 3.236852 
53 73.69631 56.36510 53.72349 35.81905 33.03059 28.78455 
54 0.00000 90.10990 88.88886 42.63774 62.37531 82.38406 
55 60.40290 62.77800 100.0000 44.53075 39.87034 99.90098 
56 62.60094 81.15551 76.84287 47.21845 56.45726 60.95894 
END_DATA
CTI1   

DESCRIPTOR "Argyll Calibration Target chart information 1"
ORIGINATOR "Argyll targen"
DENSITY_EXTREME_VALUES "8"
CREATED "February 8, 2026"

NUMBER_OF_FIELDS 7
BEGIN_DATA_FORMAT
INDEX RGB_R RGB_G RGB_B XYZ_X XYZ_Y XYZ_Z 
END_DATA_FORMAT

NUMBER_OF_SETS 8
BEGIN_DATA
0 100.0000 100.0000 100.0000 95.10649 100.0000 108.8440 
1 0.00000 47.36069 100.0000 25.61297 21.62916 97.37627 
2 100.0000 0.00000 79.35138 52.42580 26.28975 58.72152 
3 0.00000 0.00000 58.99714 6.485834 3.193987 29.89445 
4 100.0000 66.65930 0.00000 56.05879 50.50543 7.656144 
5 0.00000 35.60114 0.00000 4.685619 8.370208 2.228550 
6 84.44436 0.00000 0.00000 28.84279 15.35583 2.304665 
7 0.00000 0.00000 0.00000 1.000000 1.000000 1.000000 
END_DATA
CTI1   

DESCRIPTOR "Argyll Calibration Target chart information 1"
ORIGINATOR "Argyll targen"
DEVICE_COMBINATION_VALUES "9"
CREATED "February 8, 2026"

NUMBER_OF_FIELDS 7
BEGIN_DATA_FORMAT
INDEX RGB_R RGB_G RGB_B XYZ_X XYZ_Y XYZ_Z 
END_DATA_FORMAT

NUMBER_OF_SETS 9
BEGIN_DATA
0 100.0000 100.0000 100.0000 95.10649 100.0000 108.8440 
1 0.00000 100.0000 100.0000 54.27632 78.94783 106.9308 
2 100.0000 0.00000 100.0000 59.70128 29.19948 97.04219 
3 0.00000 0.00000 100.0000 18.87111 8.147314 95.12896 
4 100.0000 100.0000 0.00000 77.23538 92.85269 14.71507 
5 0.00000 100.0000 0.00000 36.40521 71.80052 12.80184 
6 100.0000 0.00000 0.00000 41.83017 22.05217 2.913230 
7 0.00000 0.00000 0.00000 1.000000 1.000000 1.000000 
8 50.00000 50.00000 50.00000 21.14266 22.19007 24.08306 
END_DATA
