Pre-made_Targets/Patch Width 12-15mm - Intermediate (Easy with ruler)/Designed Targets/CM-Interm-A4-286p-1page-w13.5mm-13x22-randomized/286-target.ti2
CTI2   

DESCRIPTOR "Argyll Calibration Target chart information 2"
ORIGINATOR "Argyll printtarg"
CREATED "Tue Jun 24 09:13:58 2025"
TARGET_INSTRUMENT "X-Rite ColorMunki"
COMP_GREY_STEPS "32"
APPROX_WHITE_POINT "95.106486 100.000000 108.844025"
COLOR_REP "iRGB"
PAPER_SIZE "400.0x410.0"
RANDOM_START "238"
STEPS_IN_PASS "22"
PASSES_IN_STRIPS2 "13"
STRIP_INDEX_PATTERN "A-Z, A-Z"
PATCH_INDEX_PATTERN "0-9,@-9,@-9;1-999"
INDEX_ORDER "STRIP_THEN_PATCH"

NUMBER_OF_FIELDS 8
BEGIN_DATA_FORMAT
SAMPLE_ID SAMPLE_LOC RGB_R RGB_G RGB_B XYZ_X XYZ_Y XYZ_Z 
END_DATA_FORMAT

NUMBER_OF_SETS 286
BEGIN_DATA
1 "D9" 100.0000 100.0000 100.0000 95.10649 100.0000 108.8440 
2 "I20" 26.77806 0.00000 100.0000 21.25088 9.374331 95.24047 
3 "D13" 26.46830 20.82551 0.00000 4.590615 4.729032 1.530701 
4 "J3" 100.0000 82.18051 100.0000 82.41229 74.61515 104.6126 
5 "E21" 12.90303 12.90303 12.90303 2.424161 2.498217 2.632058 
6 "G21" 93.54849 93.54849 93.54849 81.88117 86.08697 93.68810 
7 "I3" 90.32273 90.32273 90.32273 75.70274 79.58726 86.60775 
8 "M4" 87.09697 87.09697 87.09697 69.80876 73.38680 79.85337 
9 "C5" 83.87121 83.87121 83.87121 64.19536 67.48150 73.42053 
10 "C21" 80.64546 80.64546 80.64546 58.85858 61.86721 67.30470 
11 "J8" 77.41970 77.41970 77.41970 53.79440 56.53969 61.50125 
12 "J16" 74.19394 74.19394 74.19394 48.99867 51.49459 56.00546 
13 "B8" 70.96818 70.96818 70.96818 44.46718 46.72747 50.81246 
14 "M15" 67.74243 67.74243 67.74243 40.19559 42.23375 45.91731 
15 "B19" 64.51667 64.51667 64.51667 36.17945 38.00878 41.31490 
16 "G5" 61.29091 61.29091 61.29091 32.41421 34.04774 37.00002 
17 "L21" 58.06516 58.06516 58.06516 28.89517 30.34571 32.96727 
18 "M9" 54.83940 54.83940 54.83940 25.61751 26.89761 29.21114 
19 "J21" 51.61364 51.61364 51.61364 22.57624 23.69820 25.72591 
20 "A6" 48.38636 48.38636 48.38636 19.76623 20.74207 22.50570 
21 "K13" 45.16060 45.16060 45.16060 17.18217 18.02363 19.54442 
22 "I21" 41.93484 41.93484 41.93484 14.81852 15.53708 16.83573 
23 "E8" 38.70909 38.70909 38.70909 12.66958 13.27640 14.37309 
24 "F10" 35.48333 35.48333 35.48333 10.72937 11.23530 12.14965 
25 "G19" 32.25757 32.25757 32.25757 8.991660 9.407224 10.15827 
26 "F12" 29.03182 29.03182 29.03182 7.449909 7.785303 8.391458 
27 "F21" 25.80606 25.80606 25.80606 6.097238 6.362293 6.841326 
28 "K11" 22.58030 22.58030 22.58030 4.926365 5.130535 5.499530 
29 "M12" 19.35454 19.35454 19.35454 3.929543 4.081879 4.357194 
30 "E19" 16.12879 16.12879 16.12879 3.098470 3.207589 3.404801 
31 "E14" 96.77424 96.77424 96.77424 88.34785 92.88991 101.0988 
32 "H2" 9.677272 9.677272 9.677272 1.896786 1.943418 2.027697 
33 "F4" 6.451514 6.451514 6.451514 1.505402 1.531683 1.579180 
34 "L15" 3.225757 3.225757 3.225757 1.234961 1.247179 1.269260 
35 "H7" 0.00000 4.698253 4.573129 1.193586 1.285272 1.378623 
36 "C16" 0.00000 4.692149 4.721141 1.195666 1.285800 1.390520 
37 "F17" 0.00000 4.682994 4.866102 1.197689 1.286202 1.402429 
38 "I11" 0.00000 1.745632 2.203403 1.078328 1.107877 1.176475 
39 "G8" 1.530480 4.818799 5.264363 1.256683 1.322066 1.440134 
40 "H19" 6.846723 8.899062 9.182879 1.691702 1.779720 1.938657 
41 "A13" 10.84764 12.30488 12.51698 2.217059 2.332411 2.540706 
42 "B21" 14.29313 15.43297 15.60235 2.841273 2.989104 3.256045 
43 "K16" 17.48226 18.41764 18.55955 3.572866 3.758764 4.094440 
44 "M7" 20.53712 21.32753 21.44808 4.420365 4.650355 5.065651 
45 "I15" 23.51415 24.19776 24.30152 5.392283 5.672843 6.179450 
46 "G17" 26.44846 27.04814 27.13970 6.497146 6.835192 7.445601 
47 "I17" 29.35988 29.89242 29.97330 7.743476 8.146368 8.873869 
48 "H9" 32.26368 32.73976 32.81300 9.139793 9.615336 10.47402 
49 "E10" 35.16594 35.59625 35.66186 10.69462 11.25106 12.25582 
50 "D2" 38.07431 38.46647 38.52445 12.41648 13.06251 14.22904 
51 "L6" 40.99184 41.35042 41.40536 14.31390 15.05865 16.40344 
52 "B3" 43.92309 44.25269 44.30304 16.39538 17.24844 18.78879 
53 "L18" 46.87114 47.17479 47.22057 18.66948 19.64085 21.39485 
54 "B14" 49.83444 50.11673 50.15793 21.14469 22.24484 24.23138 
55 "C3" 52.81605 53.07851 53.11818 23.82954 25.06939 27.30817 
56 "H13" 55.81750 56.06165 56.09827 26.73255 28.12345 30.63497 
57 "K20" 58.83726 59.06615 59.09972 29.86225 31.41599 34.22154 
58 "D4" 61.87686 62.09201 62.12406 33.22716 34.95598 38.07766 
59 "C10" 64.93629 65.13924 65.16976 36.83580 38.75238 42.21309 
60 "D6" 68.01709 68.20783 68.23529 40.69669 42.81415 46.63759 
61 "B6" 71.11772 71.29778 71.32372 44.81836 47.15027 51.36094 
62 "C8" 74.23667 74.40909 74.43351 49.20932 51.76969 56.39289 
63 "F19" 77.37697 77.54025 77.56313 53.87810 56.68139 61.74322 
64 "B16" 80.53712 80.69276 80.71412 58.83322 61.89432 67.42168 
65 "M18" 83.71710 83.86511 83.88495 64.08320 67.41746 73.43805 
66 "L8" 86.91691 87.05730 87.07713 69.63657 73.25977 79.80209 
67 "D20" 90.13504 90.26932 90.28763 75.50184 79.43021 86.52357 
68 "H21" 93.37301 93.50271 93.51949 81.68753 85.93776 93.61226 
69 "E2" 96.63081 96.75288 96.76967 88.20218 92.79136 101.0779 
70 "F20" 100.0000 0.00000 100.0000 59.70128 29.19948 97.04219 
71 "H20" 0.00000 100.0000 0.00000 36.40521 71.80052 12.80184 
72 "K1" 0.00000 0.00000 100.0000 18.87111 8.147314 95.12896 
73 "L7" 100.0000 0.00000 0.00000 41.83017 22.05217 2.913230 
74 "D5" 100.0000 100.0000 0.00000 77.23538 92.85269 14.71507 
75 "D17" 0.00000 100.0000 100.0000 54.27632 78.94783 106.9308 
76 "D16" 0.00000 28.78920 100.0000 21.25701 12.91846 95.92427 
77 "G18" 100.0000 0.00000 27.15343 42.90112 22.48048 8.554052 
78 "I22" 100.0000 32.43458 0.00000 44.87075 28.13248 3.926766 
79 "L17" 0.00000 100.0000 52.73671 40.69872 73.51765 35.41621 
80 "J15" 40.88960 100.0000 0.00000 42.08834 74.73076 13.06814 
81 "B5" 50.08469 0.00000 100.0000 27.64267 12.66996 95.53998 
82 "A17" 0.00000 49.03182 0.00000 8.264818 15.52760 3.421626 
83 "C13" 52.18585 0.00000 0.00000 10.58809 5.943650 1.449281 
84 "E16" 100.0000 42.35294 100.0000 65.01054 39.81653 98.81196 
85 "M10" 0.00000 0.00000 65.60464 7.932804 3.772684 37.51579 
86 "B2" 100.0000 100.0000 35.19341 79.05170 93.57910 24.28184 
87 "J1" 51.28405 100.0000 100.0000 63.50879 83.70813 107.3634 
88 "H6" 100.0000 0.00000 74.47166 51.02177 25.72823 51.32633 
89 "D21" 0.00000 78.21012 100.0000 39.19171 48.78284 101.9026 
90 "C11" 100.0000 66.71855 0.00000 56.08656 50.56095 7.665399 
91 "D10" 100.0000 25.57259 24.12757 44.56162 26.15766 8.007618 
92 "K10" 57.07179 50.00839 0.00000 20.23528 22.16866 4.073082 
93 "J20" 47.91180 26.90471 100.0000 28.92509 16.42290 96.19686 
94 "G16" 75.08049 0.00000 47.54864 25.81786 13.39918 20.08000 
95 "M2" 0.00000 44.69520 40.81331 9.432315 13.89858 16.03492 
96 "E11" 47.57610 100.0000 32.28962 45.77679 76.45665 21.17920 
97 "G1" 100.0000 100.0000 69.29427 85.06297 95.98323 55.94377 
98 "B15" 61.33669 100.0000 0.00000 50.05738 78.83962 13.44155 
99 "M16" 46.39658 0.00000 59.38048 14.00342 7.060991 30.65675 
100 "G7" 0.00000 0.00000 32.11414 2.503850 1.601445 8.920934 
101 "E15" 100.0000 52.65431 59.67498 55.93271 41.25408 35.36793 
102 "K12" 0.00000 72.17823 0.00000 17.98168 34.95860 6.660606 
103 "K14" 29.38430 100.0000 51.74487 43.39273 74.92674 34.63741 
104 "K18" 41.35958 75.67102 100.0000 43.56594 48.88919 101.6927 
105 "G22" 25.31624 100.0000 100.0000 56.40562 80.04571 107.0306 
106 "L12" 100.0000 100.0000 100.0000 95.10649 100.0000 108.8440 
107 "H11" 0.00000 50.55314 60.48676 14.55549 18.83649 34.10954 
108 "G3" 0.00000 0.00000 0.00000 1.000000 1.000000 1.000000 
109 "G9" 51.48089 100.0000 67.93927 53.20592 79.59650 52.69641 
110 "I5" 28.59541 0.00000 0.00000 3.714357 2.399531 1.127190 
111 "E1" 100.0000 78.67552 50.51194 66.33276 64.79462 30.37408 
112 "M19" 52.11872 53.74533 100.0000 37.29659 30.80300 98.53173 
113 "C15" 0.00000 100.0000 75.93805 46.00639 75.64038 63.37222 
114 "K3" 0.00000 52.31098 100.0000 27.22878 24.86032 97.91487 
115 "A5" 0.00000 100.0000 28.49165 37.58455 72.27218 19.01357 
116 "A3" 0.00000 77.29000 73.99557 29.84911 44.19456 55.32115 
117 "H3" 72.83742 23.45769 100.0000 40.44634 21.63197 96.59556 
118 "A10" 65.56191 100.0000 44.09857 55.14249 81.12370 28.92642 
119 "I16" 35.99298 58.91814 0.00000 16.18464 24.91151 4.815870 
120 "H1" 76.13031 24.66621 0.00000 24.81550 15.88314 2.618559 
121 "L16" 47.66918 0.00000 19.62768 9.455414 5.293578 4.377682 
122 "C18" 49.59335 27.62188 0.00000 11.78188 9.817435 2.134160 
123 "C2" 51.30541 0.00000 79.38964 20.84801 10.00683 57.30099 
124 "F18" 20.11597 0.00000 48.91737 6.014998 3.163731 20.28148 
125 "G4" 100.0000 0.00000 49.51553 45.57570 23.55014 22.64133 
126 "E7" 79.04021 76.47974 0.00000 44.32227 52.02019 8.566678 
127 "F22" 76.35309 0.00000 0.00000 23.20559 12.44927 2.040515 
128 "D3" 75.66339 0.00000 72.16449 31.32721 15.64578 47.14806 
129 "L20" 77.15267 0.00000 100.0000 41.60113 19.86699 96.19405 
130 "B22" 100.0000 79.71771 21.13832 63.69687 64.72841 13.44363 
131 "A7" 81.68307 100.0000 0.00000 62.24084 85.12145 14.01245 
132 "K21" 100.0000 21.09865 100.0000 60.99827 31.79311 97.47452 
133 "E3" 47.27550 0.00000 39.15923 11.01520 5.901242 13.32213 
134 "G13" 39.35760 64.62654 57.98886 24.81045 32.38253 33.49705 
135 "A20" 0.00000 20.01526 49.69711 5.949055 4.857001 21.27634 
136 "L14" 25.85031 49.26528 100.0000 28.42972 23.96880 97.67953 
137 "A18" 0.00000 56.18372 80.78737 21.79601 24.93897 62.35649 
138 "L1" 82.53758 49.54452 0.00000 34.87689 29.49339 4.715821 
139 "D1" 23.37682 16.95125 71.27184 12.01861 6.998774 45.26645 
140 "H10" 100.0000 25.32540 51.35729 47.73144 27.36824 24.87963 
141 "I4" 38.40543 66.84062 34.05661 21.99120 32.87093 14.94276 
142 "J14" 0.00000 24.30457 0.00000 2.704249 4.408022 1.568088 
143 "J2" 75.44976 100.0000 79.86877 68.77850 87.24874 70.44275 
144 "F3" 0.00000 35.50469 71.81353 13.14032 11.71819 46.86324 
145 "D7" 85.38796 18.03616 70.39445 38.62261 20.89579 45.36041 
146 "K6" 51.71893 35.85718 28.42298 15.31748 13.79854 8.869208 
147 "I10" 74.55100 73.13344 19.35302 40.09300 47.04488 10.74519 
148 "F8" 100.0000 61.84329 78.11398 64.11394 50.24990 60.80684 
149 "I18" 0.00000 74.61509 47.52728 22.71678 38.94223 25.15564 
150 "B17" 74.60899 46.50340 100.0000 46.44049 31.98297 98.27791 
151 "K7" 24.11536 100.0000 28.11780 39.48919 73.25780 18.94122 
152 "A1" 29.01808 80.89418 64.64942 32.42573 48.95695 43.78589 
153 "F11" 64.85084 85.51003 30.35782 42.61547 59.16080 17.06416 
154 "M6" 100.0000 62.48417 100.0000 72.03344 53.86035 101.1529 
155 "F2" 77.93393 100.0000 100.0000 77.52478 90.93481 108.0202 
156 "F14" 89.96262 63.77661 55.44823 50.81078 45.27733 32.02986 
157 "L11" 24.20233 42.32090 0.00000 8.250203 12.60548 2.858341 
158 "B10" 20.32654 0.00000 22.05539 3.106149 2.003513 4.818629 
159 "I8" 21.33516 74.01999 0.00000 20.49195 37.71114 7.059715 
160 "F16" 86.02579 24.01312 41.09712 34.21154 20.30350 16.15846 
161 "B7" 15.86023 43.12200 88.49928 20.94713 17.90490 74.23457 
162 "E18" 19.78790 0.00000 77.65469 12.41890 5.720074 54.22869 
163 "A19" 71.36950 62.79240 34.06577 34.26233 36.45560 14.99317 
164 "L10" 44.91493 45.58480 68.22461 21.71201 20.02232 43.22317 
165 "M17" 0.00000 53.60647 22.11795 10.53099 18.91305 7.712111 
166 "E6" 62.00961 78.62974 100.0000 53.42142 56.48334 102.6395 
167 "L19" 19.98779 100.0000 0.00000 37.75527 72.49661 12.86510 
168 "D19" 27.62493 100.0000 76.03265 48.56569 76.95687 63.63184 
169 "B18" 52.88014 76.65675 0.00000 30.29429 44.93574 7.938002 
170 "L22" 0.00000 15.13542 79.90539 12.46792 6.714721 57.92311 
171 "F5" 82.66423 100.0000 57.01991 68.03499 87.52009 40.85971 
172 "A22" 15.95178 30.66453 67.47234 11.98133 9.831996 40.80499 
173 "I19" 82.40482 54.36942 66.96269 43.69639 35.66583 43.47666 
174 "I12" 75.51995 44.44953 21.58694 29.23572 24.21285 7.578672 
175 "F15" 17.82254 75.40246 76.52247 30.58079 42.90834 58.73755 
176 "M8" 23.73236 23.30816 100.0000 22.31789 12.25569 95.74046 
177 "A4" 67.13359 26.42100 33.49660 21.31830 14.26867 11.08789 
178 "C7" 0.00000 78.39780 22.40024 22.16425 42.14809 11.67694 
179 "D12" 52.64515 26.86809 51.56786 16.93962 11.82883 23.69164 
180 "F1" 33.22042 59.47967 16.58350 16.16650 25.19215 7.067229 
181 "E13" 33.92538 14.36027 48.60304 9.087625 5.708616 20.34654 
182 "I9" 32.08209 60.31128 71.52209 24.23462 28.93774 49.20051 
183 "F13" 100.0000 29.64981 75.73663 53.90700 30.93311 54.02984 
184 "H8" 100.0000 52.45594 16.42329 50.64969 39.03018 7.884126 
185 "A11" 0.00000 0.00000 0.00000 1.000000 1.000000 1.000000 
186 "I6" 11.99664 58.38254 36.44770 14.12239 23.30345 14.85575 
187 "K8" 27.70428 50.90410 50.53941 15.34014 19.63278 24.36661 
188 "J17" 75.28954 0.00000 23.39513 23.31772 12.41472 6.214655 
189 "J10" 100.0000 53.55917 38.30320 52.79531 40.51177 17.26249 
190 "M21" 85.85336 60.98116 87.20684 54.69334 44.51539 75.27116 
191 "B1" 20.25635 75.65423 100.0000 39.11882 46.58237 101.4816 
192 "K5" 15.04997 92.47883 63.03044 37.79796 63.23926 44.34210 
193 "E20" 49.26223 82.46128 39.59258 34.67235 52.05729 21.26488 
194 "I2" 65.61074 27.31518 84.95155 31.34174 18.40201 67.51822 
195 "E17" 74.26108 66.02731 51.07500 39.80458 41.21999 27.71782 
196 "F6" 100.0000 81.36721 76.57130 73.81989 70.37442 61.83606 
197 "D22" 67.05730 90.83391 66.82689 53.31612 69.38690 49.30819 
198 "K22" 13.27840 92.11414 40.87129 33.51705 61.08663 23.91459 
199 "C1" 48.61372 54.98436 15.68780 18.91974 24.02107 6.488455 
200 "M14" 87.10460 9.910735 31.65332 32.67075 17.68010 10.20551 
201 "G15" 31.94934 59.09819 88.70832 28.92819 30.01463 76.53128 
202 "G6" 77.52041 100.0000 23.07774 60.15638 83.95674 17.97461 
203 "L3" 31.76013 84.85847 34.07492 30.46881 52.22669 18.24289 
204 "G12" 76.51942 35.04387 70.31052 34.96577 22.87127 45.82127 
205 "K17" 54.95689 71.91730 18.10636 29.06745 40.41451 9.707117 
206 "L13" 87.00999 62.46738 18.78691 43.63827 41.21491 9.275961 
207 "E12" 0.00000 26.64683 23.54772 3.852293 5.409962 5.940961 
208 "H18" 66.00595 34.70970 11.36950 20.77060 16.35803 4.073958 
209 "H14" 78.99596 5.592432 85.89609 37.78775 18.73902 68.87829 
210 "J11" 14.16800 56.97719 70.55009 19.94058 24.76730 47.29951 
211 "A8" 32.89998 35.11864 56.07080 13.10065 11.98859 28.21091 
212 "J19" 47.95148 17.03059 38.48936 12.04558 7.734127 13.19810 
213 "C4" 90.14572 17.51888 87.15801 47.27231 24.70495 71.75253 
214 "C12" 12.36133 34.67918 34.03067 6.759814 8.953953 11.11456 
215 "G20" 60.37232 13.45846 70.04501 22.77722 12.15514 44.03782 
216 "D15" 70.39750 44.30610 42.94499 28.12783 23.34156 18.35480 
217 "H5" 62.55436 43.58129 88.26734 34.36572 25.01955 74.47947 
218 "I13" 32.79469 74.32517 84.12146 34.79856 43.93608 70.84712 
219 "M20" 12.53071 61.77615 54.85313 18.29224 27.22343 29.67370 
220 "L4" 57.42885 78.42069 83.88037 45.26138 52.77231 71.59538 
221 "J18" 12.14466 38.49241 14.47623 6.226689 10.09611 4.206957 
222 "M1" 55.68933 93.95743 17.36019 43.23319 68.33295 14.15900 
223 "G14" 67.28008 14.50828 54.37095 22.99274 12.78082 26.17048 
224 "M13" 12.47272 76.04181 33.41573 22.29488 40.10714 15.98149 
225 "J13" 27.15038 44.02533 72.32319 17.82194 17.23417 48.38745 
226 "F9" 43.78729 93.52102 53.85519 42.47576 66.99541 35.11576 
227 "A2" 80.39063 71.18944 100.0000 60.26363 53.92901 101.7861 
228 "C17" 92.45594 45.99985 79.39879 52.11365 35.52596 60.59514 
229 "C19" 11.03990 14.10849 34.54032 3.849316 3.192991 10.43287 
230 "D14" 19.61547 68.26276 19.68261 17.87702 31.89657 9.084780 
231 "A15" 73.49355 86.91691 11.11772 47.36791 63.12392 11.65936 
232 "I14" 92.35981 80.04273 7.392996 56.60964 61.42526 10.33853 
233 "B4" 60.10681 11.67163 89.76120 28.49905 14.23406 75.43852 
234 "B12" 19.63836 24.30457 50.19303 7.867489 6.624077 21.94552 
235 "K2" 89.03334 79.98322 64.75624 60.47935 62.60178 45.07202 
236 "A12" 39.97864 40.09003 89.69558 25.11019 18.83080 76.38333 
237 "C20" 89.78256 12.22553 55.93957 38.34695 20.41817 28.37720 
238 "C9" 8.213931 10.34867 57.50820 6.866191 3.980263 28.45857 
239 "J9" 82.00656 86.56596 35.83886 54.48539 66.25351 20.66805 
240 "H12" 40.76448 84.48920 15.32769 31.18210 52.39378 11.23913 
241 "E9" 85.37118 13.66903 4.727245 30.19342 16.92154 2.881930 
242 "H15" 64.00092 63.80713 90.21286 43.05852 40.21836 80.52348 
243 "H16" 52.10956 77.63333 56.95277 35.62183 47.92530 34.85526 
244 "A21" 50.06332 20.67750 20.92317 11.65584 8.272234 5.220425 
245 "G11" 70.68284 87.90417 91.72045 60.81135 69.36931 88.04905 
246 "F7" 12.24689 65.35592 88.85786 28.85758 33.99535 77.57572 
247 "D11" 29.31411 50.59892 31.42596 13.06779 18.59588 11.30274 
248 "C6" 67.90875 59.50408 10.49668 29.36684 32.03931 6.510337 
249 "L2" 34.38163 7.495232 30.13046 6.506615 4.031464 8.217348 
250 "M5" 29.75509 2.754253 63.27459 10.41644 5.226931 34.87148 
251 "B11" 34.72038 40.21668 13.12581 10.07147 12.70657 4.241363 
252 "J12" 90.21592 89.30495 49.60403 64.47897 73.95035 31.45000 
253 "J22" 37.82864 13.32418 85.14839 18.80639 9.584323 66.81405 
254 "D18" 66.61173 49.68948 72.71382 33.57401 27.88404 50.15801 
255 "I1" 67.41283 83.62860 50.42954 45.34095 58.46862 30.18549 
256 "B13" 24.39002 88.90364 11.94629 30.33359 56.34122 11.38471 
257 "K19" 96.48585 11.99054 14.63493 39.45220 21.49103 4.689634 
258 "M22" 12.42084 89.50484 88.34058 42.60429 61.75218 81.26881 
259 "E4" 44.84932 80.01984 72.37507 37.93205 50.79130 53.87684 
260 "E5" 85.19875 37.51583 54.72038 38.17055 25.72836 28.20966 
261 "H17" 50.89647 32.06683 76.47669 22.80654 15.52363 53.79286 
262 "G10" 84.94545 48.04913 35.12627 37.98057 30.17953 14.16993 
263 "L5" 91.60754 91.71130 23.56603 64.36745 76.75631 16.53206 
264 "E22" 62.34226 7.487602 38.42985 17.56501 9.633022 13.23613 
265 "M3" 83.63012 29.98245 17.71267 31.30343 20.41378 5.626588 
266 "K9" 81.95621 35.91516 87.70886 44.05782 27.23579 73.39175 
267 "A9" 50.64317 39.94965 9.564355 14.84353 15.08134 3.865862 
268 "G2" 27.09697 73.04799 47.95758 24.37475 38.53349 25.34243 
269 "J5" 25.09651 29.57046 83.52636 17.50165 11.87047 64.56501 
270 "J7" 14.16953 11.90661 88.01862 15.57487 7.662757 71.67058 
271 "D8" 52.81758 94.08865 83.96582 53.70315 72.53703 75.10905 
272 "I7" 66.37827 36.74372 56.53925 26.18973 19.25163 29.39625 
273 "B9" 2.201877 35.53826 87.23583 17.85593 13.62376 71.30192 
274 "L9" 93.10750 72.14313 35.93347 54.57784 53.58038 18.27137 
275 "B20" 7.121386 88.53437 11.45190 28.33430 54.93476 11.13552 
276 "H22" 6.424048 76.75746 60.82704 26.56926 42.42214 38.40606 
277 "J6" 55.50927 51.66094 30.39902 21.44617 23.45802 11.30661 
278 "J4" 37.59060 89.23476 89.86496 47.13068 63.74657 84.20557 
279 "H4" 55.43450 65.39101 42.15000 28.22430 34.96720 20.02972 
280 "C14" 12.03326 39.82757 52.76722 10.51044 12.32465 25.22203 
281 "K15" 97.77523 37.09773 36.72694 45.79562 29.82744 14.61129 
282 "C22" 66.02884 13.61105 12.92439 17.92492 10.56583 3.376735 
283 "K4" 38.55039 14.52201 9.065385 6.829609 4.961386 2.266541 
284 "M11" 12.24231 56.18219 10.30137 11.51788 20.89278 5.269285 
285 "A14" 40.25330 21.52285 66.16617 14.90962 9.353892 38.91739 
286 "A16" 49.23171 59.99390 79.28283 31.30226 32.13480 60.85502 
END_DATA
