Pre-made_Targets/Patch Width 12-15mm - Intermediate (Easy with ruler)/Designed Targets/CM-Interm-A4-286p-1page-w13.5mm-13x22-randomized/286-target.ti1
CTI1   

DESCRIPTOR "Argyll Calibration Target chart information 1"
ORIGINATOR "Argyll targen"
CREATED "Tue Jun 24 09:09:17 2025"
APPROX_WHITE_POINT "95.106486 100.000000 108.844025"
COLOR_REP "iRGB"
WHITE_COLOR_PATCHES "2"
BLACK_COLOR_PATCHES "2"
COMP_GREY_STEPS "32"
NEUTRAL_STEPS "36"
OFPS_PATCHES "217"

NUMBER_OF_FIELDS 7
BEGIN_DATA_FORMAT
SAMPLE_ID RGB_R RGB_G RGB_B XYZ_X XYZ_Y XYZ_Z 
END_DATA_FORMAT

NUMBER_OF_SETS 286
BEGIN_DATA
1 100.0000 100.0000 100.0000 95.10649 100.0000 108.8440 
2 26.77750 0.00000 100.0000 21.25088 9.374331 95.24047 
3 26.46827 20.82531 0.00000 4.590615 4.729032 1.530701 
4 100.0000 82.18117 100.0000 82.41229 74.61515 104.6126 
5 12.90323 12.90323 12.90323 2.424161 2.498217 2.632058 
6 93.54839 93.54839 93.54839 81.88117 86.08697 93.68810 
7 90.32258 90.32258 90.32258 75.70274 79.58726 86.60775 
8 87.09677 87.09677 87.09677 69.80876 73.38680 79.85337 
9 83.87097 83.87097 83.87097 64.19536 67.48150 73.42053 
10 80.64516 80.64516 80.64516 58.85858 61.86721 67.30470 
11 77.41935 77.41935 77.41935 53.79440 56.53969 61.50125 
12 74.19355 74.19355 74.19355 48.99867 51.49459 56.00546 
13 70.96774 70.96774 70.96774 44.46718 46.72747 50.81246 
14 67.74194 67.74194 67.74194 40.19559 42.23375 45.91731 
15 64.51613 64.51613 64.51613 36.17945 38.00878 41.31490 
16 61.29032 61.29032 61.29032 32.41421 34.04774 37.00002 
17 58.06452 58.06452 58.06452 28.89517 30.34571 32.96727 
18 54.83871 54.83871 54.83871 25.61751 26.89761 29.21114 
19 51.61290 51.61290 51.61290 22.57624 23.69820 25.72591 
20 48.38710 48.38710 48.38710 19.76623 20.74207 22.50570 
21 45.16129 45.16129 45.16129 17.18217 18.02363 19.54442 
22 41.93548 41.93548 41.93548 14.81852 15.53708 16.83573 
23 38.70968 38.70968 38.70968 12.66958 13.27640 14.37309 
24 35.48387 35.48387 35.48387 10.72937 11.23530 12.14965 
25 32.25806 32.25806 32.25806 8.991660 9.407224 10.15827 
26 29.03226 29.03226 29.03226 7.449909 7.785303 8.391458 
27 25.80645 25.80645 25.80645 6.097238 6.362293 6.841326 
28 22.58065 22.58065 22.58065 4.926365 5.130535 5.499530 
29 19.35484 19.35484 19.35484 3.929543 4.081879 4.357194 
30 16.12903 16.12903 16.12903 3.098470 3.207589 3.404801 
31 96.77419 96.77419 96.77419 88.34785 92.88991 101.0988 
32 9.677419 9.677419 9.677419 1.896786 1.943418 2.027697 
33 6.451613 6.451613 6.451613 1.505402 1.531683 1.579180 
34 3.225806 3.225806 3.225806 1.234961 1.247179 1.269260 
35 0.00000 4.697921 4.572560 1.193586 1.285272 1.378623 
36 0.00000 4.691694 4.720724 1.195666 1.285800 1.390520 
37 0.00000 4.683365 4.866354 1.197689 1.286202 1.402429 
38 0.00000 1.746166 2.203331 1.078328 1.107877 1.176475 
39 1.530132 4.818874 5.264908 1.256683 1.322066 1.440134 
40 6.846889 8.898664 9.182813 1.691702 1.779720 1.938657 
41 10.84767 12.30560 12.51764 2.217059 2.332411 2.540706 
42 14.29254 15.43252 15.60188 2.841273 2.989104 3.256045 
43 17.48242 18.41828 18.55885 3.572866 3.758764 4.094440 
44 20.53645 21.32816 21.44782 4.420365 4.650355 5.065651 
45 23.51390 24.19775 24.30146 5.392283 5.672843 6.179450 
46 26.44835 27.04817 27.13928 6.497146 6.835192 7.445601 
47 29.36033 29.89275 29.97364 7.743476 8.146368 8.873869 
48 32.26308 32.74024 32.81269 9.139793 9.615336 10.47402 
49 35.16550 35.59656 35.66191 10.69462 11.25106 12.25582 
50 38.07372 38.46576 38.52507 12.41648 13.06251 14.22904 
51 40.99204 41.35066 41.40477 14.31390 15.05865 16.40344 
52 43.92353 44.25325 44.30283 16.39538 17.24844 18.78879 
53 46.87040 47.17490 47.22051 18.66948 19.64085 21.39485 
54 49.83422 50.11655 50.15866 21.14469 22.24484 24.23138 
55 52.81610 53.07883 53.11782 23.82954 25.06939 27.30817 
56 55.81685 56.06213 56.09833 26.73255 28.12345 30.63497 
57 58.83702 59.06669 59.10039 29.86225 31.41599 34.22154 
58 61.87696 62.09260 62.12403 33.22716 34.95598 38.07766 
59 64.93689 65.13987 65.16924 36.83580 38.75238 42.21309 
60 68.01691 68.20842 68.23592 40.69669 42.81415 46.63759 
61 71.11706 71.29814 71.32393 44.81836 47.15027 51.36094 
62 74.23729 74.40886 74.43307 49.20932 51.76969 56.39289 
63 77.37752 77.54038 77.56315 53.87810 56.68139 61.74322 
64 80.53763 80.69250 80.71392 58.83322 61.89432 67.42168 
65 83.71745 83.86498 83.88516 64.08320 67.41746 73.43805 
66 86.91682 87.05757 87.07660 69.63657 73.25977 79.80209 
67 90.13554 90.27003 90.28798 75.50184 79.43021 86.52357 
68 93.37341 93.50210 93.51905 81.68753 85.93776 93.61226 
69 96.63022 96.75352 96.76953 88.20218 92.79136 101.0779 
70 100.0000 0.00000 100.0000 59.70128 29.19948 97.04219 
71 0.00000 100.0000 0.00000 36.40521 71.80052 12.80184 
72 0.00000 0.00000 100.0000 18.87111 8.147314 95.12896 
73 100.0000 0.00000 0.00000 41.83017 22.05217 2.913230 
74 100.0000 100.0000 0.00000 77.23538 92.85269 14.71507 
75 0.00000 100.0000 100.0000 54.27632 78.94783 106.9308 
76 0.00000 28.78968 100.0000 21.25701 12.91846 95.92427 
77 100.0000 0.00000 27.15330 42.90112 22.48048 8.554052 
78 100.0000 32.43497 0.00000 44.87075 28.13248 3.926766 
79 0.00000 100.0000 52.73642 40.69872 73.51765 35.41621 
80 40.88974 100.0000 0.00000 42.08834 74.73076 13.06814 
81 50.08519 0.00000 100.0000 27.64267 12.66996 95.53998 
82 0.00000 49.03200 0.00000 8.264818 15.52760 3.421626 
83 52.18532 0.00000 0.00000 10.58809 5.943650 1.449281 
84 100.0000 42.35259 100.0000 65.01054 39.81653 98.81196 
85 0.00000 0.00000 65.60521 7.932804 3.772684 37.51579 
86 100.0000 100.0000 35.19304 79.05170 93.57910 24.28184 
87 51.28402 100.0000 100.0000 63.50879 83.70813 107.3634 
88 100.0000 0.00000 74.47157 51.02177 25.72823 51.32633 
89 0.00000 78.21078 100.0000 39.19171 48.78284 101.9026 
90 100.0000 66.71794 0.00000 56.08656 50.56095 7.665399 
91 100.0000 25.57208 24.12719 44.56162 26.15766 8.007618 
92 57.07218 50.00822 0.00000 20.23528 22.16866 4.073082 
93 47.91159 26.90506 100.0000 28.92509 16.42290 96.19686 
94 75.08011 0.00000 47.54928 25.81786 13.39918 20.08000 
95 0.00000 44.69555 40.81329 9.432315 13.89858 16.03492 
96 47.57548 100.0000 32.28938 45.77679 76.45665 21.17920 
97 100.0000 100.0000 69.29415 85.06297 95.98323 55.94377 
98 61.33609 100.0000 0.00000 50.05738 78.83962 13.44155 
99 46.39699 0.00000 59.38034 14.00342 7.060991 30.65675 
100 0.00000 0.00000 32.11473 2.503850 1.601445 8.920934 
101 100.0000 52.65419 59.67525 55.93271 41.25408 35.36793 
102 0.00000 72.17830 0.00000 17.98168 34.95860 6.660606 
103 29.38420 100.0000 51.74481 43.39273 74.92674 34.63741 
104 41.35952 75.67164 100.0000 43.56594 48.88919 101.6927 
105 25.31600 100.0000 100.0000 56.40562 80.04571 107.0306 
106 100.0000 100.0000 100.0000 95.10649 100.0000 108.8440 
107 0.00000 50.55259 60.48733 14.55549 18.83649 34.10954 
108 0.00000 0.00000 0.00000 1.000000 1.000000 1.000000 
109 51.48026 100.0000 67.93882 53.20592 79.59650 52.69641 
110 28.59611 0.00000 0.00000 3.714357 2.399531 1.127190 
111 100.0000 78.67506 50.51236 66.33276 64.79462 30.37408 
112 52.11817 53.74569 100.0000 37.29659 30.80300 98.53173 
113 0.00000 100.0000 75.93752 46.00639 75.64038 63.37222 
114 0.00000 52.31094 100.0000 27.22878 24.86032 97.91487 
115 0.00000 100.0000 28.49172 37.58455 72.27218 19.01357 
116 0.00000 77.28975 73.99603 29.84911 44.19456 55.32115 
117 72.83729 23.45830 100.0000 40.44634 21.63197 96.59556 
118 65.56258 100.0000 44.09906 55.14249 81.12370 28.92642 
119 35.99356 58.91801 0.00000 16.18464 24.91151 4.815870 
120 76.13092 24.66695 0.00000 24.81550 15.88314 2.618559 
121 47.66932 0.00000 19.62838 9.455414 5.293578 4.377682 
122 49.59338 27.62127 0.00000 11.78188 9.817435 2.134160 
123 51.30598 0.00000 79.38917 20.84801 10.00683 57.30099 
124 20.11554 0.00000 48.91780 6.014998 3.163731 20.28148 
125 100.0000 0.00000 49.51570 45.57570 23.55014 22.64133 
126 79.04052 76.47980 0.00000 44.32227 52.02019 8.566678 
127 76.35331 0.00000 0.00000 23.20559 12.44927 2.040515 
128 75.66368 0.00000 72.16443 31.32721 15.64578 47.14806 
129 77.15330 0.00000 100.0000 41.60113 19.86699 96.19405 
130 100.0000 79.71785 21.13824 63.69687 64.72841 13.44363 
131 81.68362 100.0000 0.00000 62.24084 85.12145 14.01245 
132 100.0000 21.09899 100.0000 60.99827 31.79311 97.47452 
133 47.27493 0.00000 39.15918 11.01520 5.901242 13.32213 
134 39.35699 64.62579 57.98957 24.81045 32.38253 33.49705 
135 0.00000 20.01481 49.69770 5.949055 4.857001 21.27634 
136 25.84960 49.26563 100.0000 28.42972 23.96880 97.67953 
137 0.00000 56.18381 80.78707 21.79601 24.93897 62.35649 
138 82.53782 49.54393 0.00000 34.87689 29.49339 4.715821 
139 23.37634 16.95111 71.27154 12.01861 6.998774 45.26645 
140 100.0000 25.32517 51.35750 47.73144 27.36824 24.87963 
141 38.40577 66.84001 34.05639 21.99120 32.87093 14.94276 
142 0.00000 24.30437 0.00000 2.704249 4.408022 1.568088 
143 75.45013 100.0000 79.86830 68.77850 87.24874 70.44275 
144 0.00000 35.50406 71.81424 13.14032 11.71819 46.86324 
145 85.38747 18.03626 70.39517 38.62261 20.89579 45.36041 
146 51.71821 35.85757 28.42287 15.31748 13.79854 8.869208 
147 74.55037 73.13316 19.35323 40.09300 47.04488 10.74519 
148 100.0000 61.84361 78.11415 64.11394 50.24990 60.80684 
149 0.00000 74.61442 47.52687 22.71678 38.94223 25.15564 
150 74.60915 46.50365 100.0000 46.44049 31.98297 98.27791 
151 24.11526 100.0000 28.11708 39.48919 73.25780 18.94122 
152 29.01860 80.89350 64.64920 32.42573 48.95695 43.78589 
153 64.85096 85.50983 30.35840 42.61547 59.16080 17.06416 
154 100.0000 62.48411 100.0000 72.03344 53.86035 101.1529 
155 77.93365 100.0000 100.0000 77.52478 90.93481 108.0202 
156 89.96193 63.77668 55.44761 50.81078 45.27733 32.02986 
157 24.20212 42.32141 0.00000 8.250203 12.60548 2.858341 
158 20.32625 0.00000 22.05549 3.106149 2.003513 4.818629 
159 21.33456 74.02032 0.00000 20.49195 37.71114 7.059715 
160 86.02646 24.01289 41.09773 34.21154 20.30350 16.15846 
161 15.85997 43.12196 88.49966 20.94713 17.90490 74.23457 
162 19.78759 0.00000 77.65416 12.41890 5.720074 54.22869 
163 71.36961 62.79182 34.06522 34.26233 36.45560 14.99317 
164 44.91540 45.58461 68.22444 21.71201 20.02232 43.22317 
165 0.00000 53.60710 22.11839 10.53099 18.91305 7.712111 
166 62.00966 78.62985 100.0000 53.42142 56.48334 102.6395 
167 19.98735 100.0000 0.00000 37.75527 72.49661 12.86510 
168 27.62525 100.0000 76.03202 48.56569 76.95687 63.63184 
169 52.88009 76.65629 0.00000 30.29429 44.93574 7.938002 
170 0.00000 15.13583 79.90615 12.46792 6.714721 57.92311 
171 82.66469 100.0000 57.02022 68.03499 87.52009 40.85971 
172 15.95128 30.66382 67.47235 11.98133 9.831996 40.80499 
173 82.40493 54.36993 66.96311 43.69639 35.66583 43.47666 
174 75.52052 44.44878 21.58642 29.23572 24.21285 7.578672 
175 17.82322 75.40173 76.52184 30.58079 42.90834 58.73755 
176 23.73201 23.30852 100.0000 22.31789 12.25569 95.74046 
177 67.13409 26.42154 33.49592 21.31830 14.26867 11.08789 
178 0.00000 78.39843 22.39972 22.16425 42.14809 11.67694 
179 52.64452 26.86849 51.56856 16.93962 11.82883 23.69164 
180 33.22056 59.47945 16.58404 16.16650 25.19215 7.067229 
181 33.92485 14.36059 48.60317 9.087625 5.708616 20.34654 
182 32.08241 60.31066 71.52181 24.23462 28.93774 49.20051 
183 100.0000 29.65055 75.73732 53.90700 30.93311 54.02984 
184 100.0000 52.45534 16.42368 50.64969 39.03018 7.884126 
185 0.00000 0.00000 0.00000 1.000000 1.000000 1.000000 
186 11.99711 58.38284 36.44695 14.12239 23.30345 14.85575 
187 27.70432 50.90446 50.54012 15.34014 19.63278 24.36661 
188 75.28931 0.00000 23.39525 23.31772 12.41472 6.214655 
189 100.0000 53.55990 38.30359 52.79531 40.51177 17.26249 
190 85.85327 60.98175 87.20635 54.69334 44.51539 75.27116 
191 20.25602 75.65488 100.0000 39.11882 46.58237 101.4816 
192 15.05040 92.47943 63.02996 37.79796 63.23926 44.34210 
193 49.26247 82.46096 39.59280 34.67235 52.05729 21.26488 
194 65.61107 27.31508 84.95151 31.34174 18.40201 67.51822 
195 74.26183 66.02689 51.07435 39.80458 41.21999 27.71782 
196 100.0000 81.36712 76.57126 73.81989 70.37442 61.83606 
197 67.05799 90.83444 66.82721 53.31612 69.38690 49.30819 
198 13.27895 92.11490 40.87192 33.51705 61.08663 23.91459 
199 48.61443 54.98476 15.68848 18.91974 24.02107 6.488455 
200 87.10536 9.910925 31.65308 32.67075 17.68010 10.20551 
201 31.94938 59.09764 88.70863 28.92819 30.01463 76.53128 
202 77.52100 100.0000 23.07788 60.15638 83.95674 17.97461 
203 31.76076 84.85859 34.07566 30.46881 52.22669 18.24289 
204 76.51881 35.04399 70.31098 34.96577 22.87127 45.82127 
205 54.95665 71.91687 18.10621 29.06745 40.41451 9.707117 
206 87.01023 62.46705 18.78615 43.63827 41.21491 9.275961 
207 0.00000 26.64654 23.54773 3.852293 5.409962 5.940961 
208 66.00566 34.71021 11.36989 20.77060 16.35803 4.073958 
209 78.99537 5.592297 85.89587 37.78775 18.73902 68.87829 
210 14.16854 56.97713 70.54959 19.94058 24.76730 47.29951 
211 32.90057 35.11874 56.07089 13.10065 11.98859 28.21091 
212 47.95152 17.02995 38.49006 12.04558 7.734127 13.19810 
213 90.14531 17.51894 87.15826 47.27231 24.70495 71.75253 
214 12.36100 34.67958 34.03092 6.759814 8.953953 11.11456 
215 60.37220 13.45912 70.04438 22.77722 12.15514 44.03782 
216 70.39717 44.30581 42.94552 28.12783 23.34156 18.35480 
217 62.55378 43.58088 88.26669 34.36572 25.01955 74.47947 
218 32.79532 74.32504 84.12100 34.79856 43.93608 70.84712 
219 12.53043 61.77657 54.85292 18.29224 27.22343 29.67370 
220 57.42861 78.42013 83.88099 45.26138 52.77231 71.59538 
221 12.14515 38.49254 14.47670 6.226689 10.09611 4.206957 
222 55.68969 93.95758 17.36045 43.23319 68.33295 14.15900 
223 67.27974 14.50900 54.37050 22.99274 12.78082 26.17048 
224 12.47204 76.04119 33.41538 22.29488 40.10714 15.98149 
225 27.15008 44.02476 72.32376 17.82194 17.23417 48.38745 
226 43.78775 93.52026 53.85554 42.47576 66.99541 35.11576 
227 80.38995 71.18936 100.0000 60.26363 53.92901 101.7861 
228 92.45664 46.00027 79.39866 52.11365 35.52596 60.59514 
229 11.03974 14.10845 34.54009 3.849316 3.192991 10.43287 
230 19.61612 68.26336 19.68249 17.87702 31.89657 9.084780 
231 73.49430 86.91654 11.11710 47.36791 63.12392 11.65936 
232 92.36053 80.04228 7.392660 56.60964 61.42526 10.33853 
233 60.10722 11.67142 89.76182 28.49905 14.23406 75.43852 
234 19.63766 24.30446 50.19323 7.867489 6.624077 21.94552 
235 89.03378 79.98289 64.75692 60.47935 62.60178 45.07202 
236 39.97842 40.08986 89.69631 25.11019 18.83080 76.38333 
237 89.78282 12.22516 55.93988 38.34695 20.41817 28.37720 
238 8.213601 10.34914 57.50834 6.866191 3.980263 28.45857 
239 82.00632 86.56670 35.83929 54.48539 66.25351 20.66805 
240 40.76397 84.48852 15.32790 31.18210 52.39378 11.23913 
241 85.37141 13.66914 4.727084 30.19342 16.92154 2.881930 
242 64.00043 63.80766 90.21285 43.05852 40.21836 80.52348 
243 52.10997 77.63360 56.95317 35.62183 47.92530 34.85526 
244 50.06325 20.67796 20.92298 11.65584 8.272234 5.220425 
245 70.68251 87.90433 91.71984 60.81135 69.36931 88.04905 
246 12.24745 65.35615 88.85818 28.85758 33.99535 77.57572 
247 29.31373 50.59831 31.42559 13.06779 18.59588 11.30274 
248 67.90932 59.50403 10.49660 29.36684 32.03931 6.510337 
249 34.38102 7.494698 30.12989 6.506615 4.031464 8.217348 
250 29.75535 2.754564 63.27425 10.41644 5.226931 34.87148 
251 34.72047 40.21614 13.12612 10.07147 12.70657 4.241363 
252 90.21657 89.30433 49.60380 64.47897 73.95035 31.45000 
253 37.82809 13.32342 85.14774 18.80639 9.584323 66.81405 
254 66.61192 49.68997 72.71351 33.57401 27.88404 50.15801 
255 67.41275 83.62894 50.42907 45.34095 58.46862 30.18549 
256 24.39064 88.90377 11.94553 30.33359 56.34122 11.38471 
257 96.48644 11.99011 14.63518 39.45220 21.49103 4.689634 
258 12.42069 89.50435 88.34013 42.60429 61.75218 81.26881 
259 44.84859 80.02032 72.37478 37.93205 50.79130 53.87684 
260 85.19856 37.51525 54.72095 38.17055 25.72836 28.20966 
261 50.89611 32.06744 76.47637 22.80654 15.52363 53.79286 
262 84.94567 48.04952 35.12692 37.98057 30.17953 14.16993 
263 91.60761 91.71206 23.56600 64.36745 76.75631 16.53206 
264 62.34166 7.487440 38.42962 17.56501 9.633022 13.23613 
265 83.62961 29.98256 17.71219 31.30343 20.41378 5.626588 
266 81.95545 35.91450 87.70818 44.05782 27.23579 73.39175 
267 50.64387 39.94914 9.563814 14.84353 15.08134 3.865862 
268 27.09753 73.04856 47.95831 24.37475 38.53349 25.34243 
269 25.09612 29.57011 83.52661 17.50165 11.87047 64.56501 
270 14.16935 11.90590 88.01820 15.57487 7.662757 71.67058 
271 52.81703 94.08896 83.96563 53.70315 72.53703 75.10905 
272 66.37860 36.74314 56.53980 26.18973 19.25163 29.39625 
273 2.201697 35.53777 87.23647 17.85593 13.62376 71.30192 
274 93.10740 72.14240 35.93402 54.57784 53.58038 18.27137 
275 7.121531 88.53382 11.45204 28.33430 54.93476 11.13552 
276 6.424090 76.75786 60.82688 26.56926 42.42214 38.40606 
277 55.50935 51.66041 30.39914 21.44617 23.45802 11.30661 
278 37.59130 89.23462 89.86511 47.13068 63.74657 84.20557 
279 55.43478 65.39100 42.14953 28.22430 34.96720 20.02972 
280 12.03280 39.82749 52.76648 10.51044 12.32465 25.22203 
281 97.77582 37.09807 36.72619 45.79562 29.82744 14.61129 
282 66.02935 13.61160 12.92371 17.92492 10.56583 3.376735 
283 38.55023 14.52150 9.065930 6.829609 4.961386 2.266541 
284 12.24215 56.18208 10.30067 11.51788 20.89278 5.269285 
285 40.25331 21.52213 66.16596 14.90962 9.353892 38.91739 
286 49.23138 59.99325 79.28304 31.30226 32.13480 60.85502 
END_DATA
CTI1   

DESCRIPTOR "Argyll Calibration Target chart information 1"
ORIGINATOR "Argyll targen"
DENSITY_EXTREME_VALUES "8"
CREATED "June 24, 2025"

NUMBER_OF_FIELDS 7
BEGIN_DATA_FORMAT
INDEX RGB_R RGB_G RGB_B XYZ_X XYZ_Y XYZ_Z 
END_DATA_FORMAT

NUMBER_OF_SETS 8
BEGIN_DATA
0 100.0000 100.0000 100.0000 95.10649 100.0000 108.8440 
1 0.00000 47.36069 100.0000 25.61297 21.62916 97.37627 
2 100.0000 0.00000 79.35138 52.42580 26.28975 58.72152 
3 0.00000 0.00000 58.99714 6.485834 3.193987 29.89445 
4 100.0000 66.65930 0.00000 56.05879 50.50543 7.656144 
5 0.00000 35.60114 0.00000 4.685619 8.370208 2.228550 
6 84.44436 0.00000 0.00000 28.84279 15.35583 2.304665 
7 0.00000 0.00000 0.00000 1.000000 1.000000 1.000000 
END_DATA
CTI1   

DESCRIPTOR "Argyll Calibration Target chart information 1"
ORIGINATOR "Argyll targen"
DEVICE_COMBINATION_VALUES "9"
CREATED "June 24, 2025"

NUMBER_OF_FIELDS 7
BEGIN_DATA_FORMAT
INDEX RGB_R RGB_G RGB_B XYZ_X XYZ_Y XYZ_Z 
END_DATA_FORMAT

NUMBER_OF_SETS 9
BEGIN_DATA
0 100.0000 100.0000 100.0000 95.10649 100.0000 108.8440 
1 0.00000 100.0000 100.0000 54.27632 78.94783 106.9308 
2 100.0000 0.00000 100.0000 59.70128 29.19948 97.04219 
3 0.00000 0.00000 100.0000 18.87111 8.147314 95.12896 
4 100.0000 100.0000 0.00000 77.23538 92.85269 14.71507 
5 0.00000 100.0000 0.00000 36.40521 71.80052 12.80184 
6 100.0000 0.00000 0.00000 41.83017 22.05217 2.913230 
7 0.00000 0.00000 0.00000 1.000000 1.000000 1.000000 
8 50.00000 50.00000 50.00000 21.14266 22.19007 24.08306 
END_DATA
