Created_Profiles/Printer_HP_CLJ5550-PostScript-Plain90g-White-sRGB-1168Patches-Calib-Argyll-Colormunki_2026.02.14/Printer_HP_CLJ5550-PostScript-Plain90g-White-sRGB-1168Patches-Calib-Argyll-Colormunki_2026.02.14.ti3
CTI3   

DESCRIPTOR "Argyll Calibration Target chart information 3"
ORIGINATOR "Argyll chartread"
CREATED "Mon Feb  9 19:55:22 2026"
DEVICE_CLASS "OUTPUT"
COLOR_REP "iRGB_XYZ"
TARGET_INSTRUMENT "X-Rite ColorMunki"
DEVCALSTD "XRGA"
SPECTRAL_BANDS "106"
SPECTRAL_START_NM "380.000000"
SPECTRAL_END_NM "730.000000"

NUMBER_OF_FIELDS 114
BEGIN_DATA_FORMAT
SAMPLE_ID SAMPLE_LOC RGB_R RGB_G RGB_B XYZ_X XYZ_Y XYZ_Z SPEC_380 SPEC_383 SPEC_387 SPEC_390 SPEC_393 SPEC_397 SPEC_400 SPEC_403 SPEC_407 SPEC_410 SPEC_413 SPEC_417 SPEC_420 SPEC_423 SPEC_427 SPEC_430 SPEC_433 SPEC_437 SPEC_440 SPEC_443 SPEC_447 SPEC_450 SPEC_453 SPEC_457 SPEC_460 SPEC_463 SPEC_467 SPEC_470 SPEC_473 SPEC_477 SPEC_480 SPEC_483 SPEC_487 SPEC_490 SPEC_493 SPEC_497 SPEC_500 SPEC_503 SPEC_507 SPEC_510 SPEC_513 SPEC_517 SPEC_520 SPEC_523 SPEC_527 SPEC_530 SPEC_533 SPEC_537 SPEC_540 SPEC_543 SPEC_547 SPEC_550 SPEC_553 SPEC_557 SPEC_560 SPEC_563 SPEC_567 SPEC_570 SPEC_573 SPEC_577 SPEC_580 SPEC_583 SPEC_587 SPEC_590 SPEC_593 SPEC_597 SPEC_600 SPEC_603 SPEC_607 SPEC_610 SPEC_613 SPEC_617 SPEC_620 SPEC_623 SPEC_627 SPEC_630 SPEC_633 SPEC_637 SPEC_640 SPEC_643 SPEC_647 SPEC_650 SPEC_653 SPEC_657 SPEC_660 SPEC_663 SPEC_667 SPEC_670 SPEC_673 SPEC_677 SPEC_680 SPEC_683 SPEC_687 SPEC_690 SPEC_693 SPEC_697 SPEC_700 SPEC_703 SPEC_707 SPEC_710 SPEC_713 SPEC_717 SPEC_720 SPEC_723 SPEC_727 SPEC_730 
END_DATA_FORMAT

NUMBER_OF_SETS 1168
BEGIN_DATA
1 "AQ1" 0.00000 0.00000 0.00000 2.525549 2.609844 1.999067 2.153206 2.153206 2.153206 2.153206 2.153206 2.153206 2.153206 2.153778 2.153745 2.152058 2.147664 2.146221 2.153395 2.221252 2.281576 2.312440 2.340773 2.365654 2.377793 2.393400 2.407892 2.411583 2.415455 2.412667 2.427187 2.440473 2.432809 2.437020 2.447058 2.486283 2.489885 2.494921 2.534208 2.551392 2.596933 2.656028 2.705123 2.738029 2.762333 2.761991 2.762619 2.764803 2.752202 2.726730 2.706521 2.685034 2.657942 2.642244 2.625502 2.602475 2.577698 2.547346 2.517277 2.488130 2.457300 2.434605 2.418721 2.404387 2.393139 2.397020 2.418382 2.457866 2.511884 2.574593 2.636821 2.686344 2.720322 2.735511 2.744497 2.756862 2.769637 2.781101 2.796082 2.804493 2.807315 2.816844 2.833519 2.842689 2.856842 2.870102 2.879591 2.896339 2.920229 2.939925 2.956406 2.964692 2.972938 2.990602 2.997683 3.001257 2.988609 3.002351 2.998712 2.972661 3.004001 3.026990 3.011524 3.020260 3.041744 3.017613 2.971950 3.023579 3.071776 3.081934 3.114580 3.134177 
2 "P12" 0.00000 12.54902 0.00000 3.733308 4.296958 2.954475 3.261151 3.261151 3.261151 3.261151 3.261151 3.261151 3.261151 3.261947 3.261826 3.259195 3.252461 3.250192 3.260942 3.221268 3.219942 3.245682 3.264559 3.278176 3.293511 3.309635 3.328224 3.347130 3.364790 3.397303 3.423083 3.442575 3.511713 3.612944 3.681602 3.793176 3.896264 4.020688 4.178486 4.338444 4.556470 4.762490 4.937130 5.098874 5.217439 5.292264 5.311855 5.291709 5.246105 5.183975 5.109771 5.033677 4.950160 4.851386 4.758554 4.656786 4.546827 4.438615 4.324628 4.209692 4.109057 4.024647 3.954816 3.894048 3.840750 3.805077 3.787931 3.792071 3.810052 3.823687 3.824186 3.819164 3.814845 3.800078 3.782099 3.777135 3.771216 3.773842 3.788833 3.800630 3.804425 3.818494 3.835670 3.845522 3.855079 3.868189 3.881478 3.898454 3.927947 3.954773 3.987169 4.030476 4.034971 4.030489 4.041747 4.048970 4.042082 4.065262 4.058526 4.014859 4.000246 3.971514 3.969792 3.980861 3.963025 3.984421 3.966058 4.010309 4.097563 4.161890 4.259060 4.281224 
3 "AB14" 0.00000 25.09804 0.00000 3.578254 4.959697 2.496116 2.305345 2.305345 2.305345 2.305345 2.305345 2.305345 2.305345 2.305146 2.304275 2.301603 2.296006 2.293534 2.300221 2.291284 2.292562 2.310973 2.332643 2.357564 2.383441 2.411237 2.435539 2.460199 2.497876 2.550605 2.605580 2.681645 2.804703 2.931874 3.078956 3.269980 3.572835 3.829078 4.169235 4.704470 5.326756 5.961924 6.602499 7.145114 7.563785 7.831014 7.950297 7.948999 7.847114 7.667025 7.430666 7.164565 6.889345 6.602495 6.307700 5.999582 5.683861 5.368612 5.057868 4.759377 4.497468 4.272462 4.079802 3.925184 3.799073 3.699476 3.624691 3.580656 3.562926 3.546751 3.526594 3.497603 3.466388 3.428995 3.392828 3.377185 3.370806 3.363431 3.363782 3.369206 3.376007 3.388344 3.402627 3.422230 3.438823 3.457658 3.485778 3.529075 3.572445 3.618382 3.670445 3.702124 3.721275 3.732419 3.741712 3.744772 3.719630 3.718209 3.704579 3.677648 3.634626 3.594119 3.568608 3.539426 3.535203 3.525624 3.575590 3.625424 3.707621 3.800714 3.963157 4.058603 
4 "AT12" 0.00000 37.64706 0.00000 5.919815 9.299807 4.199899 3.438590 3.438590 3.438590 3.438590 3.438590 3.438590 3.438590 3.437550 3.435482 3.430703 3.421538 3.417001 3.426076 3.389878 3.434337 3.472110 3.508418 3.544371 3.584416 3.628183 3.674676 3.730476 3.803378 3.918153 4.061101 4.273676 4.529556 4.826171 5.216283 5.653517 6.185834 6.824563 7.765423 9.023365 10.46714 12.08347 13.69497 15.14675 16.27664 16.98849 17.27555 17.22072 16.89469 16.36329 15.69627 14.96402 14.19156 13.39649 12.59701 11.79199 10.98479 10.18772 9.407499 8.676033 8.027043 7.478714 7.025323 6.652760 6.348834 6.103049 5.926077 5.794321 5.694685 5.619618 5.540357 5.451314 5.368851 5.283952 5.210059 5.158052 5.133930 5.118588 5.118205 5.129151 5.141270 5.161681 5.182011 5.202035 5.234498 5.288615 5.343251 5.413051 5.503021 5.594606 5.672461 5.754353 5.830920 5.864973 5.864874 5.825115 5.805471 5.743494 5.691399 5.641566 5.590466 5.544350 5.445895 5.413512 5.452018 5.462770 5.465327 5.459076 5.573224 5.789207 6.042242 6.451252 
5 "BB14" 0.00000 50.19608 0.00000 8.977041 17.46209 6.519375 3.552051 3.552051 3.552051 3.552051 3.552051 3.552051 3.552051 3.547801 3.542386 3.534063 3.521102 3.512791 3.518356 3.555181 3.607834 3.695889 3.783602 3.894757 4.011724 4.139841 4.292283 4.475196 4.712477 5.009980 5.396114 5.905859 6.527135 7.283465 8.213013 9.358732 10.76178 12.43363 14.60821 17.47692 21.06110 25.20107 29.57836 33.73322 37.06558 39.22767 40.12622 39.85351 38.66386 36.83859 34.64072 32.28839 29.90428 27.54035 25.23343 22.99590 20.84507 18.78735 16.84891 15.07803 13.53639 12.23581 11.16426 10.29861 9.596658 9.035737 8.600467 8.269712 8.002980 7.778372 7.573911 7.372948 7.167825 6.983081 6.844834 6.745115 6.678864 6.654457 6.658057 6.670197 6.690006 6.723953 6.774424 6.834821 6.906879 7.010767 7.142994 7.307721 7.486683 7.673034 7.879139 8.062901 8.178101 8.235690 8.224017 8.174963 8.114815 8.023357 7.917869 7.815077 7.680311 7.516762 7.320548 7.176643 7.160924 7.157615 7.267323 7.438291 7.672444 8.101492 8.684625 9.357973 
6 "AP12" 0.00000 62.74510 0.00000 10.85474 19.91102 6.987595 3.846196 3.846196 3.846196 3.846196 3.846196 3.846196 3.846196 3.841225 3.834980 3.825574 3.811135 3.801717 3.807313 3.907382 3.993962 4.110730 4.231097 4.353758 4.481600 4.608580 4.744688 4.904967 5.120799 5.408913 5.804505 6.297631 6.898053 7.692311 8.647689 9.768118 11.17000 12.93072 15.26522 18.24862 21.95042 26.34318 31.13556 35.75851 39.60270 42.25258 43.50090 43.43864 42.33646 40.49860 38.22323 35.75716 33.24151 30.74634 28.30935 25.95946 23.69336 21.52803 19.49334 17.64036 16.01455 14.63871 13.51082 12.59087 11.83766 11.23021 10.75118 10.37958 10.08734 9.831707 9.594465 9.363114 9.151254 8.963463 8.808390 8.705661 8.637288 8.608657 8.615667 8.637525 8.674823 8.715518 8.765569 8.837452 8.925764 9.045292 9.197129 9.371817 9.575501 9.791494 10.01105 10.20553 10.34501 10.42001 10.40098 10.34448 10.28459 10.19943 10.05349 9.909715 9.805459 9.648349 9.440224 9.250215 9.182362 9.152026 9.249326 9.470252 9.746350 10.09455 10.61672 11.35400 
7 "S6" 0.00000 75.29412 0.00000 10.70831 19.81670 6.524900 3.536570 3.536570 3.536570 3.536570 3.536570 3.536570 3.536570 3.531409 3.525056 3.515776 3.501849 3.492513 3.496939 3.558240 3.618447 3.680412 3.767383 3.861287 3.959422 4.068741 4.191139 4.336150 4.533014 4.808352 5.193991 5.668015 6.269190 7.022327 7.937890 9.027685 10.40930 12.18023 14.46720 17.46907 21.22754 25.72468 30.61199 35.34585 39.33193 42.07787 43.40131 43.39958 42.34078 40.53104 38.27948 35.82701 33.31820 30.82324 28.38339 26.01333 23.73096 21.55052 19.49810 17.62124 15.97753 14.59098 13.44625 12.51104 11.74795 11.13651 10.65001 10.27068 9.969405 9.708754 9.468549 9.240993 9.027998 8.831694 8.681066 8.577533 8.517850 8.492584 8.501256 8.524172 8.559369 8.603669 8.656979 8.738187 8.837920 8.960981 9.110242 9.276932 9.492598 9.715435 9.943040 10.14153 10.27565 10.34231 10.35405 10.32030 10.23385 10.14173 10.03086 9.870724 9.677465 9.518296 9.377382 9.231837 9.174528 9.184656 9.237872 9.406697 9.694676 10.19947 10.73571 11.40482 
8 "B13" 0.00000 87.84314 0.00000 12.05156 21.49734 7.907262 4.449289 4.449289 4.449289 4.449289 4.449289 4.449289 4.449289 4.444030 4.437311 4.426952 4.410788 4.400452 4.407506 4.461892 4.576841 4.708364 4.844600 4.988884 5.139201 5.292576 5.456419 5.658114 5.930461 6.305062 6.787832 7.386788 8.100033 8.969288 10.05459 11.33538 12.90940 14.90477 17.41381 20.62220 24.62075 29.19834 34.04876 38.60993 42.30086 44.74119 45.80319 45.58013 44.35967 42.45032 40.13865 37.63497 35.08983 32.57117 30.10798 27.71906 25.40617 23.19740 21.10034 19.18181 17.50136 16.08311 14.90554 13.94310 13.15158 12.50865 12.00201 11.61382 11.30182 11.02853 10.77219 10.52982 10.30438 10.09995 9.935342 9.826414 9.769709 9.755077 9.765542 9.795701 9.839378 9.893851 9.960911 10.04939 10.16431 10.31029 10.47641 10.65965 10.87895 11.12990 11.36727 11.57080 11.70964 11.78001 11.78174 11.74708 11.68052 11.58193 11.46105 11.30450 11.15237 10.96842 10.71415 10.54012 10.46808 10.44565 10.53127 10.71913 11.08001 11.54996 12.15272 12.81534 
9 "AB8" 0.00000 100.0000 0.00000 12.07568 21.40721 8.364835 4.997220 4.997220 4.997220 4.997220 4.997220 4.997220 4.997220 4.992401 4.985980 4.975508 4.958551 4.948187 4.957430 5.056562 5.227768 5.378156 5.539394 5.722469 5.914258 6.108974 6.303441 6.515078 6.781421 7.124106 7.550338 8.084346 8.770573 9.598309 10.59503 11.78528 13.26136 15.01823 17.26983 20.24516 24.00486 28.39705 33.13502 37.70753 41.53845 44.16023 45.38660 45.32351 44.23351 42.40569 40.13947 37.67230 35.13696 32.61828 30.14894 27.74577 25.42145 23.19583 21.09304 19.15626 17.46094 16.03183 14.84076 13.86923 13.07128 12.42496 11.91200 11.51600 11.20527 10.93301 10.67829 10.43491 10.20326 9.997861 9.834912 9.730480 9.671175 9.649181 9.656852 9.685147 9.728289 9.780794 9.855165 9.947818 10.06058 10.19916 10.37463 10.57947 10.80184 11.04241 11.29008 11.50943 11.65990 11.73617 11.75375 11.71554 11.61876 11.53152 11.42149 11.26624 11.07688 10.87925 10.71542 10.53734 10.42579 10.41765 10.51152 10.67229 10.97657 11.43515 12.02596 12.79320 
10 "BN15" 0.00000 0.00000 12.54902 2.761547 2.976195 2.395781 2.453282 2.453282 2.453282 2.453282 2.453282 2.453282 2.453282 2.453911 2.453852 2.451905 2.446874 2.445204 2.453337 2.450858 2.508678 2.577612 2.628056 2.677055 2.726306 2.776348 2.818600 2.850526 2.884804 2.913236 2.927639 2.928827 2.945263 2.996521 3.026256 3.063967 3.134356 3.145678 3.195073 3.298955 3.404302 3.494684 3.602751 3.668258 3.706366 3.715804 3.680875 3.628401 3.555239 3.479124 3.391060 3.308793 3.245300 3.174721 3.096669 3.024452 2.946924 2.864466 2.780565 2.703835 2.632902 2.568778 2.518182 2.485107 2.459123 2.452949 2.475191 2.529018 2.621501 2.725925 2.822805 2.897053 2.937404 2.965486 2.981885 2.980826 2.982834 2.994765 3.013087 3.027664 3.034010 3.042107 3.055836 3.075952 3.092368 3.111523 3.134614 3.179424 3.214552 3.242591 3.286118 3.328749 3.349536 3.350752 3.356155 3.344380 3.341053 3.367677 3.352730 3.301475 3.304461 3.289142 3.245836 3.260698 3.249912 3.246517 3.169638 3.176267 3.281259 3.361305 3.539255 3.667130 
11 "AH10" 0.00000 12.54902 12.54902 3.488241 4.140985 3.323850 3.158899 3.158899 3.158899 3.158899 3.158899 3.158899 3.158899 3.159558 3.159325 3.156658 3.150013 3.147691 3.157996 3.236046 3.322432 3.377225 3.441448 3.519835 3.599298 3.670235 3.727922 3.772643 3.830043 3.880099 3.927266 4.003301 4.088335 4.198729 4.318995 4.455522 4.525882 4.718190 4.933575 5.149526 5.400863 5.652450 5.880675 6.048776 6.149061 6.149398 6.066014 5.942542 5.783930 5.586473 5.382327 5.185408 4.998794 4.813467 4.633223 4.444031 4.250157 4.054228 3.859223 3.670970 3.508625 3.378746 3.266068 3.181464 3.128103 3.094962 3.102905 3.159986 3.252417 3.354402 3.440512 3.500249 3.531925 3.546591 3.544053 3.543082 3.541763 3.546278 3.553708 3.560207 3.570489 3.583769 3.594902 3.615747 3.646402 3.674679 3.708216 3.735159 3.780540 3.843032 3.898572 3.946335 3.973587 3.991545 3.993894 3.995591 3.972160 3.961349 3.956303 3.907466 3.890987 3.846411 3.821165 3.797360 3.776907 3.825108 3.837711 3.889265 3.975489 4.054409 4.162626 4.348826 
12 "AK15" 0.00000 25.09804 12.54902 3.454013 5.229653 2.881971 2.413964 2.413964 2.413964 2.413964 2.413964 2.413964 2.413964 2.413703 2.412736 2.409882 2.403963 2.401314 2.408247 2.358637 2.417557 2.467274 2.505060 2.557063 2.600356 2.640893 2.676966 2.725790 2.783832 2.865717 2.957997 3.089650 3.253923 3.463794 3.743451 4.008205 4.321729 4.754882 5.325211 5.960333 6.676442 7.473023 8.228895 8.878802 9.329870 9.573013 9.627718 9.528032 9.296730 8.971503 8.578236 8.160861 7.734438 7.296697 6.859344 6.417807 5.978338 5.543981 5.121008 4.726853 4.379615 4.089611 3.854260 3.663287 3.509043 3.388777 3.309443 3.272579 3.259210 3.250626 3.233007 3.200235 3.157565 3.122396 3.092975 3.067893 3.054570 3.046418 3.043123 3.045979 3.046999 3.043901 3.055833 3.067129 3.085770 3.116850 3.149584 3.186940 3.229734 3.280385 3.331099 3.376324 3.408109 3.426858 3.430056 3.417169 3.409313 3.393411 3.357601 3.304710 3.266252 3.256539 3.232923 3.202644 3.194231 3.215728 3.237685 3.282177 3.369522 3.478373 3.639861 3.840257 
13 "P13" 0.00000 37.64706 12.54902 5.557241 9.024760 4.272285 3.448484 3.448484 3.448484 3.448484 3.448484 3.448484 3.448484 3.447528 3.445544 3.440844 3.431748 3.427296 3.436510 3.455214 3.453721 3.473467 3.513357 3.546126 3.581304 3.621591 3.674419 3.731523 3.806097 3.945702 4.139573 4.351904 4.614004 4.960366 5.349306 5.835236 6.391748 7.105328 8.092213 9.359348 10.88556 12.56395 14.21017 15.65056 16.74474 17.39270 17.60853 17.47462 17.04763 16.43091 15.68217 14.87052 14.02811 13.16908 12.31034 11.44269 10.58361 9.748237 8.942076 8.191731 7.531346 6.978446 6.524720 6.154699 5.853091 5.621976 5.450302 5.327196 5.240065 5.162973 5.084367 4.998420 4.913863 4.838732 4.771419 4.720400 4.689983 4.681081 4.678471 4.685408 4.695186 4.715457 4.735060 4.744852 4.764281 4.804898 4.858072 4.926078 5.005730 5.091920 5.179699 5.255984 5.296418 5.321169 5.332914 5.316610 5.279817 5.260690 5.204776 5.110868 5.035540 4.969753 4.946038 4.909407 4.879625 4.896598 4.943481 5.041906 5.180052 5.378826 5.593167 5.813530 
14 "L2" 0.00000 50.19608 12.54902 8.617235 17.27822 6.587513 3.548431 3.548431 3.548431 3.548431 3.548431 3.548431 3.548431 3.544153 3.538709 3.530359 3.517374 3.509032 3.514550 3.542776 3.623100 3.722417 3.812541 3.920242 4.034906 4.163105 4.296531 4.447972 4.649428 4.926422 5.297400 5.806288 6.452586 7.251364 8.215742 9.433721 10.91774 12.72924 15.07730 18.08299 21.75833 26.06337 30.62917 34.92431 38.35579 40.52562 41.33318 40.89711 39.48990 37.42552 34.99330 32.41599 29.83179 27.30509 24.85725 22.51528 20.28383 18.16909 16.20082 14.42933 12.89824 11.62579 10.59585 9.760352 9.090956 8.559957 8.142571 7.822212 7.569499 7.353825 7.148322 6.954377 6.773134 6.610471 6.476179 6.375118 6.321902 6.289308 6.273936 6.278560 6.297284 6.325315 6.354073 6.400495 6.469529 6.551731 6.657339 6.794583 6.956110 7.118015 7.282332 7.425681 7.543676 7.595478 7.595640 7.567294 7.486665 7.394465 7.295366 7.173559 7.023142 6.903111 6.815686 6.701395 6.627890 6.599005 6.694029 6.852017 7.106987 7.436740 7.890816 8.502904 
15 "AL15" 0.00000 62.74510 12.54902 10.67656 19.76489 6.066779 3.247604 3.247604 3.247604 3.247604 3.247604 3.247604 3.247604 3.242343 3.235971 3.226893 3.213530 3.204361 3.207786 3.201733 3.236570 3.309862 3.387153 3.468163 3.551964 3.640662 3.741674 3.872668 4.059603 4.305127 4.647123 5.082582 5.636215 6.341400 7.198327 8.252424 9.608665 11.27518 13.49347 16.41709 20.14686 24.60239 29.53187 34.36943 38.48725 41.42363 42.95469 43.13000 42.19958 40.48695 38.28445 35.86544 33.39364 30.92533 28.49745 26.14325 23.86818 21.69145 19.63660 17.76243 16.11154 14.71051 13.55697 12.61401 11.83943 11.21004 10.71319 10.33231 10.02544 9.755075 9.506811 9.269396 9.041413 8.842665 8.678968 8.573555 8.505621 8.478965 8.485385 8.506793 8.546291 8.592862 8.660947 8.742698 8.845139 8.978388 9.132503 9.316384 9.531679 9.770413 10.00632 10.21643 10.37060 10.44535 10.45237 10.41757 10.34429 10.23159 10.10183 9.944661 9.800228 9.614814 9.407814 9.243792 9.183036 9.159579 9.242310 9.410320 9.689303 10.16525 10.68371 11.41443 
16 "Z15" 0.00000 75.29412 12.54902 11.31709 20.62101 8.295866 4.867109 4.867109 4.867109 4.867109 4.867109 4.867109 4.867109 4.862484 4.856301 4.846174 4.829732 4.819714 4.828790 4.894083 4.997891 5.159221 5.324609 5.508014 5.717235 5.925315 6.144890 6.389782 6.688234 7.072347 7.541574 8.114049 8.843932 9.686338 10.71648 11.93620 13.34604 15.13900 17.42236 20.39615 24.11102 28.39439 32.97931 37.37405 41.04664 43.53142 44.66301 44.52995 43.39427 41.55300 39.29049 36.82992 34.30799 31.80147 29.34399 26.95241 24.63094 22.40142 20.28910 18.34506 16.63424 15.18506 13.98436 13.00102 12.19051 11.54167 11.02203 10.61289 10.29335 10.01669 9.761557 9.508840 9.274438 9.068823 8.900032 8.787419 8.726253 8.702280 8.714120 8.748675 8.792517 8.846746 8.914894 9.008827 9.127803 9.270294 9.446286 9.649715 9.877534 10.11913 10.37428 10.61458 10.77628 10.85042 10.86901 10.82415 10.75316 10.66130 10.53108 10.36474 10.19389 10.01574 9.837931 9.622671 9.528731 9.521602 9.636561 9.826909 10.15620 10.58879 11.21341 11.95327 
17 "BG4" 0.00000 87.84314 12.54902 12.76490 22.17370 9.379528 5.729572 5.729572 5.729572 5.729572 5.729572 5.729572 5.729572 5.724972 5.718567 5.707548 5.689125 5.678301 5.690028 5.874530 6.051023 6.249043 6.468826 6.694992 6.935863 7.176027 7.415839 7.680135 7.980854 8.352613 8.832865 9.426522 10.15849 11.07276 12.12653 13.40536 14.92400 16.75130 19.09196 22.08960 25.80868 30.11501 34.72373 39.11866 42.70175 45.12012 46.21205 46.06331 44.94429 43.11446 40.86128 38.40540 35.88982 33.38311 30.91616 28.52625 26.21987 23.98507 21.85326 19.90101 18.18250 16.72596 15.51726 14.52476 13.70651 13.04330 12.51657 12.11705 11.80450 11.52996 11.26850 11.02265 10.79080 10.59247 10.42814 10.32918 10.26536 10.23168 10.24609 10.29095 10.34758 10.40743 10.48845 10.58344 10.69989 10.85621 11.03779 11.23519 11.48025 11.73995 11.99864 12.22625 12.38293 12.48606 12.49878 12.45391 12.39129 12.29399 12.13668 11.99021 11.81719 11.66805 11.52031 11.28694 11.23245 11.23379 11.29025 11.54050 11.86961 12.23300 12.81523 13.56118 
18 "BL4" 0.00000 100.0000 12.54902 12.17036 21.64089 9.676792 5.870465 5.870465 5.870465 5.870465 5.870465 5.870465 5.870465 5.866156 5.860009 5.849148 5.830713 5.820079 5.832554 5.897775 6.066763 6.244251 6.454590 6.712520 6.985902 7.251393 7.527367 7.832015 8.193480 8.626423 9.188749 9.875308 10.69714 11.67572 12.83434 14.16899 15.79963 17.74163 20.18843 23.30343 27.10451 31.42553 35.95272 40.17296 43.48115 45.57972 46.35691 45.95203 44.62213 42.64326 40.28059 37.75730 35.20342 32.66958 30.18394 27.76980 25.43691 23.19036 21.06578 19.11874 17.40484 15.94480 14.73423 13.75024 12.94348 12.28293 11.75863 11.35894 11.03933 10.76628 10.51283 10.26377 10.03851 9.844312 9.682182 9.570278 9.505922 9.487752 9.506369 9.534412 9.577282 9.636771 9.711137 9.803666 9.922117 10.06220 10.22818 10.42864 10.66694 10.91344 11.16851 11.40837 11.55815 11.62891 11.64761 11.60378 11.53011 11.43358 11.29990 11.14006 10.97175 10.77892 10.55687 10.40723 10.38732 10.33014 10.34121 10.55875 10.90654 11.42668 12.01852 12.74334 
19 "Q7" 0.00000 0.00000 25.09804 3.469739 3.856087 4.023453 4.113558 4.113558 4.113558 4.113558 4.113558 4.113558 4.113558 4.115016 4.115334 4.112501 4.104508 4.102167 4.116299 4.157478 4.270768 4.349797 4.434169 4.530412 4.627406 4.715138 4.786230 4.843289 4.891559 4.953274 5.011993 5.049966 5.100160 5.166633 5.199446 5.241634 5.274199 5.300267 5.320490 5.361734 5.428928 5.459093 5.482844 5.493563 5.449804 5.369435 5.265346 5.138704 4.990909 4.829107 4.667031 4.502318 4.351950 4.216073 4.087735 3.958045 3.820437 3.677137 3.537257 3.406491 3.286242 3.187886 3.115943 3.060780 3.027505 3.018897 3.032459 3.087182 3.169588 3.254588 3.324721 3.376283 3.401263 3.403731 3.404667 3.401043 3.401896 3.410643 3.416410 3.419946 3.427550 3.437639 3.447742 3.460504 3.478663 3.498141 3.517179 3.544951 3.580547 3.640722 3.701950 3.737037 3.741072 3.747804 3.769890 3.757712 3.742665 3.748271 3.698129 3.663585 3.627896 3.628901 3.662579 3.665823 3.630816 3.592765 3.591500 3.620555 3.730751 3.895870 3.999191 4.109458 
20 "AM2" 0.00000 12.54902 25.09804 3.677719 4.546974 6.535852 5.807251 5.807251 5.807251 5.807251 5.807251 5.807251 5.807251 5.809381 5.809905 5.805984 5.794780 5.791565 5.811658 6.117828 6.364781 6.596259 6.861441 7.183551 7.493509 7.751144 7.946939 8.087112 8.206725 8.312796 8.398046 8.465797 8.543784 8.578769 8.614704 8.629037 8.680103 8.700483 8.711382 8.756675 8.842856 8.903675 8.891624 8.818660 8.666713 8.446997 8.164243 7.811531 7.422364 7.005424 6.587317 6.186137 5.819061 5.467403 5.122981 4.781691 4.442618 4.121851 3.819318 3.549762 3.318337 3.133826 2.991242 2.888057 2.823910 2.793376 2.798155 2.832075 2.885136 2.940401 2.969285 2.975533 2.967332 2.949295 2.929867 2.912127 2.898947 2.887245 2.877367 2.873649 2.869837 2.873348 2.884381 2.885985 2.893856 2.910161 2.938702 2.980475 3.017768 3.069891 3.124172 3.145044 3.161770 3.175857 3.180912 3.177672 3.148740 3.126374 3.098541 3.062894 3.024343 2.963284 2.989710 2.999764 2.997203 3.019535 3.039280 3.096951 3.206788 3.317330 3.397338 3.576165 
21 "BF16" 0.00000 25.09804 25.09804 4.133362 6.875046 6.306414 4.690546 4.690546 4.690546 4.690546 4.690546 4.690546 4.690546 4.690996 4.690105 4.685581 4.675133 4.671083 4.685774 4.905462 5.108083 5.278454 5.478215 5.732401 5.989230 6.221937 6.428264 6.620674 6.806340 7.012286 7.263103 7.558975 7.932694 8.329042 8.731696 9.172080 9.712776 10.25244 10.94031 11.80745 12.80382 13.75228 14.58225 15.20510 15.53223 15.55467 15.29345 14.79062 14.12044 13.33636 12.47871 11.59918 10.74350 9.892344 9.055523 8.238413 7.444658 6.683384 5.971734 5.326607 4.776808 4.324137 3.974174 3.708856 3.506805 3.357390 3.270762 3.228896 3.210307 3.186781 3.161023 3.117964 3.072954 3.031658 2.982025 2.950555 2.934859 2.917743 2.906154 2.915963 2.919978 2.909005 2.908027 2.910892 2.930193 2.950462 2.986891 3.024499 3.081502 3.150312 3.215845 3.250340 3.272910 3.266138 3.255168 3.273183 3.251893 3.202675 3.170707 3.136649 3.078907 3.056422 3.044951 3.027643 3.013217 3.092293 3.189683 3.212374 3.276596 3.479841 3.651688 3.868595 
22 "BB16" 0.00000 37.64706 25.09804 5.059922 9.249688 5.710618 3.923867 3.923867 3.923867 3.923867 3.923867 3.923867 3.923867 3.922970 3.920911 3.915769 3.905628 3.900784 3.911518 3.998950 4.100349 4.209318 4.338371 4.501504 4.667513 4.829632 4.992661 5.158528 5.350784 5.574274 5.846166 6.178011 6.608552 7.101826 7.664445 8.355064 9.218494 10.15703 11.33201 12.79642 14.49203 16.31849 18.12146 19.66491 20.70885 21.19921 21.16465 20.68038 19.86819 18.82905 17.65318 16.43250 15.21562 14.02147 12.84585 11.69281 10.56478 9.479007 8.453675 7.519787 6.716902 6.045726 5.507667 5.083279 4.749645 4.500937 4.330464 4.231641 4.176750 4.130807 4.075650 4.015011 3.941312 3.855150 3.784745 3.731697 3.698387 3.683695 3.678084 3.674996 3.673953 3.684267 3.697596 3.714303 3.742519 3.790348 3.849308 3.923044 4.014308 4.106972 4.208533 4.307619 4.360478 4.374137 4.359597 4.331540 4.295254 4.253600 4.222320 4.171787 4.092006 4.009499 3.913353 3.827443 3.823330 3.810412 3.876966 3.987026 4.110469 4.334610 4.674960 5.073404 
