Pre-made_Targets/Patch Width 12-15mm - Intermediate (Easy with ruler)/Generated Targets/CM-Interm-A4-546p-3pages-w14.0mm-13x14/CM-Interm-A4-546p-3pages.ti1
CTI1   

DESCRIPTOR "Argyll Calibration Target chart information 1"
ORIGINATOR "Argyll targen"
CREATED "Mon Feb  9 15:35:20 2026"
APPROX_WHITE_POINT "95.106486 100.000000 108.844025"
COLOR_REP "iRGB"
TOTAL_INK_LIMIT "300.0"
WHITE_COLOR_PATCHES "5"
BLACK_COLOR_PATCHES "5"
COMP_GREY_STEPS "108"
IFP_PATCHES "430"

NUMBER_OF_FIELDS 7
BEGIN_DATA_FORMAT
SAMPLE_ID RGB_R RGB_G RGB_B XYZ_X XYZ_Y XYZ_Z 
END_DATA_FORMAT

NUMBER_OF_SETS 546
BEGIN_DATA
1 100.0000 100.0000 100.0000 95.10649 100.0000 108.8440 
2 100.0000 100.0000 100.0000 95.10649 100.0000 108.8440 
3 100.0000 100.0000 100.0000 95.10649 100.0000 108.8440 
4 100.0000 100.0000 100.0000 95.10649 100.0000 108.8440 
5 100.0000 100.0000 100.0000 95.10649 100.0000 108.8440 
6 0.00000 0.00000 0.00000 1.000000 1.000000 1.000000 
7 0.00000 0.00000 0.00000 1.000000 1.000000 1.000000 
8 0.00000 0.00000 0.00000 1.000000 1.000000 1.000000 
9 0.00000 0.00000 0.00000 1.000000 1.000000 1.000000 
10 0.00000 0.00000 0.00000 1.000000 1.000000 1.000000 
11 99.06542 99.06542 99.06542 93.11812 97.90824 106.5654 
12 98.13084 98.13084 98.13084 91.15448 95.84249 104.3151 
13 97.19626 97.19626 97.19626 89.21548 93.80266 102.0931 
14 96.26168 96.26168 96.26168 87.30102 91.78865 99.89913 
15 95.32710 95.32710 95.32710 85.41102 89.80037 97.73323 
16 94.39252 94.39252 94.39252 83.54539 87.83773 95.59525 
17 93.45794 93.45794 93.45794 81.70403 85.90062 93.48510 
18 92.52336 92.52336 92.52336 79.88687 83.98896 91.40267 
19 91.58879 91.58879 91.58879 78.09379 82.10265 89.34784 
20 90.65421 90.65421 90.65421 76.32472 80.24159 87.32052 
21 89.71963 89.71963 89.71963 74.57956 78.40568 85.32061 
22 88.78505 88.78505 88.78505 72.85821 76.59482 83.34798 
23 87.85047 87.85047 87.85047 71.16059 74.80893 81.40254 
24 86.91589 86.91589 86.91589 69.48660 73.04788 79.48418 
25 85.98131 85.98131 85.98131 67.83614 71.31160 77.59279 
26 85.04673 85.04673 85.04673 66.20911 69.59997 75.72825 
27 84.11215 84.11215 84.11215 64.60543 67.91290 73.89047 
28 83.17757 83.17757 83.17757 63.02499 66.25028 72.07932 
29 82.24299 82.24299 82.24299 61.46771 64.61201 70.29470 
30 81.30841 81.30841 81.30841 59.93347 62.99799 68.53650 
31 80.37383 80.37383 80.37383 58.42218 61.40812 66.80459 
32 79.43925 79.43925 79.43925 56.93374 59.84229 65.09888 
33 78.50467 78.50467 78.50467 55.46806 58.30039 63.41924 
34 77.57009 77.57009 77.57009 54.02503 56.78232 61.76555 
35 76.63551 76.63551 76.63551 52.60455 55.28797 60.13771 
36 75.70093 75.70093 75.70093 51.20652 53.81725 58.53560 
37 74.76636 74.76636 74.76636 49.83084 52.37003 56.95910 
38 73.83178 73.83178 73.83178 48.47739 50.94621 55.40808 
39 72.89720 72.89720 72.89720 47.14609 49.54568 53.88244 
40 71.96262 71.96262 71.96262 45.83682 48.16833 52.38204 
41 71.02804 71.02804 71.02804 44.54949 46.81405 50.90678 
42 70.09346 70.09346 70.09346 43.28397 45.48273 49.45653 
43 69.15888 69.15888 69.15888 42.04017 44.17425 48.03116 
44 68.22430 68.22430 68.22430 40.81798 42.88850 46.63056 
45 67.28972 67.28972 67.28972 39.61729 41.62538 45.25459 
46 66.35514 66.35514 66.35514 38.43799 40.38475 43.90313 
47 65.42056 65.42056 65.42056 37.27996 39.16651 42.57606 
48 64.48598 64.48598 64.48598 36.14311 37.97054 41.27325 
49 63.55140 63.55140 63.55140 35.02731 36.79672 39.99457 
50 62.61682 62.61682 62.61682 33.93246 35.64494 38.73990 
51 61.68224 61.68224 61.68224 32.85844 34.51507 37.50909 
52 60.74766 60.74766 60.74766 31.80513 33.40699 36.30202 
53 59.81308 59.81308 59.81308 30.77242 32.32058 35.11856 
54 58.87850 58.87850 58.87850 29.76019 31.25571 33.95857 
55 57.94393 57.94393 57.94393 28.76833 30.21228 32.82191 
56 57.00935 57.00935 57.00935 27.79671 29.19014 31.70846 
57 56.07477 56.07477 56.07477 26.84522 28.18917 30.61808 
58 55.14019 55.14019 55.14019 25.91374 27.20925 29.55061 
59 54.20561 54.20561 54.20561 25.00214 26.25024 28.50594 
60 53.27103 53.27103 53.27103 24.11030 25.31203 27.48391 
61 52.33645 52.33645 52.33645 23.23809 24.39447 26.48438 
62 51.40187 51.40187 51.40187 22.38540 23.49743 25.50721 
63 50.46729 50.46729 50.46729 21.55209 22.62079 24.55225 
64 49.53271 49.53271 49.53271 20.73803 21.76440 23.61936 
65 48.59813 48.59813 48.59813 19.94310 20.92814 22.70839 
66 47.66355 47.66355 47.66355 19.16717 20.11186 21.81919 
67 46.72897 46.72897 46.72897 18.41010 19.31542 20.95160 
68 45.79439 45.79439 45.79439 17.67176 18.53869 20.10548 
69 44.85981 44.85981 44.85981 16.95201 17.78151 19.28067 
70 43.92523 43.92523 43.92523 16.25073 17.04376 18.47701 
71 42.99065 42.99065 42.99065 15.56777 16.32529 17.69435 
72 42.05607 42.05607 42.05607 14.90299 15.62594 16.93252 
73 41.12150 41.12150 41.12150 14.25625 14.94557 16.19137 
74 40.18692 40.18692 40.18692 13.62740 14.28403 15.47074 
75 39.25234 39.25234 39.25234 13.01632 13.64116 14.77044 
76 38.31776 38.31776 38.31776 12.42284 13.01682 14.09033 
77 37.38318 37.38318 37.38318 11.84682 12.41085 13.43022 
78 36.44860 36.44860 36.44860 11.28811 11.82309 12.78995 
79 35.51402 35.51402 35.51402 10.74656 11.25338 12.16935 
80 34.57944 34.57944 34.57944 10.22201 10.70155 11.56823 
81 33.64486 33.64486 33.64486 9.714311 10.16745 10.98641 
82 32.71028 32.71028 32.71028 9.223301 9.650911 10.42373 
83 31.77570 31.77570 31.77570 8.748821 9.151758 9.879983 
84 30.84112 30.84112 30.84112 8.290707 8.669822 9.354995 
85 29.90654 29.90654 29.90654 7.848794 8.204929 8.848572 
86 28.97196 28.97196 28.97196 7.422914 7.756903 8.360522 
87 28.03738 28.03738 28.03738 7.012896 7.325565 7.890650 
88 27.10280 27.10280 27.10280 6.618567 6.910731 7.438757 
89 26.16822 26.16822 26.16822 6.239750 6.512216 7.004642 
90 25.23364 25.23364 25.23364 5.876266 6.129831 6.588097 
91 24.29907 24.29907 24.29907 5.527933 5.763384 6.188915 
92 23.36449 23.36449 23.36449 5.194564 5.412680 5.806881 
93 22.42991 22.42991 22.42991 4.875970 5.077520 5.441779 
94 21.49533 21.49533 21.49533 4.571957 4.757698 5.093387 
95 20.56075 20.56075 20.56075 4.282329 4.453010 4.761479 
96 19.62617 19.62617 19.62617 4.006884 4.163241 4.445825 
97 18.69159 18.69159 18.69159 3.745416 3.888177 4.146188 
98 17.75701 17.75701 17.75701 3.497715 3.627596 3.862328 
99 16.82243 16.82243 16.82243 3.263566 3.381271 3.593998 
100 15.88785 15.88785 15.88785 3.042748 3.148970 3.340946 
101 14.95327 14.95327 14.95327 2.835035 2.930456 3.102911 
102 14.01869 14.01869 14.01869 2.640194 2.725484 2.879628 
103 13.08411 13.08411 13.08411 2.457988 2.533803 2.670823 
104 12.14953 12.14953 12.14953 2.288171 2.355155 2.476216 
105 11.21495 11.21495 11.21495 2.130488 2.189273 2.295515 
106 10.28037 10.28037 10.28037 1.984680 2.035883 2.128422 
107 9.345794 9.345794 9.345794 1.850476 1.894700 1.974627 
108 8.411215 8.411215 8.411215 1.727595 1.765430 1.833809 
109 7.476636 7.476636 7.476636 1.615748 1.647766 1.705634 
110 6.542056 6.542056 6.542056 1.514630 1.541391 1.589755 
111 5.607477 5.607477 5.607477 1.423927 1.445971 1.485811 
112 4.672897 4.672897 4.672897 1.343306 1.361157 1.393421 
113 3.738318 3.738318 3.738318 1.272291 1.286450 1.312040 
114 2.803738 2.803738 2.803738 1.204218 1.214838 1.234030 
115 1.869159 1.869159 1.869159 1.136145 1.143225 1.156020 
116 0.934579 0.934579 0.934579 1.068073 1.071613 1.078010 
117 0.00000 0.00000 100.0000 18.87111 8.147314 95.12896 
118 0.00000 100.0000 0.00000 36.40521 71.80052 12.80184 
119 0.00000 93.80890 76.63898 41.42281 66.15507 62.82951 
120 100.0000 0.00000 0.00000 41.83017 22.05217 2.913230 
121 100.0000 92.79475 44.82831 74.73176 83.00714 28.80413 
122 77.06573 0.00000 52.24319 27.87902 14.37233 24.21980 
123 47.69810 10.35538 12.21565 9.516059 5.918459 2.794918 
124 14.46214 43.26798 0.00000 7.307343 12.49827 2.887304 
125 0.00000 57.39851 99.43653 28.87577 28.51895 97.33789 
126 0.00000 85.28896 100.0000 43.56221 57.52262 103.3594 
127 39.53691 68.74222 65.42041 28.41744 36.94916 42.61464 
128 96.37216 64.94505 49.51295 55.71714 48.71206 26.96183 
129 0.00000 0.00000 35.73511 2.874938 1.749857 10.87549 
130 76.84526 58.88792 17.76767 34.82618 34.45020 8.164711 
131 65.94068 30.23024 0.00000 19.65293 14.52606 2.628508 
132 77.84895 47.33838 100.0000 48.79801 33.57331 98.46072 
133 17.59295 33.76151 89.60957 19.30172 13.72531 75.54375 
134 0.00000 56.60755 76.63179 20.72556 24.76966 55.92020 
135 91.75697 78.60399 100.0000 73.00961 66.56056 103.5530 
136 65.99579 94.42176 56.13070 53.04527 73.38835 38.01906 
137 91.20226 0.00000 34.34779 35.85723 18.77273 11.64920 
138 74.04425 13.06641 13.08411 22.55593 12.89450 3.612218 
139 54.99011 65.96330 0.00000 25.64675 34.33934 6.137365 
140 40.62289 20.27719 34.34993 9.535199 6.986217 10.76156 
141 74.64015 100.0000 100.0000 75.38279 89.83040 107.9198 
142 0.00000 89.51633 89.67485 42.49805 61.65597 83.69445 
143 47.28906 0.00000 60.99613 14.65241 7.356472 32.45370 
144 69.97171 46.81662 48.59820 29.44888 25.01257 22.99621 
145 73.73053 45.47975 69.49680 35.59505 27.09845 45.51973 
146 29.47626 42.83129 31.38656 10.75812 13.93542 10.50567 
147 39.34010 31.31372 13.09166 9.344598 9.469510 3.648327 
148 64.79029 77.00810 95.45876 52.11437 54.62351 92.96035 
149 54.84765 28.08926 100.0000 31.82636 18.19693 96.38650 
150 88.33085 88.51945 70.91995 66.91264 73.88360 54.80734 
151 38.41951 38.59851 59.83458 16.00599 14.55926 32.49124 
152 100.0000 49.54649 66.59155 56.42643 39.77678 43.13335 
153 91.74632 44.02168 43.92522 43.24002 30.99946 19.74938 
154 77.33331 100.0000 0.00000 59.25422 83.58154 13.87250 
155 27.58771 12.16286 1.158715 4.027211 3.279555 1.364608 
156 0.00000 40.28444 44.77761 8.792603 11.75571 18.48511 
157 0.00000 0.00000 16.08718 1.396658 1.158638 3.089237 
158 22.10017 72.16989 9.845748 19.78655 35.86243 7.656783 
159 52.70142 90.17519 18.84879 39.32618 62.25720 13.58196 
160 68.46661 59.97892 47.36116 33.08509 33.87482 23.49689 
161 0.00000 4.043686 64.61285 7.813665 3.902308 36.34156 
162 0.00000 100.0000 58.78389 41.84761 73.97713 41.46754 
163 67.92122 0.00000 33.11713 19.70778 10.46052 10.23858 
164 62.77120 42.82988 27.70094 21.91812 19.72604 9.356152 
165 100.0000 53.21613 0.00000 50.50536 39.40013 5.804986 
166 100.0000 0.00000 90.27694 56.00024 27.71930 77.54842 
167 61.13871 85.77271 69.74142 47.50404 61.17404 51.79417 
168 100.0000 78.46477 83.57050 74.20345 67.74523 72.43787 
169 71.52505 86.85538 94.39346 61.59262 68.60882 93.04157 
170 36.56083 41.76750 16.52378 11.06342 13.79092 5.120875 
171 0.00000 61.07773 39.72055 15.06838 25.38988 17.23280 
172 80.61481 90.37734 46.74388 57.53409 71.53488 28.98276 
173 67.94918 36.63283 30.84145 23.41771 18.20372 10.39876 
174 62.07473 60.59515 29.18642 27.78083 31.77061 12.01955 
175 51.94120 41.26385 0.00000 15.51495 15.94009 3.119397 
176 36.31785 78.59676 100.0000 43.84771 51.51829 102.1854 
177 0.00000 30.34241 44.63869 6.650983 7.505018 17.67270 
178 0.00000 22.81463 94.38723 18.18053 10.28186 84.05690 
179 15.05104 20.09400 4.729715 3.053885 3.806283 1.779908 
180 52.56499 47.56052 86.00638 30.24417 24.70608 70.62025 
181 0.00000 62.28265 70.75213 21.44343 28.76484 48.26550 
182 87.28894 27.94746 54.20552 37.80884 22.78735 27.16291 
183 66.14651 61.75902 72.78182 37.88154 36.84357 51.75641 
184 65.72927 8.337077 59.77404 22.82182 11.99946 31.57222 
185 35.57240 18.83669 45.61952 9.431221 6.539048 18.08773 
186 81.93565 68.73379 65.42041 49.13506 47.62507 43.58424 
187 36.83908 50.41534 48.60222 16.87709 20.22006 22.73662 
188 33.79277 22.54643 64.62950 12.99483 8.594763 36.99449 
189 38.03507 52.43879 4.709788 14.34752 20.34412 4.375760 
190 17.79110 2.178294 11.45961 2.369500 1.768997 2.241744 
191 85.91565 95.88145 87.85090 75.45045 85.60197 83.26075 
192 37.50232 80.47845 50.66896 31.34119 48.34485 29.17957 
193 100.0000 54.70500 95.13877 67.00085 46.85692 90.03728 
194 47.81617 63.40275 41.11091 24.18855 31.56662 18.86941 
195 45.81252 12.82737 24.30103 9.630070 6.137572 6.045803 
196 58.10259 19.99748 46.07772 17.50029 10.87562 18.85620 
197 45.43514 57.40033 65.04223 25.14781 27.85181 40.57026 
198 56.13641 62.01278 89.68523 38.32931 36.63162 79.10274 
199 85.51299 90.18951 18.84876 58.18431 71.99545 14.46849 
200 78.65752 0.00000 95.68503 40.90232 19.70381 87.26452 
201 42.16324 54.71758 72.44168 24.92353 26.01486 49.87267 
202 18.37170 0.00000 0.00000 2.153707 1.594855 1.054061 
203 50.87770 81.25405 85.04847 44.59763 54.90344 74.03262 
204 0.00000 32.61496 69.21709 11.88357 10.27259 43.15194 
205 86.47287 59.32275 72.05113 49.91208 41.55750 51.01384 
206 100.0000 76.78737 0.00000 61.33135 61.04907 9.413678 
207 66.52933 5.044845 21.49483 18.15704 9.976712 5.385151 
208 56.40820 18.31048 5.590530 13.43429 8.877496 2.286204 
209 50.67812 40.74557 47.95658 18.38498 16.81875 21.46490 
210 0.00000 42.38039 69.49974 14.19599 14.78308 44.27345 
211 55.41824 35.99718 66.79607 22.91488 17.06212 40.77004 
212 84.45431 27.72758 4.760021 31.12910 19.81038 3.392962 
213 100.0000 20.38368 27.96786 44.18122 24.93594 9.302635 
214 0.00000 23.23102 19.75810 3.138882 4.352109 4.565862 
215 60.00583 75.16440 39.90078 34.96198 45.82861 20.24797 
216 38.46929 0.00000 78.69156 16.39625 7.735544 56.00657 
217 0.00000 61.51968 51.96348 17.07447 26.49251 26.87288 
218 80.61191 54.87584 48.36620 38.91583 33.90349 24.02028 
219 45.32827 32.69011 30.04139 12.47907 11.35260 9.274786 
220 36.38506 14.66215 16.37422 6.523983 4.790786 3.587281 
221 48.38565 74.62030 12.99161 27.70645 41.88465 8.919612 
222 53.30659 86.85879 100.0000 54.64076 64.77389 104.1756 
223 62.25872 49.53754 66.59154 29.70221 25.99339 41.88026 
224 0.00000 63.06701 94.40472 29.26767 32.44248 87.78516 
225 0.00000 64.04973 65.42100 20.91456 29.80139 41.63079 
226 88.44358 81.71797 89.86297 68.35462 67.38625 83.78634 
227 96.28900 78.59517 53.21811 63.39223 63.15469 32.67004 
228 33.22461 5.675676 0.00000 4.846062 3.223249 1.226587 
229 41.32936 43.36643 52.72678 16.68830 16.87871 25.73888 
230 56.46205 68.22040 68.22430 34.92371 39.84657 46.35382 
231 86.31447 45.46026 30.64646 37.79395 28.97699 11.62803 
232 98.47836 66.88451 33.24709 56.38129 50.64345 16.13152 
233 64.57093 22.17132 21.07841 18.37157 11.99767 5.633722 
234 54.04160 4.627337 4.672889 11.53830 6.615678 1.870744 
235 39.16316 0.00000 35.72523 8.062504 4.424707 11.11294 
236 79.58023 93.54975 69.25474 63.61308 77.54172 53.46188 
237 27.44742 23.24903 31.66450 6.524043 5.998888 9.333446 
238 79.72894 61.01536 94.65402 52.94386 43.32556 89.13210 
239 71.17468 73.68448 65.03632 44.56504 49.06729 43.63563 
240 18.01811 61.50536 24.45656 14.89427 25.73955 9.608982 
241 47.72755 45.45810 37.43253 17.14465 18.24839 14.30786 
242 43.63896 22.90581 0.00000 9.043841 7.401186 1.811961 
243 55.54097 95.37794 86.91263 56.78232 75.44628 80.61049 
244 49.96466 99.60785 72.74010 53.53736 79.15762 59.04116 
245 89.74809 55.13097 61.15820 48.25414 38.58345 36.89299 
246 76.99606 58.27139 35.95861 36.10282 34.57697 15.59038 
247 87.84644 35.46014 89.03878 48.82731 29.49627 75.98518 
248 63.50569 40.33892 7.430471 20.64476 18.22258 3.897612 
249 84.23573 88.58009 100.0000 73.45318 76.20389 105.3911 
250 100.0000 0.00000 72.63543 50.52339 25.52891 48.70132 
251 37.54924 59.55110 47.36065 20.24660 26.99419 22.84449 
252 67.06149 33.14984 45.61704 23.94888 17.18872 19.37689 
253 71.23887 63.40835 41.11091 35.27447 37.28624 19.38959 
254 86.69966 35.31580 72.05175 42.71052 26.89770 48.56422 
255 83.21880 52.20888 0.00000 36.26325 31.53313 5.036531 
256 30.84112 54.02812 58.58634 18.53150 22.72089 32.59161 
257 28.58156 0.00000 46.06889 6.918409 3.680628 18.01777 
258 46.38798 87.85061 87.85047 48.15590 62.94778 80.32461 
259 50.33552 44.38204 71.96262 24.24712 20.70697 48.21829 
260 95.01908 58.48181 56.53463 53.01313 43.06234 32.57444 
261 82.07832 76.99033 40.24404 49.13923 54.65620 21.43116 
262 18.60209 0.00000 24.47008 3.052370 1.957375 5.646965 
263 6.032675 44.59305 39.66900 9.460070 13.88634 15.27413 
264 45.24800 57.40035 100.0000 36.15457 32.24659 98.87053 
265 79.01160 89.70000 89.67400 66.60157 74.27374 84.85900 
266 68.25330 86.90016 18.91445 44.58103 61.63356 13.20281 
267 78.65573 78.60272 100.0000 63.15508 61.47843 103.0911 
268 86.04468 54.58495 30.44748 40.56388 34.85040 12.52158 
269 34.78352 78.85724 65.98323 32.77110 47.28925 45.07305 
270 56.06080 78.59331 53.21812 37.13083 49.61260 31.43918 
271 70.37806 99.31222 72.74032 63.08707 83.73063 59.42122 
272 37.87198 93.95709 40.24470 38.97290 65.91024 24.13939 
273 38.95634 0.00000 92.82390 21.22249 9.681222 80.72799 
274 29.20889 27.03283 56.39986 10.90639 8.653905 28.01392 
275 60.38948 74.95637 67.48305 40.04901 47.70058 46.65007 
276 65.14428 54.97135 57.28856 31.04825 29.71616 31.92564 
277 77.21392 32.11834 40.18321 29.14759 19.65839 15.68827 
278 87.35368 0.00000 24.47008 31.92513 16.84427 6.999894 
279 0.269276 42.02535 21.39664 6.903442 11.71693 6.282805 
280 68.90411 54.26013 99.43518 45.35305 35.25922 97.76827 
281 62.48629 28.78834 79.13289 28.13880 17.31549 57.92572 
282 100.0000 89.03468 0.00000 69.03713 76.45849 11.98229 
283 100.0000 70.51971 100.0000 75.82570 61.44382 102.4170 
284 86.85309 71.92001 85.07519 59.90520 54.94043 73.27953 
285 30.15242 39.86866 44.01843 11.60226 13.06341 18.02232 
286 0.00000 28.19203 53.20468 7.664153 7.324454 24.81568 
287 100.0000 83.87609 72.73423 74.32874 73.09071 56.76679 
288 46.23349 54.27518 40.24652 19.84389 23.87712 17.03447 
289 37.84559 0.00000 24.44448 6.698815 3.837701 5.808509 
290 83.27261 40.69953 0.00000 32.85986 24.66907 3.890818 
291 30.29176 26.94227 19.61322 6.708944 6.977833 4.843109 
292 52.18604 72.03273 84.08550 39.56402 44.57721 70.65970 
293 65.27045 43.89609 56.21538 27.32563 22.50615 29.63703 
294 73.86358 39.90769 77.97337 36.48763 25.06689 57.18438 
295 26.21227 32.13903 26.79619 7.307999 8.560329 7.595441 
296 48.10926 44.58906 25.87234 15.93903 17.38258 8.475885 
297 96.46900 94.39152 100.0000 87.55293 89.64897 107.2438 
298 59.99508 13.24695 83.29662 26.38084 13.55095 64.03595 
299 93.92315 26.06384 18.85011 38.89695 23.38112 6.100708 
300 95.37658 77.24861 35.09126 59.23672 60.15112 18.81583 
301 86.85308 64.18320 85.07047 56.14203 47.41761 72.01749 
302 51.82568 38.16197 89.86473 28.73036 19.99953 76.72951 
303 0.00000 16.66248 22.78433 2.595713 2.977264 5.275035 
304 100.0000 75.51978 72.74317 69.34016 63.11111 55.11571 
305 46.22893 79.09882 36.13992 31.14258 47.25130 18.40297 
306 54.12148 28.60926 28.90472 14.94859 11.54793 8.666040 
307 79.80609 33.38562 26.79570 29.79008 20.51238 8.718244 
308 45.40437 100.0000 100.0000 61.37843 82.60970 107.2636 
309 7.905962 27.64609 0.00000 3.488234 5.547067 1.746666 
310 0.00000 49.42042 61.30293 14.35798 18.16415 34.89918 
311 73.96963 34.41879 57.01176 30.21064 20.57227 29.92030 
312 76.52249 41.10905 41.63695 30.88475 23.50675 17.32105 
313 23.30462 25.38772 41.44919 7.227659 6.670482 15.18795 
314 52.11838 54.80156 1.073684 19.82430 24.42933 4.608961 
315 72.19914 42.29489 22.24473 26.61462 21.97998 7.498393 
316 0.00000 77.54734 33.52367 22.57883 41.52382 16.29723 
317 80.54430 74.43926 9.842347 44.39973 50.35620 9.157684 
318 73.30008 41.26215 0.00000 26.29284 21.49656 3.624305 
319 76.07407 80.47571 53.32503 49.08784 57.43923 32.42065 
320 64.45840 40.78009 47.95658 24.62914 20.05128 21.76001 
321 0.00000 72.89490 89.86315 32.38367 41.32387 80.65039 
322 100.0000 95.50951 87.49734 86.92883 91.11483 83.08709 
323 53.58525 58.47528 52.72675 26.10622 29.26669 27.63407 
324 26.07353 30.71877 38.15063 8.127361 8.464310 13.33397 
325 33.83823 46.28352 78.52557 21.59254 19.94379 57.83183 
326 27.64922 44.66107 56.97150 14.56319 16.22834 29.86470 
327 0.00000 100.0000 33.47400 38.04280 72.45545 21.42719 
328 36.90138 29.46294 32.64147 9.635005 8.982512 10.23768 
329 0.00000 82.89615 75.70361 33.69314 51.12300 58.94189 
330 79.60531 74.53101 59.77786 49.27103 52.30939 37.96434 
331 72.33865 97.59670 43.92877 57.07781 79.29722 28.34606 
332 87.74860 28.03531 36.36920 35.56780 21.95519 13.42051 
333 19.19033 12.88352 7.472437 2.902220 2.760431 1.852178 
334 7.803875 92.79524 44.82831 34.18555 62.10190 26.90430 
335 19.33265 11.65724 13.08534 2.998076 2.670237 2.668943 
336 80.10310 12.10422 1.158706 26.22347 14.71829 2.403580 
337 49.81875 27.90562 49.43954 15.64503 11.44503 21.81591 
338 77.25785 91.76270 4.677100 52.99381 71.03216 12.12196 
339 69.47211 76.78890 0.00000 38.48805 49.27229 8.343531 
340 5.559469 26.95556 29.71050 4.556423 5.788554 8.465288 
341 38.67994 61.50287 24.45656 18.83503 27.76984 9.793335 
342 94.15026 0.00000 46.07573 39.81388 20.64152 19.56453 
343 56.91904 23.02816 56.40238 19.09139 12.03013 28.23708 
344 47.34777 27.88662 19.61291 11.57849 9.709605 5.113863 
345 93.10522 100.0000 97.47005 87.98141 96.44327 103.2307 
346 100.0000 51.09935 78.52581 60.12351 42.07614 60.07504 
347 52.69068 0.00000 45.97829 13.98425 7.325360 18.27837 
348 61.11098 8.117637 98.06176 31.89539 15.33864 91.75306 
349 36.68111 23.86945 82.18030 18.63182 11.20673 62.13883 
350 45.57999 63.06843 66.35385 27.85841 32.70816 42.97693 
351 95.59717 43.08442 52.97785 47.70204 32.75004 27.40263 
352 94.77385 34.63213 34.57943 42.37493 27.29596 13.07799 
353 56.07219 41.61437 18.68087 17.84801 17.21763 5.973498 
354 60.68717 45.67246 39.35806 22.86771 21.26548 15.79124 
355 30.98430 30.22892 0.00000 6.826578 7.912405 2.027420 
356 28.72707 56.91280 31.81306 15.25877 23.08812 12.24581 
357 13.97332 53.22039 0.00000 10.38437 18.71586 3.925419 
358 41.28989 31.25084 44.92264 12.65766 10.84116 18.21475 
359 31.28022 91.52136 18.78849 33.73842 60.79368 13.57728 
360 78.13635 2.448401 78.83326 34.89236 17.36691 57.11203 
361 14.60040 22.18177 21.07842 3.844393 4.509331 4.953377 
362 63.29297 12.24921 69.76429 24.06867 12.70423 43.70275 
363 2.565022 91.82527 100.0000 48.12662 66.52986 104.8577 
364 38.45775 64.33055 85.07683 31.53878 34.83055 70.89457 
365 72.41601 63.80759 85.49959 46.17662 42.01278 72.24020 
366 27.77224 41.27691 0.00000 8.586926 12.37298 2.795727 
367 100.0000 42.41847 13.06975 47.43336 32.81485 6.144486 
368 52.87591 15.45092 34.57821 13.34843 8.249810 10.92963 
369 0.00000 100.0000 92.36238 51.32709 77.76833 91.39690 
370 0.00000 44.30576 92.50284 21.81762 18.67534 81.81417 
371 0.00000 76.88051 54.84163 25.22968 41.97283 32.14437 
372 83.94329 60.74541 60.74766 45.91068 40.67845 36.96271 
373 87.64521 26.60383 44.85497 36.34600 21.89739 19.05004 
374 60.20743 52.24610 0.00000 22.44059 24.42524 4.392517 
375 29.52743 34.31330 19.43592 7.870919 9.545354 5.227107 
376 62.21263 0.00000 39.44682 17.39164 9.184878 13.80496 
377 21.75006 36.10561 34.34894 8.107437 10.09724 11.43673 
378 48.35380 100.0000 0.00000 44.53528 75.99241 13.18280 
379 57.02184 61.12711 39.72055 26.72119 31.42911 17.78482 
380 100.0000 21.37648 64.62948 49.86655 27.39345 38.68119 
381 34.20573 61.76154 72.05078 25.47006 30.46826 50.16013 
382 90.41831 28.81842 100.0000 53.75101 29.67960 97.44826 
383 15.16376 90.97286 65.03968 37.18214 61.26271 46.38262 
384 72.41616 53.64910 60.36479 35.32661 31.13564 35.25444 
385 67.49142 61.49748 92.78376 44.85012 39.53677 85.16906 
386 41.70327 40.69660 0.00000 11.80421 13.81160 2.903974 
387 6.153161 37.84350 26.79524 6.436119 9.895895 7.898781 
388 63.93132 21.71334 34.09529 19.03019 12.13301 11.11670 
389 69.82861 65.23325 59.88273 38.42337 39.76915 36.22930 
390 75.38955 11.84951 44.92466 26.08707 14.27377 18.17156 
391 51.00944 34.04943 36.96130 15.49769 13.22969 13.14278 
392 9.859022 76.23675 82.62745 32.19395 44.22092 68.53543 
393 38.99841 43.42646 92.54808 26.73247 20.84455 82.06103 
394 16.76010 76.63810 75.69350 30.92419 44.14264 57.72538 
395 96.77847 87.78676 58.24071 70.58723 75.37346 39.64821 
396 75.19206 57.07191 44.86001 35.59220 33.48368 21.33005 
397 65.75399 53.48466 24.21436 26.54379 27.08845 9.167713 
398 28.16491 0.00000 12.70620 3.896254 2.462834 2.511538 
399 0.00000 8.689408 0.00000 1.287062 1.574044 1.095688 
400 21.56889 0.00000 34.26806 4.278738 2.491719 10.12625 
401 33.58356 61.95472 0.00000 16.86964 27.14462 5.210849 
402 38.89615 45.47756 39.56858 14.61509 16.92302 15.52363 
