Pre-made_Targets/Patch Width 8-11mm - Expert (Use rig-guide-ruler)/Designed Targets/i1Pro-Expert-A4-480p-1page-w8.0mm-24x20/A4-480patch-profile.ti2
CTI2   

DESCRIPTOR "Argyll Calibration Target chart information 2"
ORIGINATOR "Argyll printtarg"
CREATED "Sun Oct 29 08:17:29 2023"
TARGET_INSTRUMENT "GretagMacbeth i1 Pro"
COMP_GREY_STEPS "128"
APPROX_WHITE_POINT "95.106486 100.000000 108.844025"
COLOR_REP "iRGB"
PAPER_SIZE "210.0x250.0"
RANDOM_START "329"
STEPS_IN_PASS "20"
PASSES_IN_STRIPS2 "24"
STRIP_INDEX_PATTERN "A-Z, A-Z"
PATCH_INDEX_PATTERN "0-9,@-9,@-9;1-999"
INDEX_ORDER "STRIP_THEN_PATCH"

NUMBER_OF_FIELDS 8
BEGIN_DATA_FORMAT
SAMPLE_ID SAMPLE_LOC RGB_R RGB_G RGB_B XYZ_X XYZ_Y XYZ_Z 
END_DATA_FORMAT

NUMBER_OF_SETS 480
BEGIN_DATA
1 "S19" 100 100 100 95.1065 100 108.844 
2 "C12" 100 100 0.00000 77.2354 92.8527 14.7151 
3 "B20" 11.9066 44.6586 92.8389 22.5815 19.203 82.5236 
4 "E17" 21.2146 55.9823 30.9972 13.5987 21.7132 11.6681 
5 "F5" 86.6148 86.6148 86.6148 68.9512 72.4846 78.8706 
6 "P9" 60.9949 32.5811 70.2907 25.6343 17.3213 45.2139 
7 "O16" 81.8891 81.8891 81.8891 60.8851 63.9991 69.6271 
8 "M5" 21.2116 78.0316 0.00000 22.7271 42.2058 7.8096 
9 "N15" 51.9692 51.9692 51.9692 22.9001 24.0389 26.097 
10 "O15" 0.00000 0.00000 39.6796 3.33448 1.93365 13.296 
11 "O10" 96.9207 69.2699 30.396 55.8674 52.1317 15.027 
12 "U20" 100 100 23.8682 78.0657 93.1848 19.0884 
13 "P17" 98.4253 98.4253 98.4253 91.7703 96.4903 105.021 
14 "F19" 97.6379 97.6379 97.6379 90.1285 94.7631 103.139 
15 "K15" 96.8505 96.8505 96.8505 88.5041 93.0543 101.278 
16 "S15" 96.0632 96.0632 96.0632 86.8972 91.3638 99.4363 
17 "G19" 95.2758 95.2758 95.2758 85.3076 89.6915 97.6147 
18 "V2" 94.4884 94.4884 94.4884 83.7352 88.0375 95.8128 
19 "D12" 93.7011 93.7011 93.7011 82.1802 86.4015 94.0307 
20 "S4" 92.9137 92.9137 92.9137 80.6423 84.7837 92.2684 
21 "B8" 92.1263 92.1263 92.1263 79.1215 83.1838 90.5256 
22 "D14" 91.339 91.339 91.339 77.6178 81.6019 88.8024 
23 "D5" 90.5516 90.5516 90.5516 76.1312 80.038 87.0987 
24 "T7" 89.7642 89.7642 89.7642 74.6615 78.4919 85.4145 
25 "T17" 88.9769 88.9769 88.9769 73.2087 76.9635 83.7496 
26 "A9" 88.1895 88.1895 88.1895 71.7727 75.4529 82.1041 
27 "U19" 87.4022 87.4022 87.4022 70.3536 73.96 80.4778 
28 "E14" 100 100 100 95.1065 100 108.844 
29 "I10" 85.8274 85.8274 85.8274 67.5655 71.0269 77.2826 
30 "A11" 85.0401 85.0401 85.0401 66.1964 69.5866 75.7137 
31 "B19" 84.2527 84.2527 84.2527 64.8439 68.1637 74.1637 
32 "J3" 83.4653 83.4653 83.4653 63.5079 66.7583 72.6327 
33 "G13" 82.678 82.678 82.678 62.1883 65.3701 71.1205 
34 "P18" 0.00000 0.00000 0.00000 1 1 1 
35 "J19" 81.1017 81.1017 81.1017 59.5983 62.6454 68.1524 
36 "N7" 80.3143 80.3143 80.3143 58.3277 61.3088 66.6964 
37 "M18" 79.527 79.527 79.527 57.0734 59.9892 65.2589 
38 "L16" 78.7396 78.7396 78.7396 55.8352 58.6866 63.84 
39 "U17" 77.9522 77.9522 77.9522 54.6131 57.401 62.4395 
40 "E19" 77.1649 77.1649 77.1649 53.4071 56.1323 61.0574 
41 "X10" 76.3775 76.3775 76.3775 52.217 54.8803 59.6936 
42 "H13" 75.5901 75.5901 75.5901 51.0429 53.6451 58.3481 
43 "L4" 74.8028 74.8028 74.8028 49.8846 52.4266 57.0207 
44 "M2" 74.0154 74.0154 74.0154 48.7421 51.2246 55.7114 
45 "K13" 73.228 73.228 73.228 47.6153 50.0393 54.4201 
46 "B11" 72.4407 72.4407 72.4407 46.5042 48.8704 53.1468 
47 "H19" 71.6533 71.6533 71.6533 45.4087 47.7179 51.8914 
48 "C9" 70.8659 70.8659 70.8659 44.3287 46.5818 50.6538 
49 "C15" 70.0786 70.0786 70.0786 43.2642 45.4619 49.4339 
50 "A7" 69.2912 69.2912 69.2912 42.2151 44.3583 48.2317 
51 "Q9" 68.5039 68.5039 68.5039 41.1814 43.2708 47.047 
52 "C13" 67.7165 67.7165 67.7165 40.163 42.1994 45.8799 
53 "C11" 66.9291 66.9291 66.9291 39.1598 41.1441 44.7303 
54 "Q13" 66.1418 66.1418 66.1418 38.1717 40.1046 43.598 
55 "Q7" 65.3544 65.3544 65.3544 37.1987 39.081 42.4829 
56 "Q11" 64.567 64.567 64.567 36.2407 38.0733 41.3851 
57 "M14" 63.7797 63.7797 63.7797 35.2977 37.0812 40.3045 
58 "N13" 62.9923 62.9923 62.9923 34.3696 36.1048 39.2409 
59 "V9" 62.2049 62.2049 62.2049 33.4563 35.144 38.1942 
60 "X12" 61.4176 61.4176 61.4176 32.5578 34.1988 37.1645 
61 "A18" 60.6302 60.6302 60.6302 31.6739 33.2689 36.1516 
62 "B15" 59.8428 59.8428 59.8428 30.8046 32.3545 35.1555 
63 "M16" 59.0555 59.0555 59.0555 29.9499 31.4553 34.176 
64 "A16" 58.2681 58.2681 58.2681 29.1097 30.5714 33.2131 
65 "V16" 57.4807 57.4807 57.4807 28.2838 29.7026 32.2667 
66 "V11" 56.6934 56.6934 56.6934 27.4723 28.8489 31.3367 
67 "E3" 55.906 55.906 55.906 26.6751 28.0101 30.4231 
68 "M4" 55.1186 55.1186 55.1186 25.892 27.1864 29.5257 
69 "N19" 54.3313 54.3313 54.3313 25.123 26.3774 28.6445 
70 "C7" 53.5439 53.5439 53.5439 24.3681 25.5832 27.7793 
71 "V4" 52.7565 52.7565 52.7565 23.6271 24.8037 26.9302 
72 "X17" 0.00000 0.00000 0.00000 1 1 1 
73 "A13" 51.1818 51.1818 51.1818 22.1868 23.2885 25.2796 
74 "V6" 50.3944 50.3944 50.3944 21.4873 22.5526 24.478 
75 "V18" 49.6056 49.6056 49.6056 20.8014 21.8311 23.692 
76 "E11" 48.8182 48.8182 48.8182 20.1292 21.1239 22.9216 
77 "P2" 48.0308 48.0308 48.0308 19.4704 20.4309 22.1667 
78 "G5" 47.2435 47.2435 47.2435 18.8251 19.752 21.4271 
79 "G9" 46.4561 46.4561 46.4561 18.1931 19.0871 20.7029 
80 "M6" 45.6687 45.6687 45.6687 17.5743 18.4362 19.9938 
81 "N17" 44.8814 44.8814 44.8814 16.9688 17.7992 19.2999 
82 "W17" 44.094 44.094 44.094 16.3764 17.1759 18.621 
83 "A4" 43.3066 43.3066 43.3066 15.797 16.5664 17.957 
84 "D18" 42.5193 42.5193 42.5193 15.2305 15.9705 17.3078 
85 "V14" 41.7319 41.7319 41.7319 14.6769 15.3881 16.6734 
86 "Q19" 40.9445 40.9445 40.9445 14.136 14.8191 16.0536 
87 "B5" 40.1572 40.1572 40.1572 13.6079 14.2635 15.4484 
88 "J11" 39.3698 39.3698 39.3698 13.0923 13.7211 14.8576 
89 "P13" 38.5824 38.5824 38.5824 12.5893 13.1919 14.2811 
90 "F14" 37.7951 37.7951 37.7951 12.0987 12.6758 13.7188 
91 "F8" 37.0077 37.0077 37.0077 11.6204 12.1726 13.1707 
92 "L10" 36.2203 36.2203 36.2203 11.1543 11.6824 12.6367 
93 "O11" 35.433 35.433 35.433 10.7005 11.2049 12.1165 
94 "W13" 34.6456 34.6456 34.6456 10.2586 10.7401 11.6102 
95 "X3" 33.8582 33.8582 33.8582 9.82877 10.2879 11.1176 
96 "W15" 33.0709 33.0709 33.0709 9.41078 9.84814 10.6386 
97 "P7" 32.2835 32.2835 32.2835 9.00457 9.4208 10.1731 
98 "W5" 31.4961 31.4961 31.4961 8.61004 9.00576 9.72094 
99 "U14" 30.7088 30.7088 30.7088 8.22709 8.6029 9.28209 
100 "N11" 29.9214 29.9214 29.9214 7.85563 8.21212 8.8564 
101 "H16" 29.1341 29.1341 29.1341 7.49555 7.83331 8.44376 
102 "I1" 28.3467 28.3467 28.3467 7.14675 7.46638 8.04404 
103 "S10" 27.5593 27.5593 27.5593 6.80912 7.1112 7.65713 
104 "X1" 26.772 26.772 26.772 6.48257 6.76767 7.28291 
105 "O20" 25.9846 25.9846 25.9846 6.16699 6.43567 6.92126 
106 "G15" 25.1972 25.1972 25.1972 5.86227 6.1151 6.57205 
107 "D11" 24.4099 24.4099 24.4099 5.56829 5.80584 6.23516 
108 "R20" 23.6225 23.6225 23.6225 5.28495 5.50777 5.91047 
109 "G20" 22.8351 22.8351 22.8351 5.01214 5.22077 5.59783 
110 "B7" 22.0478 22.0478 22.0478 4.74974 4.94473 5.29712 
111 "F1" 21.2604 21.2604 21.2604 4.49763 4.67951 5.00821 
112 "T6" 20.473 20.473 20.473 4.2557 4.42499 4.73096 
113 "B13" 19.6857 19.6857 19.6857 4.02382 4.18106 4.46523 
114 "V1" 18.8983 18.8983 18.8983 3.80187 3.94757 4.21089 
115 "U10" 18.1109 18.1109 18.1109 3.58973 3.7244 3.96778 
116 "M11" 17.322 17.322 17.322 3.38727 3.5114 3.73575 
117 "A1" 16.5347 16.5347 16.5347 3.19435 3.30845 3.51468 
118 "X14" 15.7473 15.7473 15.7473 3.01084 3.11541 3.30439 
119 "Q17" 14.9599 14.9599 14.9599 2.83662 2.93212 3.10473 
120 "F10" 14.1726 14.1726 14.1726 2.67153 2.75845 2.91554 
121 "W3" 13.3852 13.3852 13.3852 2.51544 2.59425 2.73667 
122 "J4" 12.5978 12.5978 12.5978 2.36821 2.43935 2.56794 
123 "A10" 11.8105 11.8105 11.8105 2.22967 2.29361 2.40917 
124 "O7" 11.0231 11.0231 11.0231 2.09968 2.15686 2.26021 
125 "F6" 10.2358 10.2358 10.2358 1.97808 2.02894 2.12086 
126 "S14" 9.44839 9.44839 9.44839 1.86471 1.90967 1.99094 
127 "T8" 8.66102 8.66102 8.66102 1.7594 1.79889 1.87025 
128 "T12" 7.87366 7.87366 7.87366 1.66198 1.6964 1.75861 
129 "D13" 7.08629 7.08629 7.08629 1.57226 1.60202 1.6558 
130 "G2" 6.29892 6.29892 6.29892 1.49007 1.51556 1.56161 
131 "T16" 5.51156 5.51156 5.51156 1.41522 1.43681 1.47583 
132 "H1" 4.72419 4.72419 4.72419 1.34749 1.36556 1.39822 
133 "J18" 3.93683 3.93683 3.93683 1.28669 1.3016 1.32854 
134 "B18" 3.14946 3.14946 3.14946 1.22941 1.24134 1.2629 
135 "U18" 2.3621 2.3621 2.3621 1.17206 1.181 1.19717 
136 "O17" 1.57473 1.57473 1.57473 1.11471 1.12067 1.13145 
137 "O5" 0.787366 0.787366 0.787366 1.05735 1.06033 1.06572 
138 "O13" 100 100 100 95.1065 100 108.844 
139 "K16" 100 0.00000 100 59.7013 29.1995 97.0422 
140 "Q2" 0.00000 100 100 54.2763 78.9478 106.931 
141 "M17" 0.00000 100 0.00000 36.4052 71.8005 12.8018 
142 "M3" 0.00000 0.00000 100 18.8711 8.14731 95.129 
143 "J2" 100 0.00000 0.00000 41.8302 22.0522 2.91323 
144 "W16" 0.00000 32.9946 100 22.0205 14.4452 96.1788 
145 "A12" 100 53.1868 0.00000 50.4947 39.3788 5.80143 
146 "Q18" 100 0.00000 77.0993 51.7636 26.0249 55.2334 
147 "A19" 0.00000 100 40.383 38.8279 72.7694 25.5623 
148 "D10" 39.2538 100 0.00000 41.6192 74.4889 13.0462 
149 "I2" 50.7439 0.00000 100 27.8939 12.7995 95.5518 
150 "N4" 0.00000 74.1146 0.00000 19.0155 37.0259 7.00521 
151 "V19" 100 39.7177 100 64.3359 38.4673 98.5871 
152 "T14" 0.00000 0.00000 0.00000 1 1 1 
153 "R11" 46.4485 0.00000 0.00000 8.4568 4.84475 1.34941 
154 "P19" 100 100 50.6874 81.1752 94.4283 35.4663 
155 "U13" 49.604 100 100 62.8666 83.377 107.333 
156 "Q16" 0.00000 50.8095 100 26.7175 23.8379 97.7444 
157 "W14" 100 0.00000 50.0542 45.6642 23.5856 23.1077 
158 "L20" 0.00000 75.3414 65.0965 26.5031 41.0978 43.1211 
159 "H12" 0.00000 46.6697 0.00000 7.53222 14.0626 3.17743 
160 "O18" 59.1455 41.735 0.00000 18.7492 17.7893 3.30601 
161 "M20" 64.0726 0.00000 57.6562 21.248 10.8366 29.1777 
162 "E8" 34.1466 100 65.0843 47.1149 76.5346 48.8615 
163 "P5" 100 57.0016 58.7564 57.3456 44.3812 34.9087 
164 "V12" 65.3651 39.7986 100 39.2369 25.5556 97.4166 
165 "C19" 100 60.6226 100 71.2384 52.2706 100.888 
166 "G6" 100 27.3182 0.00000 43.9777 26.3465 3.62907 
167 "H11" 0.00000 28.661 52.9488 7.69569 7.46058 24.6009 
168 "K12" 60.7538 100 0.00000 49.7733 78.6932 13.4282 
169 "D3" 25.8778 50.3838 100 28.7991 24.7004 97.8013 
170 "I18" 0.00000 100 80.7782 47.4337 76.2112 70.8899 
171 "D9" 43.5691 0.00000 46.273 10.7404 5.64772 18.3565 
172 "G4" 37.6043 100 43.8071 44.0494 75.4088 28.1921 
173 "K4" 18.9578 51.075 0.00000 10.1582 17.4991 3.70246 
174 "S3" 0.00000 0.00000 79.4842 11.6356 5.25355 57.0186 
175 "W2" 22.974 100 100 56.0377 79.856 107.013 
176 "Q4" 0.00000 65.359 100 32.4918 35.3849 99.6692 
177 "D7" 72.3323 0.00000 0.00000 20.6773 11.1457 1.92205 
178 "J8" 0.00000 53.7407 18.6786 10.383 18.9303 6.69653 
179 "K1" 0.00000 20.2609 0.00000 2.20102 3.40171 1.40034 
180 "B16" 22.8489 0.00000 100 20.6139 9.04591 95.2106 
181 "N10" 100 100 74.9798 86.5676 96.585 63.8688 
182 "K10" 77.5616 0.00000 100 41.8718 20.0066 96.2067 
183 "C3" 48.0354 80.1999 0.00000 30.5143 48.1247 8.54197 
184 "N2" 100 33.9986 44.8341 48.2059 29.9614 19.9664 
185 "E20" 0.00000 100 62.3362 42.5975 74.277 45.4171 
186 "D19" 100 86.302 38.941 69.4317 73.6575 23.1856 
187 "E6" 19.6414 0.00000 0.00000 2.30651 1.67364 1.06122 
188 "T11" 60.5768 83.4714 100 55.6757 62.0327 103.592 
189 "H5" 58.1765 100 34.0246 50.2529 78.7446 22.292 
190 "V15" 100 78.2773 0.00000 62.1894 62.7648 9.69968 
191 "K8" 0.00000 0.00000 17.615 1.46743 1.18694 3.46203 
192 "U9" 99.2126 99.2126 99.2126 93.4296 98.2359 106.922 
193 "Q10" 63.3967 100 50.8263 55.053 80.957 34.365 
194 "R3" 74.3862 100 100 75.2229 89.748 107.912 
195 "A5" 80.5264 59.9573 0.00000 37.2814 36.4191 5.92604 
196 "N12" 100 20.5188 80.499 54.0031 28.8886 60.9603 
197 "W12" 18.0285 100 0.00000 37.5194 72.375 12.854 
198 "O6" 100 78.4909 100 80.1854 70.162 103.87 
199 "R18" 38.3429 38.2254 0.00000 10.2385 12.1092 2.65782 
200 "A20" 100 50.2953 37.8729 51.6223 38.2474 16.621 
201 "I20" 60.7599 0.00000 81.2757 25.553 12.3662 60.5215 
202 "S1" 0.00000 39.4003 76.9818 15.4559 14.0711 54.6591 
203 "R12" 39.1547 84.7654 100 48.4085 59.5169 103.489 
204 "M13" 42.4475 32.3293 100 28.0433 17.3591 96.424 
205 "V3" 38.5153 0.00000 82.7375 17.649 8.23804 62.5394 
206 "C1" 0.00000 38.7686 35.7931 7.28578 10.5603 12.3767 
207 "B2" 18.2467 100 27.5731 38.6488 72.8296 18.6717 
208 "W6" 54.4686 100 65.1759 53.7622 79.9595 49.2829 
209 "E16" 40.1343 0.00000 28.0171 7.60362 4.27296 7.26189 
210 "P10" 0.00000 52.6772 51.8563 13.6248 19.6237 25.6317 
211 "A2" 100 81.3809 61.825 70.1277 68.9111 42.3476 
212 "U4" 81.6678 0.00000 39.2706 29.1084 15.2285 14.2415 
213 "S5" 67.0558 54.4579 17.8607 27.2271 28.0053 7.34476 
214 "Q6" 81.8601 100 0.00000 62.3665 85.1862 14.0183 
215 "D1" 18.8434 33.0526 100 23.241 15.0913 96.2392 
216 "S11" 100 100 100 95.1065 100 108.844 
217 "P15" 79.176 38.6526 73.2998 38.3363 25.7203 50.3158 
218 "N14" 75.7977 80.0198 0.00000 44.2359 55.0389 9.15392 
219 "X19" 35.8389 49.7414 55.9915 17.6955 20.1642 29.4668 
220 "B6" 100 81.4847 20.0366 64.7047 66.845 13.4673 
221 "A15" 22.9419 0.00000 59.4537 8.33593 4.13708 30.4695 
222 "L13" 0.00000 65.7954 34.9859 16.6172 29.3597 15.0577 
223 "H9" 29.0379 57.0138 75.3475 23.3179 26.3808 54.1875 
224 "G17" 100 85.7511 83.6805 78.7637 76.8081 74.1316 
225 "C8" 100 0.00000 25.1575 42.7507 22.4203 7.76194 
226 "R14" 0.00000 54.7021 70.2312 18.2762 22.6455 46.5488 
227 "A8" 66.8864 79.1089 20.9552 39.0275 51.4733 12.1277 
228 "T4" 78.1994 16.878 38.7091 27.4994 15.6783 14.0552 
229 "I8" 28.1254 72.7596 71.6426 29.344 40.2968 51.2899 
230 "C14" 0.00000 0.00000 57.5097 6.18718 3.07455 28.3214 
231 "J16" 49.6468 50.0679 100 35.0782 27.784 98.0658 
232 "I12" 0.00000 82.9282 100 42.0497 54.4981 102.855 
233 "L9" 79.8856 21.3199 100 44.7695 23.4641 96.7215 
234 "X18" 100 45.5009 81.8372 59.3726 38.965 64.7889 
235 "E4" 0.00000 100 20.734 37.0385 72.0538 16.1377 
236 "A14" 35.7366 100 19.6185 41.26 74.2376 16.0081 
237 "S8" 18.735 24.2786 0.00000 3.89703 5.01791 1.62299 
238 "I7" 39.6323 38.9059 67.7745 18.209 15.5965 41.9751 
239 "L3" 0.00000 0.00000 0.00000 1 1 1 
240 "J14" 62.6154 0.00000 34.5129 17.0317 9.06426 10.8568 
241 "W4" 82.3377 47.6387 100 52.0011 35.3616 98.6372 
242 "K19" 80.5509 38.4878 0.00000 30.3753 22.5839 3.61917 
243 "I14" 17.7157 100 54.5022 42.0969 74.2016 37.147 
244 "O3" 100 18.9914 100 60.7651 31.3268 97.3968 
245 "E10" 100 14.6609 12.6955 42.7602 23.491 4.5217 
246 "S18" 71.194 35.1034 10.3548 23.7623 18.0268 4.07923 
247 "R4" 53.3623 20.824 55.5123 17.1305 10.6391 27.1808 
248 "T5" 69.2119 74.8119 38.6053 39.4364 47.8656 19.5743 
249 "P12" 80.8026 100 65.0996 68.4339 87.5263 49.8788 
250 "V7" 56.5377 18.3444 100 31.2855 16.0289 95.9965 
251 "M15" 79.9893 0.00000 80.4654 36.5796 18.0804 59.7381 
252 "N1" 44.0818 62.8321 46.746 23.4603 30.7259 22.9019 
253 "S7" 100 100 100 95.1065 100 108.844 
254 "K11" 77.8302 42.4811 46.2211 32.7528 24.9287 20.878 
255 "B3" 100 66.2989 76.9863 65.7897 54.1256 59.747 
256 "C17" 100 36.7407 64.1749 52.3685 32.5629 39.0027 
257 "T15" 19.1455 66.6636 100 34.3475 37.2472 99.931 
258 "R10" 83.1098 86.7292 100 71.3746 73.2739 104.935 
259 "W10" 20.1999 100 80.5539 48.7421 76.8938 70.5917 
260 "L15" 58.5214 61.2039 0.00000 25.0952 30.9098 5.50441 
261 "K5" 48.1468 88.809 73.7545 45.1022 62.8465 57.773 
262 "X7" 40.4028 67.277 100 38.9347 40.0453 100.229 
263 "B1" 45.2354 50.4189 21.1048 16.4172 20.3254 7.35221 
264 "B12" 0.00000 19.8779 72.4849 10.8115 6.77755 46.962 
265 "U16" 58.854 20.9689 0.00000 14.7489 9.99131 2.01145 
266 "W8" 84.3717 0.00000 62.0554 34.9199 17.78 34.5945 
267 "X13" 44.7593 0.00000 65.1225 14.7085 7.27924 37.2467 
268 "W7" 44.0955 55.8816 70.3197 25.4101 26.9731 47.1282 
269 "M9" 0.00000 28.3909 17.3571 3.77476 5.82089 4.16963 
270 "H2" 45.2461 22.8595 69.6361 17.4754 10.8244 43.5164 
271 "F18" 36.0525 0.00000 11.7021 5.59318 3.34165 2.41591 
272 "L12" 57.0214 38.854 28.3452 18.2233 16.3123 9.16755 
273 "N18" 100 61.7624 19.2294 54.4001 46.3091 9.81509 
274 "H17" 65.0858 100 82.2812 63.4634 84.4222 74.0772 
275 "P20" 14.6242 28.7617 46.5919 7.43252 7.47076 19.1341 
276 "D15" 26.0014 81.8006 51.2688 29.7585 48.7169 29.8682 
277 "Q12" 28.7251 17.9324 100 22.5668 11.4727 95.5762 
278 "D20" 28.6656 63.2746 45.7084 19.5603 29.0225 21.9635 
279 "S2" 17.94 0.00000 19.527 2.66986 1.79557 4.03073 
280 "R6" 88.9555 72.8634 53.7514 54.1305 53.6159 31.8195 
281 "I19" 43.2822 22.4811 33.8949 10.5571 7.90711 10.6394 
282 "J12" 0.00000 17.3342 100 19.7704 9.9456 95.4287 
283 "J13" 0.00000 72.4544 83.2105 29.9158 39.9634 68.804 
284 "J5" 42.7543 74.5937 77.6516 35.6169 44.8061 60.5481 
285 "L18" 43.8087 66.4515 29.218 22.9503 33.145 12.5538 
286 "N6" 0.00000 80.798 47.1336 26.2285 46.0619 26.0263 
287 "J6" 18.9685 0.00000 78.7976 12.6547 5.80272 55.9962 
288 "V5" 60.5905 100 17.2457 50.1447 78.8327 15.7932 
289 "J15" 16.0616 48.9769 62.0264 15.2752 18.4075 35.7166 
290 "R13" 68.6564 52.9778 34.1451 28.8169 27.895 13.6705 
291 "J7" 64.9424 62.9648 45.1102 32.0954 35.2924 22.0529 
292 "T3" 14.5296 27.3365 66.3569 11.0173 8.53388 39.2005 
293 "P16" 0.00000 16.6247 28.0385 2.97555 3.12368 7.29264 
294 "G12" 35.3292 83.2929 25.9144 29.5674 50.3574 14.1394 
295 "K3" 67.5349 12.1126 48.1071 21.8925 12.0808 20.49 
296 "X9" 72.668 22.504 75.1553 31.7303 17.9375 51.8322 
297 "K20" 100 68.3116 42.3789 59.5368 53.1675 22.0552 
298 "E13" 60.4486 0.00000 15.5276 14.5938 7.96592 3.58126 
299 "E15" 21.529 30.2815 82.2553 16.6837 11.6798 62.4558 
300 "B10" 38.1674 59.1073 0.00000 16.828 25.3569 4.86797 
301 "Q14" 82.0218 17.966 0.00000 28.037 16.3653 2.54196 
302 "P14" 100 37.6822 19.2401 46.5298 30.57 7.19427 
303 "V10" 0.00000 79.881 20.3082 22.9159 43.8514 11.3096 
304 "X11" 82.0768 0.00000 17.026 27.5557 14.6414 4.53761 
305 "T9" 55.0011 73.7301 50.3349 33.438 43.7047 27.8796 
306 "W11" 86.8025 57.789 76.5484 50.7885 40.9546 57.3358 
307 "P3" 73.8064 89.6651 11.0796 49.4382 66.9774 12.2881 
308 "M19" 19.8047 0.00000 39.4858 4.63746 2.60824 13.2319 
309 "H6" 63.7964 46.7552 46.3569 25.6973 23.091 21.0018 
310 "Q1" 26.0044 21.9013 40.0809 7.02272 5.89682 14.1296 
311 "U8" 27.3915 34.2168 8.82582 7.03269 9.1313 3.02917 
312 "K14" 65.8183 8.16968 7.57763 17.3351 9.79816 2.46253 
313 "U7" 100 16.1746 59.8962 48.2948 25.907 33.0485 
314 "I6" 14.1054 89.6132 89.4865 43.2183 62.1343 83.4029 
315 "H3" 20.0168 83.3951 100 43.6983 55.7854 103.017 
316 "U5" 10.6355 33.0755 7.55627 4.73474 7.60972 2.70133 
317 "F20" 62.0508 39.8184 85.7588 32.2831 22.5852 69.6714 
318 "L11" 14.847 70.1198 31.2169 19.1272 33.8122 13.8185 
319 "H4" 69.604 28.2231 55.7977 26.2094 16.8387 28.1834 
320 "R5" 8.85328 41.4984 47.8752 9.90801 12.7365 21.0561 
321 "C5" 88.8014 36.5957 37.2076 38.1328 25.7028 14.5056 
322 "R17" 13.8872 64.8173 74.0978 24.1613 31.7369 53.3622 
323 "T19" 44.5808 57.9019 86.9886 31.29 30.5901 73.4301 
324 "X2" 87.9683 88.9174 41.9608 61.2867 72.0376 25.3124 
325 "K7" 7.29229 62.4201 60.7324 19.4089 28.076 35.909 
326 "F15" 82.649 11.5679 91.6991 42.6549 21.443 79.7154 
327 "N5" 78.0041 58.8556 63.4119 41.537 37.202 39.5659 
328 "L7" 62.5162 63.8041 100 46.0235 41.3143 100.101 
329 "X20" 43.0365 81.2055 42.3621 32.1249 49.5501 22.789 
330 "I5" 57.0321 24.5747 21.9944 15.0869 10.7659 5.85913 
331 "E2" 90.1137 88.2475 8.90211 60.0579 71.0086 12.1904 
332 "E18" 82.2248 100 39.7986 64.977 86.2605 26.4053 
333 "T13" 65.0309 54.2931 90.0145 39.6731 32.7606 78.8929 
334 "D16" 37.7859 17.8103 0.00000 6.7579 5.37102 1.54048 
335 "D4" 24.8981 39.9619 23.5248 8.5626 11.7735 6.91298 
336 "O8" 48.3742 56.733 7.75921 19.2355 25.1918 5.3548 
337 "G16" 81.0361 100 20.145 62.3821 85.1249 17.1499 
338 "N9" 14.1085 47.3396 78.6572 18.844 18.9951 57.9988 
339 "C16" 55.642 88.3635 12.5521 39.0285 60.2707 11.7919 
340 "O4" 47.8187 41.9486 81.622 25.4286 20.0106 62.5651 
341 "U15" 43.0213 17.464 91.4015 22.8147 11.9148 78.3575 
342 "B4" 12.105 89.778 64.1733 35.8816 59.3662 45.0437 
343 "I17" 30.0801 10.1946 23.4623 5.17534 3.60253 5.49228 
344 "R9" 54.2306 8.81056 45.8595 14.8928 8.23067 18.3129 
345 "N8" 100 18.4939 34.0398 44.5381 24.7554 12.1795 
346 "F7" 40.0137 100 83.9765 53.8694 79.413 76.4467 
347 "N20" 86.4256 11.2825 10.959 30.9738 17.068 3.60749 
348 "N3" 23.7537 42.7054 41.0224 10.7876 13.7766 16.0812 
349 "I16" 56.1379 90.7195 89.2836 54.4465 69.0859 83.7784 
350 "X15" 80.6287 69.4499 100 59.5473 52.2498 101.5 
351 "S16" 19.35 10.8598 51.6716 6.78187 4.10551 22.8289 
352 "M10" 85.4093 100 85.5756 77.5285 91.5513 80.2845 
353 "G14" 87.7577 50.37 21.239 39.7306 32.3203 8.48134 
354 "E12" 10.428 90.3014 11.3878 29.7466 57.4846 11.5428 
355 "G3" 72.4193 51.7876 77.171 38.8615 31.5064 57.0786 
356 "U6" 31.2184 71.8853 88.4733 34.6091 41.7381 78.0683 
357 "G10" 12.0333 9.83444 92.7031 16.9427 7.99299 80.3937 
358 "T18" 10.1061 67.6631 46.3127 19.3678 31.9245 23.0051 
359 "W18" 12.2805 88.2231 46.3066 31.4611 55.8823 26.9882 
360 "C10" 88.1315 27.9622 80.5371 44.8655 25.6894 60.8839 
361 "H8" 79.7452 10.7774 54.1497 30.4254 16.2381 26.2337 
362 "H10" 59.5727 85.5467 61.1658 44.6018 59.6889 41.1674 
363 "C18" 27.8676 60.9644 60.7385 21.1061 28.0261 35.8169 
364 "P8" 29.3584 63.4119 20.1465 17.2021 28.1919 8.5401 
365 "X16" 59.2126 65.417 30.1823 28.607 35.3359 13.1208 
366 "F9" 80.4929 93.2723 53.3181 60.6211 76.092 35.4078 
367 "E9" 78.3413 60.0443 49.2073 39.5144 37.1964 25.3315 
368 "F16" 89.0654 23.8148 48.0735 37.5523 21.8709 21.5269 
369 "P6" 16.8627 64.3854 1.76699 15.1869 27.8668 5.56704 
370 "T1" 72.7291 41.2284 25.1987 26.8571 21.6676 8.46898 
371 "D2" 88.8762 40.5509 55.5978 41.9086 28.7219 29.4513 
372 "T2" 36.1852 53.6614 35.4925 16.0793 21.6717 13.8876 
373 "H18" 90.0267 37.2961 90.5165 51.4878 31.4099 78.9456 
374 "V8" 66.7628 10.4204 91.4046 32.4174 16.0748 78.6606 
375 "P11" 91.0353 52.0623 48.6229 45.8662 35.9931 24.2714 
376 "K17" 83.9048 69.6162 84.1718 56.2092 51.3198 71.2299 
377 "O1" 4.60212 86.5568 78.7396 37.086 56.2857 64.3634 
378 "X6" 86.9322 65.2598 20.6027 44.9282 43.7245 10.214 
379 "M7" 32.8573 7.39757 92.195 19.6895 9.25638 79.5164 
380 "I3" 58.1353 50.045 71.4488 29.1078 25.7922 48.2362 
381 "L14" 71.252 76.2768 59.2264 44.7729 51.4427 37.4381 
382 "U11" 84.4633 83.8636 25.2033 53.551 63.267 15.0949 
383 "A17" 55.668 25.5756 85.7267 26.5279 15.4999 68.5508 
384 "R7" 31.8975 50.4356 12.1721 12.3552 18.286 5.02509 
385 "G11" 53.2799 31.0155 42.5711 16.5147 12.8041 16.6658 
386 "E5" 50.6508 75.7244 90.1747 43.0229 49.0855 82.1649 
387 "V17" 61.9974 78.6481 2.23392 35.5858 49.3664 8.67653 
388 "C4" 34.1238 45.5299 87.6143 24.3305 20.6914 72.9984 
389 "U1" 83.6133 54.8806 34.9462 39.2961 34.3068 14.7961 
390 "K6" 50.8766 10.4891 27.1763 11.5294 6.87236 7.20312 
391 "J10" 28.8808 75.4772 37.406 24.5953 40.7751 18.2473 
392 "Q5" 13.2387 44.0742 15.4223 7.7927 13.0372 4.89498 
393 "Q15" 30.2083 25.9144 62.2889 12.1481 8.90268 34.3474 
394 "L2" 7.20836 48.8136 31.6396 9.90813 16.1032 11.093 
395 "R15" 5.20333 11.6228 51.7449 5.73897 3.63569 22.8587 
396 "V13" 56.5148 88.4352 45.9754 42.3944 61.74 27.2832 
397 "I9" 13.3516 10.4311 30.605 3.39669 2.64057 8.33627 
398 "E1" 53.2403 52.0882 33.817 20.9676 23.3916 13.0385 
399 "O9" 47.892 67.7134 64.4373 30.3591 37.2319 41.3775 
400 "R1" 90.3929 28.8701 25.5512 36.8173 22.9188 8.32052 
401 "S20" 38.8907 77.6577 58.7747 31.5531 45.8059 36.5617 
402 "P4" 24.7028 94.3069 42.0768 36.6633 65.0773 25.3459 
403 "O2" 53.0846 38.8449 58.2834 20.7147 17.111 31.0729 
404 "U2" 11.7037 58.2742 15.3735 12.4699 22.5712 6.47796 
405 "S17" 4.27253 19.8016 14.5647 2.61839 3.50322 3.14261 
406 "O12" 76.4889 69.5781 10.3044 39.1309 43.8644 8.24968 
407 "X5" 25.5467 37.9889 53.8918 11.8889 12.3574 26.2138 
408 "F17" 16.112 74.9645 62.536 26.6257 40.9188 40.0499 
409 "K18" 38.9746 71.6487 10.2617 23.0276 37.1279 7.79111 
410 "G7" 39.3942 30.6477 50.515 12.8724 10.6883 22.7476 
411 "R19" 88.2856 12.8893 72.6665 41.0187 21.4211 48.4532 
412 "F3" 4.78065 58.9944 85.6352 24.597 27.8395 70.8763 
413 "F4" 34.1085 10.8721 65.3773 12.1737 6.566 37.5531 
414 "R8" 5.1194 38.941 64.1642 12.2114 12.6153 37.2548 
