Pre-made_Targets/Patch Width 8-11mm - Expert (Use rig-guide-ruler)/Designed Targets/CM-Expert-A4-480p-1page-w8.0mm-24x20/A4-480patch-profile.ti1
CTI1   

DESCRIPTOR "Argyll Calibration Target chart information 1"
ORIGINATOR "Argyll targen"
CREATED "Sun Oct 29 08:03:09 2023"
APPROX_WHITE_POINT "95.106486 100.000000 108.844025"
COLOR_REP "iRGB"
WHITE_COLOR_PATCHES "5"
BLACK_COLOR_PATCHES "6"
COMP_GREY_STEPS "128"
OFPS_PATCHES "343"

NUMBER_OF_FIELDS 7
BEGIN_DATA_FORMAT
SAMPLE_ID RGB_R RGB_G RGB_B XYZ_X XYZ_Y XYZ_Z 
END_DATA_FORMAT

NUMBER_OF_SETS 480
BEGIN_DATA
1 100 100 100 95.1065 100 108.844 
2 100 100 0.00000 77.2354 92.8527 14.7151 
3 11.9065 44.6582 92.839 22.5815 19.203 82.5236 
4 21.2139 55.9823 30.9969 13.5987 21.7132 11.6681 
5 86.6142 86.6142 86.6142 68.9512 72.4846 78.8706 
6 60.9946 32.5811 70.2904 25.6343 17.3213 45.2139 
7 81.8898 81.8898 81.8898 60.8851 63.9991 69.6271 
8 21.2109 78.0314 0.00000 22.7271 42.2058 7.8096 
9 51.9685 51.9685 51.9685 22.9001 24.0389 26.097 
10 0.00000 0.00000 39.6789 3.33448 1.93365 13.296 
11 96.92 69.2702 30.3958 55.8674 52.1317 15.027 
12 100 100 23.8678 78.0657 93.1848 19.0884 
13 98.4252 98.4252 98.4252 91.7703 96.4903 105.021 
14 97.6378 97.6378 97.6378 90.1285 94.7631 103.139 
15 96.8504 96.8504 96.8504 88.5041 93.0543 101.278 
16 96.063 96.063 96.063 86.8972 91.3638 99.4363 
17 95.2756 95.2756 95.2756 85.3076 89.6915 97.6147 
18 94.4882 94.4882 94.4882 83.7352 88.0375 95.8128 
19 93.7008 93.7008 93.7008 82.1802 86.4015 94.0307 
20 92.9134 92.9134 92.9134 80.6423 84.7837 92.2684 
21 92.126 92.126 92.126 79.1215 83.1838 90.5256 
22 91.3386 91.3386 91.3386 77.6178 81.6019 88.8024 
23 90.5512 90.5512 90.5512 76.1312 80.038 87.0987 
24 89.7638 89.7638 89.7638 74.6615 78.4919 85.4145 
25 88.9764 88.9764 88.9764 73.2087 76.9635 83.7496 
26 88.189 88.189 88.189 71.7727 75.4529 82.1041 
27 87.4016 87.4016 87.4016 70.3536 73.96 80.4778 
28 100 100 100 95.1065 100 108.844 
29 85.8268 85.8268 85.8268 67.5655 71.0269 77.2826 
30 85.0394 85.0394 85.0394 66.1964 69.5866 75.7137 
31 84.252 84.252 84.252 64.8439 68.1637 74.1637 
32 83.4646 83.4646 83.4646 63.5079 66.7583 72.6327 
33 82.6772 82.6772 82.6772 62.1883 65.3701 71.1205 
34 0.00000 0.00000 0.00000 1 1 1 
35 81.1024 81.1024 81.1024 59.5983 62.6454 68.1524 
36 80.315 80.315 80.315 58.3277 61.3088 66.6964 
37 79.5276 79.5276 79.5276 57.0734 59.9892 65.2589 
38 78.7402 78.7402 78.7402 55.8352 58.6866 63.84 
39 77.9528 77.9528 77.9528 54.6131 57.401 62.4395 
40 77.1654 77.1654 77.1654 53.4071 56.1323 61.0574 
41 76.378 76.378 76.378 52.217 54.8803 59.6936 
42 75.5906 75.5906 75.5906 51.0429 53.6451 58.3481 
43 74.8031 74.8031 74.8031 49.8846 52.4266 57.0207 
44 74.0157 74.0157 74.0157 48.7421 51.2246 55.7114 
45 73.2283 73.2283 73.2283 47.6153 50.0393 54.4201 
46 72.4409 72.4409 72.4409 46.5042 48.8704 53.1468 
47 71.6535 71.6535 71.6535 45.4087 47.7179 51.8914 
48 70.8661 70.8661 70.8661 44.3287 46.5818 50.6538 
49 70.0787 70.0787 70.0787 43.2642 45.4619 49.4339 
50 69.2913 69.2913 69.2913 42.2151 44.3583 48.2317 
51 68.5039 68.5039 68.5039 41.1814 43.2708 47.047 
52 67.7165 67.7165 67.7165 40.163 42.1994 45.8799 
53 66.9291 66.9291 66.9291 39.1598 41.1441 44.7303 
54 66.1417 66.1417 66.1417 38.1717 40.1046 43.598 
55 65.3543 65.3543 65.3543 37.1987 39.081 42.4829 
56 64.5669 64.5669 64.5669 36.2407 38.0733 41.3851 
57 63.7795 63.7795 63.7795 35.2977 37.0812 40.3045 
58 62.9921 62.9921 62.9921 34.3696 36.1048 39.2409 
59 62.2047 62.2047 62.2047 33.4563 35.144 38.1942 
60 61.4173 61.4173 61.4173 32.5578 34.1988 37.1645 
61 60.6299 60.6299 60.6299 31.6739 33.2689 36.1516 
62 59.8425 59.8425 59.8425 30.8046 32.3545 35.1555 
63 59.0551 59.0551 59.0551 29.9499 31.4553 34.176 
64 58.2677 58.2677 58.2677 29.1097 30.5714 33.2131 
65 57.4803 57.4803 57.4803 28.2838 29.7026 32.2667 
66 56.6929 56.6929 56.6929 27.4723 28.8489 31.3367 
67 55.9055 55.9055 55.9055 26.6751 28.0101 30.4231 
68 55.1181 55.1181 55.1181 25.892 27.1864 29.5257 
69 54.3307 54.3307 54.3307 25.123 26.3774 28.6445 
70 53.5433 53.5433 53.5433 24.3681 25.5832 27.7793 
71 52.7559 52.7559 52.7559 23.6271 24.8037 26.9302 
72 0.00000 0.00000 0.00000 1 1 1 
73 51.1811 51.1811 51.1811 22.1868 23.2885 25.2796 
74 50.3937 50.3937 50.3937 21.4873 22.5526 24.478 
75 49.6063 49.6063 49.6063 20.8014 21.8311 23.692 
76 48.8189 48.8189 48.8189 20.1292 21.1239 22.9216 
77 48.0315 48.0315 48.0315 19.4704 20.4309 22.1667 
78 47.2441 47.2441 47.2441 18.8251 19.752 21.4271 
79 46.4567 46.4567 46.4567 18.1931 19.0871 20.7029 
80 45.6693 45.6693 45.6693 17.5743 18.4362 19.9938 
81 44.8819 44.8819 44.8819 16.9688 17.7992 19.2999 
82 44.0945 44.0945 44.0945 16.3764 17.1759 18.621 
83 43.3071 43.3071 43.3071 15.797 16.5664 17.957 
84 42.5197 42.5197 42.5197 15.2305 15.9705 17.3078 
85 41.7323 41.7323 41.7323 14.6769 15.3881 16.6734 
86 40.9449 40.9449 40.9449 14.136 14.8191 16.0536 
87 40.1575 40.1575 40.1575 13.6079 14.2635 15.4484 
88 39.3701 39.3701 39.3701 13.0923 13.7211 14.8576 
89 38.5827 38.5827 38.5827 12.5893 13.1919 14.2811 
90 37.7953 37.7953 37.7953 12.0987 12.6758 13.7188 
91 37.0079 37.0079 37.0079 11.6204 12.1726 13.1707 
92 36.2205 36.2205 36.2205 11.1543 11.6824 12.6367 
93 35.4331 35.4331 35.4331 10.7005 11.2049 12.1165 
94 34.6457 34.6457 34.6457 10.2586 10.7401 11.6102 
95 33.8583 33.8583 33.8583 9.82877 10.2879 11.1176 
96 33.0709 33.0709 33.0709 9.41078 9.84814 10.6386 
97 32.2835 32.2835 32.2835 9.00457 9.4208 10.1731 
98 31.4961 31.4961 31.4961 8.61004 9.00576 9.72094 
99 30.7087 30.7087 30.7087 8.22709 8.6029 9.28209 
100 29.9213 29.9213 29.9213 7.85563 8.21212 8.8564 
101 29.1339 29.1339 29.1339 7.49555 7.83331 8.44376 
102 28.3465 28.3465 28.3465 7.14675 7.46638 8.04404 
103 27.5591 27.5591 27.5591 6.80912 7.1112 7.65713 
104 26.7717 26.7717 26.7717 6.48257 6.76767 7.28291 
105 25.9843 25.9843 25.9843 6.16699 6.43567 6.92126 
106 25.1969 25.1969 25.1969 5.86227 6.1151 6.57205 
107 24.4094 24.4094 24.4094 5.56829 5.80584 6.23516 
108 23.622 23.622 23.622 5.28495 5.50777 5.91047 
109 22.8346 22.8346 22.8346 5.01214 5.22077 5.59783 
110 22.0472 22.0472 22.0472 4.74974 4.94473 5.29712 
111 21.2598 21.2598 21.2598 4.49763 4.67951 5.00821 
112 20.4724 20.4724 20.4724 4.2557 4.42499 4.73096 
113 19.685 19.685 19.685 4.02382 4.18106 4.46523 
114 18.8976 18.8976 18.8976 3.80187 3.94757 4.21089 
115 18.1102 18.1102 18.1102 3.58973 3.7244 3.96778 
116 17.3228 17.3228 17.3228 3.38727 3.5114 3.73575 
117 16.5354 16.5354 16.5354 3.19435 3.30845 3.51468 
118 15.748 15.748 15.748 3.01084 3.11541 3.30439 
119 14.9606 14.9606 14.9606 2.83662 2.93212 3.10473 
120 14.1732 14.1732 14.1732 2.67153 2.75845 2.91554 
121 13.3858 13.3858 13.3858 2.51544 2.59425 2.73667 
122 12.5984 12.5984 12.5984 2.36821 2.43935 2.56794 
123 11.811 11.811 11.811 2.22967 2.29361 2.40917 
124 11.0236 11.0236 11.0236 2.09968 2.15686 2.26021 
125 10.2362 10.2362 10.2362 1.97808 2.02894 2.12086 
126 9.44882 9.44882 9.44882 1.86471 1.90967 1.99094 
127 8.66142 8.66142 8.66142 1.7594 1.79889 1.87025 
128 7.87402 7.87402 7.87402 1.66198 1.6964 1.75861 
129 7.08661 7.08661 7.08661 1.57226 1.60202 1.6558 
130 6.29921 6.29921 6.29921 1.49007 1.51556 1.56161 
131 5.51181 5.51181 5.51181 1.41522 1.43681 1.47583 
132 4.72441 4.72441 4.72441 1.34749 1.36556 1.39822 
133 3.93701 3.93701 3.93701 1.28669 1.3016 1.32854 
134 3.14961 3.14961 3.14961 1.22941 1.24134 1.2629 
135 2.3622 2.3622 2.3622 1.17206 1.181 1.19717 
136 1.5748 1.5748 1.5748 1.11471 1.12067 1.13145 
137 0.787402 0.787402 0.787402 1.05735 1.06033 1.06572 
138 100 100 100 95.1065 100 108.844 
139 100 0.00000 100 59.7013 29.1995 97.0422 
140 0.00000 100 100 54.2763 78.9478 106.931 
141 0.00000 100 0.00000 36.4052 71.8005 12.8018 
142 0.00000 0.00000 100 18.8711 8.14731 95.129 
143 100 0.00000 0.00000 41.8302 22.0522 2.91323 
144 0.00000 32.9948 100 22.0205 14.4452 96.1788 
145 100 53.1861 0.00000 50.4947 39.3788 5.80143 
146 100 0.00000 77.1 51.7636 26.0249 55.2334 
147 0.00000 100 40.3824 38.8279 72.7694 25.5623 
148 39.2539 100 0.00000 41.6192 74.4889 13.0462 
149 50.7432 0.00000 100 27.8939 12.7995 95.5518 
150 0.00000 74.1147 0.00000 19.0155 37.0259 7.00521 
151 100 39.7181 100 64.3359 38.4673 98.5871 
152 0.00000 0.00000 0.00000 1 1 1 
153 46.4486 0.00000 0.00000 8.4568 4.84475 1.34941 
154 100 100 50.687 81.1752 94.4283 35.4663 
155 49.6037 100 100 62.8666 83.377 107.333 
156 0.00000 50.8102 100 26.7175 23.8379 97.7444 
157 100 0.00000 50.0539 45.6642 23.5856 23.1077 
158 0.00000 75.3415 65.0961 26.5031 41.0978 43.1211 
159 0.00000 46.6695 0.00000 7.53222 14.0626 3.17743 
160 59.1456 41.7352 0.00000 18.7492 17.7893 3.30601 
161 64.0719 0.00000 57.656 21.248 10.8366 29.1777 
162 34.1464 100 65.0842 47.1149 76.5346 48.8615 
163 100 57.0019 58.756 57.3456 44.3812 34.9087 
164 65.3653 39.7984 100 39.2369 25.5556 97.4166 
165 100 60.6225 100 71.2384 52.2706 100.888 
166 100 27.318 0.00000 43.9777 26.3465 3.62907 
167 0.00000 28.6613 52.9487 7.69569 7.46058 24.6009 
168 60.7531 100 0.00000 49.7733 78.6932 13.4282 
169 25.8776 50.3833 100 28.7991 24.7004 97.8013 
170 0.00000 100 80.7788 47.4337 76.2112 70.8899 
171 43.569 0.00000 46.2732 10.7404 5.64772 18.3565 
172 37.6043 100 43.8071 44.0494 75.4088 28.1921 
173 18.9575 51.0755 0.00000 10.1582 17.4991 3.70246 
174 0.00000 0.00000 79.4845 11.6356 5.25355 57.0186 
175 22.9741 100 100 56.0377 79.856 107.013 
176 0.00000 65.3583 100 32.4918 35.3849 99.6692 
177 72.3329 0.00000 0.00000 20.6773 11.1457 1.92205 
178 0.00000 53.7405 18.6781 10.383 18.9303 6.69653 
179 0.00000 20.2605 0.00000 2.20102 3.40171 1.40034 
180 22.8486 0.00000 100 20.6139 9.04591 95.2106 
181 100 100 74.9791 86.5676 96.585 63.8688 
182 77.5621 0.00000 100 41.8718 20.0066 96.2067 
183 48.0359 80.2002 0.00000 30.5143 48.1247 8.54197 
184 100 33.9984 44.8344 48.2059 29.9614 19.9664 
185 0.00000 100 62.336 42.5975 74.277 45.4171 
186 100 86.3019 38.9415 69.4317 73.6575 23.1856 
187 19.6414 0.00000 0.00000 2.30651 1.67364 1.06122 
188 60.5769 83.4718 100 55.6757 62.0327 103.592 
189 58.1763 100 34.0244 50.2529 78.7446 22.292 
190 100 78.277 0.00000 62.1894 62.7648 9.69968 
191 0.00000 0.00000 17.6157 1.46743 1.18694 3.46203 
192 99.2126 99.2126 99.2126 93.4296 98.2359 106.922 
193 63.3972 100 50.8265 55.053 80.957 34.365 
194 74.3867 100 100 75.2229 89.748 107.912 
195 80.5269 59.9578 0.00000 37.2814 36.4191 5.92604 
196 100 20.5189 80.499 54.0031 28.8886 60.9603 
197 18.0278 100 0.00000 37.5194 72.375 12.854 
198 100 78.4908 100 80.1854 70.162 103.87 
199 38.3425 38.2251 0.00000 10.2385 12.1092 2.65782 
200 100 50.2956 37.8732 51.6223 38.2474 16.621 
201 60.7597 0.00000 81.2761 25.553 12.3662 60.5215 
202 0.00000 39.3998 76.9815 15.4559 14.0711 54.6591 
203 39.1543 84.7661 100 48.4085 59.5169 103.489 
204 42.4472 32.3297 100 28.0433 17.3591 96.424 
205 38.5155 0.00000 82.7382 17.649 8.23804 62.5394 
206 0.00000 38.7691 35.7925 7.28578 10.5603 12.3767 
207 18.2467 100 27.5732 38.6488 72.8296 18.6717 
208 54.4688 100 65.1751 53.7622 79.9595 49.2829 
209 40.1336 0.00000 28.0177 7.60362 4.27296 7.26189 
210 0.00000 52.6771 51.8569 13.6248 19.6237 25.6317 
211 100 81.3807 61.825 70.1277 68.9111 42.3476 
212 81.6674 0.00000 39.2713 29.1084 15.2285 14.2415 
213 67.0554 54.4575 17.8604 27.2271 28.0053 7.34476 
214 81.86 100 0.00000 62.3665 85.1862 14.0183 
215 18.8435 33.0522 100 23.241 15.0913 96.2392 
216 100 100 100 95.1065 100 108.844 
217 79.1757 38.6528 73.2999 38.3363 25.7203 50.3158 
218 75.7972 80.0201 0.00000 44.2359 55.0389 9.15392 
219 35.8389 49.7419 55.9908 17.6955 20.1642 29.4668 
220 100 81.4853 20.0371 64.7047 66.845 13.4673 
221 22.9414 0.00000 59.4532 8.33593 4.13708 30.4695 
222 0.00000 65.795 34.9852 16.6172 29.3597 15.0577 
223 29.0379 57.0139 75.3473 23.3179 26.3808 54.1875 
224 100 85.7513 83.6801 78.7637 76.8081 74.1316 
225 100 0.00000 25.1581 42.7507 22.4203 7.76194 
226 0.00000 54.7017 70.2305 18.2762 22.6455 46.5488 
227 66.8869 79.1093 20.9549 39.0275 51.4733 12.1277 
228 78.1996 16.8777 38.7089 27.4994 15.6783 14.0552 
229 28.1255 72.7594 71.6426 29.344 40.2968 51.2899 
230 0.00000 0.00000 57.5102 6.18718 3.07455 28.3214 
231 49.6468 50.0686 100 35.0782 27.784 98.0658 
232 0.00000 82.9289 100 42.0497 54.4981 102.855 
233 79.8858 21.3201 100 44.7695 23.4641 96.7215 
234 100 45.5004 81.8375 59.3726 38.965 64.7889 
235 0.00000 100 20.7343 37.0385 72.0538 16.1377 
236 35.737 100 19.619 41.26 74.2376 16.0081 
237 18.7344 24.2793 0.00000 3.89703 5.01791 1.62299 
238 39.6327 38.9055 67.7745 18.209 15.5965 41.9751 
239 0.00000 0.00000 0.00000 1 1 1 
240 62.6148 0.00000 34.5125 17.0317 9.06426 10.8568 
241 82.3372 47.6383 100 52.0011 35.3616 98.6372 
242 80.5511 38.4884 0.00000 30.3753 22.5839 3.61917 
243 17.7164 100 54.5017 42.0969 74.2016 37.147 
244 100 18.9909 100 60.7651 31.3268 97.3968 
245 100 14.6603 12.6952 42.7602 23.491 4.5217 
246 71.1944 35.1039 10.3544 23.7623 18.0268 4.07923 
247 53.3624 20.8241 55.5116 17.1305 10.6391 27.1808 
248 69.2116 74.8121 38.6053 39.4364 47.8656 19.5743 
249 80.8029 100 65.0994 68.4339 87.5263 49.8788 
250 56.5371 18.3448 100 31.2855 16.0289 95.9965 
251 79.9894 0.00000 80.4655 36.5796 18.0804 59.7381 
252 44.0818 62.8321 46.7461 23.4603 30.7259 22.9019 
253 100 100 100 95.1065 100 108.844 
254 77.8306 42.4811 46.2211 32.7528 24.9287 20.878 
255 100 66.2994 76.9863 65.7897 54.1256 59.747 
256 100 36.7403 64.1749 52.3685 32.5629 39.0027 
257 19.1461 66.664 100 34.3475 37.2472 99.931 
258 83.1097 86.7297 100 71.3746 73.2739 104.935 
259 20.2004 100 80.5539 48.7421 76.8938 70.5917 
260 58.522 61.2041 0.00000 25.0952 30.9098 5.50441 
261 48.1475 88.8093 73.7548 45.1022 62.8465 57.773 
262 40.403 67.2767 100 38.9347 40.0453 100.229 
263 45.2361 50.4194 21.1045 16.4172 20.3254 7.35221 
264 0.00000 19.8776 72.4843 10.8115 6.77755 46.962 
265 58.8546 20.9686 0.00000 14.7489 9.99131 2.01145 
266 84.3718 0.00000 62.0553 34.9199 17.78 34.5945 
267 44.7594 0.00000 65.1227 14.7085 7.27924 37.2467 
268 44.0959 55.8817 70.3198 25.4101 26.9731 47.1282 
269 0.00000 28.3905 17.3568 3.77476 5.82089 4.16963 
270 45.246 22.8594 69.6356 17.4754 10.8244 43.5164 
271 36.0523 0.00000 11.702 5.59318 3.34165 2.41591 
272 57.0207 38.8537 28.345 18.2233 16.3123 9.16755 
273 100 61.7623 19.2301 54.4001 46.3091 9.81509 
274 65.0856 100 82.2816 63.4634 84.4222 74.0772 
275 14.6248 28.7621 46.5915 7.43252 7.47076 19.1341 
276 26.0011 81.8009 51.2694 29.7585 48.7169 29.8682 
277 28.7247 17.9317 100 22.5668 11.4727 95.5762 
278 28.6659 63.2749 45.709 19.5603 29.0225 21.9635 
279 17.9401 0.00000 19.5263 2.66986 1.79557 4.03073 
280 88.9548 72.863 53.7507 54.1305 53.6159 31.8195 
281 43.282 22.4814 33.8951 10.5571 7.90711 10.6394 
282 0.00000 17.3347 100 19.7704 9.9456 95.4287 
283 0.00000 72.4538 83.2105 29.9158 39.9634 68.804 
284 42.7535 74.5941 77.6519 35.6169 44.8061 60.5481 
285 43.8079 66.451 29.2187 22.9503 33.145 12.5538 
286 0.00000 80.7978 47.1331 26.2285 46.0619 26.0263 
287 18.9683 0.00000 78.798 12.6547 5.80272 55.9962 
288 60.5912 100 17.2461 50.1447 78.8327 15.7932 
289 16.0609 48.9766 62.0258 15.2752 18.4075 35.7166 
290 68.6566 52.9776 34.1447 28.8169 27.895 13.6705 
291 64.9429 62.9643 45.1095 32.0954 35.2924 22.0529 
292 14.5292 27.336 66.3562 11.0173 8.53388 39.2005 
293 0.00000 16.6245 28.0384 2.97555 3.12368 7.29264 
294 35.3288 83.2931 25.9138 29.5674 50.3574 14.1394 
295 67.535 12.1124 48.1075 21.8925 12.0808 20.49 
296 72.6685 22.5039 75.1546 31.7303 17.9375 51.8322 
297 100 68.3117 42.3793 59.5368 53.1675 22.0552 
298 60.449 0.00000 15.5281 14.5938 7.96592 3.58126 
299 21.5284 30.2808 82.255 16.6837 11.6798 62.4558 
300 38.1668 59.1074 0.00000 16.828 25.3569 4.86797 
301 82.0219 17.9662 0.00000 28.037 16.3653 2.54196 
302 100 37.6822 19.2401 46.5298 30.57 7.19427 
303 0.00000 79.8804 20.308 22.9159 43.8514 11.3096 
304 82.0771 0.00000 17.0254 27.5557 14.6414 4.53761 
305 55.0006 73.7306 50.3343 33.438 43.7047 27.8796 
306 86.8032 57.7891 76.5483 50.7885 40.9546 57.3358 
307 73.8071 89.6644 11.0794 49.4382 66.9774 12.2881 
308 19.8045 0.00000 39.4851 4.63746 2.60824 13.2319 
309 63.7959 46.7553 46.3569 25.6973 23.091 21.0018 
310 26.0037 21.902 40.0807 7.02272 5.89682 14.1296 
311 27.3913 34.2164 8.82616 7.03269 9.1313 3.02917 
312 65.8183 8.16897 7.57787 17.3351 9.79816 2.46253 
313 100 16.1744 59.8964 48.2948 25.907 33.0485 
314 14.1054 89.6125 89.4871 43.2183 62.1343 83.4029 
315 20.0173 83.3956 100 43.6983 55.7854 103.017 
316 10.6358 33.0761 7.55688 4.73474 7.60972 2.70133 
317 62.0512 39.8187 85.7585 32.2831 22.5852 69.6714 
318 14.8467 70.1204 31.2162 19.1272 33.8122 13.8185 
319 69.6035 28.2234 55.7975 26.2094 16.8387 28.1834 
320 8.85308 41.4988 47.8747 9.90801 12.7365 21.0561 
321 88.8009 36.5955 37.2075 38.1328 25.7028 14.5056 
322 13.8871 64.817 74.0979 24.1613 31.7369 53.3622 
323 44.58 57.9012 86.9891 31.29 30.5901 73.4301 
324 87.969 88.9167 41.961 61.2867 72.0376 25.3124 
325 7.29178 62.4195 60.7325 19.4089 28.076 35.909 
326 82.6488 11.5672 91.6994 42.6549 21.443 79.7154 
327 78.0038 58.8554 63.4119 41.537 37.202 39.5659 
328 62.5157 63.8045 100 46.0235 41.3143 100.101 
329 43.0363 81.2049 42.3627 32.1249 49.5501 22.789 
330 57.032 24.5746 21.9942 15.0869 10.7659 5.85913 
331 90.1133 88.2469 8.90153 60.0579 71.0086 12.1904 
332 82.225 100 39.7992 64.977 86.2605 26.4053 
333 65.0314 54.2927 90.014 39.6731 32.7606 78.8929 
334 37.7866 17.8097 0.00000 6.7579 5.37102 1.54048 
335 24.8981 39.9618 23.5242 8.5626 11.7735 6.91298 
336 48.3745 56.7326 7.75883 19.2355 25.1918 5.3548 
337 81.0356 100 20.1453 62.3821 85.1249 17.1499 
338 14.1082 47.34 78.6579 18.844 18.9951 57.9988 
339 55.6414 88.3628 12.5521 39.0285 60.2707 11.7919 
340 47.8186 41.9487 81.6215 25.4286 20.0106 62.5651 
341 43.0217 17.4633 91.4022 22.8147 11.9148 78.3575 
342 12.105 89.7784 64.1739 35.8816 59.3662 45.0437 
343 30.0808 10.1938 23.4616 5.17534 3.60253 5.49228 
344 54.2299 8.81098 45.8597 14.8928 8.23067 18.3129 
345 100 18.4939 34.0393 44.5381 24.7554 12.1795 
346 40.0139 100 83.977 53.8694 79.413 76.4467 
347 86.4256 11.2822 10.959 30.9738 17.068 3.60749 
348 23.7535 42.7055 41.0224 10.7876 13.7766 16.0812 
349 56.1387 90.7196 89.283 54.4465 69.0859 83.7784 
350 80.6282 69.4492 100 59.5473 52.2498 101.5 
351 19.3498 10.8592 51.6717 6.78187 4.10551 22.8289 
352 85.4096 100 85.5764 77.5285 91.5513 80.2845 
353 87.7574 50.3693 21.2384 39.7306 32.3203 8.48134 
354 10.4282 90.3007 11.3882 29.7466 57.4846 11.5428 
355 72.4198 51.7882 77.171 38.8615 31.5064 57.0786 
356 31.2187 71.8851 88.4736 34.6091 41.7381 78.0683 
357 12.033 9.83501 92.7027 16.9427 7.99299 80.3937 
358 10.1056 67.6636 46.3123 19.3678 31.9245 23.0051 
359 12.2802 88.2232 46.3066 31.4611 55.8823 26.9882 
360 88.1316 27.9619 80.5364 44.8655 25.6894 60.8839 
361 79.7452 10.7782 54.1494 30.4254 16.2381 26.2337 
362 59.572 85.5466 61.1654 44.6018 59.6889 41.1674 
363 27.8673 60.9643 60.7388 21.1061 28.0261 35.8169 
364 29.3589 63.4117 20.1467 17.2021 28.1919 8.5401 
365 59.2123 65.417 30.1831 28.607 35.3359 13.1208 
366 80.4934 93.2726 53.3187 60.6211 76.092 35.4078 
367 78.3419 60.0448 49.2072 39.5144 37.1964 25.3315 
368 89.0654 23.8152 48.0734 37.5523 21.8709 21.5269 
369 16.8632 64.3852 1.76739 15.1869 27.8668 5.56704 
370 72.7296 41.2279 25.1985 26.8571 21.6676 8.46898 
371 88.8756 40.5515 55.5974 41.9086 28.7219 29.4513 
372 36.1849 53.6615 35.4929 16.0793 21.6717 13.8876 
373 90.0262 37.2965 90.5167 51.4878 31.4099 78.9456 
374 66.7622 10.4201 91.4053 32.4174 16.0748 78.6606 
375 91.0354 52.0629 48.6224 45.8662 35.9931 24.2714 
376 83.9042 69.6156 84.1712 56.2092 51.3198 71.2299 
377 4.60141 86.5562 78.7398 37.086 56.2857 64.3634 
378 86.9324 65.2598 20.6031 44.9282 43.7245 10.214 
379 32.8568 7.39818 92.1943 19.6895 9.25638 79.5164 
380 58.1348 50.0454 71.4486 29.1078 25.7922 48.2362 
381 71.2519 76.2771 59.2271 44.7729 51.4427 37.4381 
382 84.4629 83.8631 25.2035 53.551 63.267 15.0949 
383 55.6677 25.5751 85.7263 26.5279 15.4999 68.5508 
384 31.8971 50.4349 12.1723 12.3552 18.286 5.02509 
385 53.2798 31.0161 42.5716 16.5147 12.8041 16.6658 
386 50.6501 75.7248 90.1741 43.0229 49.0855 82.1649 
387 61.9977 78.6479 2.23356 35.5858 49.3664 8.67653 
388 34.1238 45.5294 87.6137 24.3305 20.6914 72.9984 
389 83.613 54.8803 34.9457 39.2961 34.3068 14.7961 
390 50.8765 10.4895 27.1766 11.5294 6.87236 7.20312 
391 28.8807 75.4765 37.4054 24.5953 40.7751 18.2473 
392 13.2383 44.0748 15.4229 7.7927 13.0372 4.89498 
393 30.208 25.9144 62.2887 12.1481 8.90268 34.3474 
394 7.20867 48.8143 31.639 9.90813 16.1032 11.093 
395 5.20376 11.6227 51.7442 5.73897 3.63569 22.8587 
396 56.5152 88.435 45.9751 42.3944 61.74 27.2832 
397 13.3515 10.431 30.605 3.39669 2.64057 8.33627 
398 53.2403 52.0888 33.8176 20.9676 23.3916 13.0385 
399 47.8919 67.7135 64.4377 30.3591 37.2319 41.3775 
400 90.3931 28.8708 25.5512 36.8173 22.9188 8.32052 
401 38.8902 77.6574 58.7744 31.5531 45.8059 36.5617 
402 24.7023 94.3064 42.076 36.6633 65.0773 25.3459 
403 53.0846 38.8452 58.2828 20.7147 17.111 31.0729 
404 11.7043 58.2749 15.3729 12.4699 22.5712 6.47796 
405 4.27186 19.802 14.5644 2.61839 3.50322 3.14261 
406 76.4885 69.5786 10.3042 39.1309 43.8644 8.24968 
407 25.5464 37.9885 53.8911 11.8889 12.3574 26.2138 
408 16.1125 74.9649 62.5364 26.6257 40.9188 40.0499 
409 38.9749 71.6482 10.2615 23.0276 37.1279 7.79111 
410 39.3946 30.6483 50.5146 12.8724 10.6883 22.7476 
411 88.2854 12.8896 72.667 41.0187 21.4211 48.4532 
412 4.78033 58.9937 85.6353 24.597 27.8395 70.8763 
413 34.1088 10.8718 65.3777 12.1737 6.566 37.5531 
414 5.12004 38.9413 64.1644 12.2114 12.6153 37.2548 
415 13.4196 11.6436 69.3246 9.94754 5.37788 42.4506 
416 26.0947 87.489 71.3327 37.7617 57.8006 53.8004 
417 86.1893 26.5518 63.4833 38.6325 22.6692 36.9976 
418 33.2783 88.1881 87.9189 44.6695 61.4883 80.3495 
419 37.3057 22.9815 15.3094 7.57727 6.61744 3.64211 
420 70.8786 45.1917 59.7858 31.5516 25.1477 33.6632 
421 59.7653 79.3215 76.6911 44.6843 53.5159 60.2962 
422 44.2632 94.1706 30.5754 39.9767 66.784 18.7771 
423 60.3292 64.6352 79.7954 38.1824 38.6535 62.5585 
424 94.8063 9.14018 87.4019 50.6512 25.5362 72.1688 
425 42.803 36.5188 21.7544 11.8423 12.2776 6.24449 
426 91.1607 46.8047 68.9085 48.4 34.3004 45.4621 
427 61.2319 19.6437 36.5804 17.7028 11.0661 12.3834 
428 92.7469 6.20752 56.9755 40.6775 21.1386 29.4412 
429 56.0717 47.1865 11.9419 19.1386 20.2516 5.00735 
430 41.9528 87.776 11.3055 33.5639 56.865 11.2087 
431 0.00000 0.00000 0.00000 1 1 1 
432 72.3188 9.00525 67.7462 28.4158 14.7238 41.2329 
433 74.1093 25.6027 24.7478 24.5517 15.8421 7.29711 
434 77.2863 81.2647 48.3195 49.5164 58.4707 28.1653 
435 95.5197 68.3413 90.3134 67.0123 55.7133 82.44 
436 48.512 11.2805 12.0663 9.85871 6.17678 2.8007 
437 70.6369 31.205 39.4246 24.7764 17.1621 14.9415 
438 87.1055 13.1405 26.9178 32.466 17.9223 8.12711 
439 4.60885 19.4588 40.7001 4.72311 4.28695 14.3515 
440 70.9522 90.1379 32.5458 49.3707 67.2798 19.349 
441 5.53093 68.0409 9.94086 16.2496 30.9426 6.90709 
442 83.9742 70.3196 39.127 46.7841 48.1239 19.5679 
443 93.9456 9.18662 41.5187 39.3117 20.9192 16.2963 
444 85.9914 30.0816 11.7211 32.844 21.2618 4.44298 
445 70.9977 68.3289 90.5043 49.1595 46.4915 81.9562 
446 90.1204 89.7987 65.035 67.7853 75.8142 47.574 
447 51.4448 31.5302 9.58055 13.3325 11.5978 3.27537 
448 21.018 85.8798 28.9555 28.7817 52.4028 15.8462 
449 53.1935 80.3524 29.2346 33.8281 49.8258 15.2079 
450 32.55 8.11976 38.1984 6.94729 4.20331 12.6032 
451 50.3767 10.5495 80.8279 21.3117 10.768 59.7124 
452 44.0224 91.5254 55.4731 41.4011 64.2553 36.214 
453 57.9954 13.2206 68.2431 21.1958 11.3664 41.6036 
454 71.2485 90.9731 71.3728 56.9508 71.2755 55.4457 
455 91.5032 45.0231 8.11934 40.5578 30.3574 5.27184 
456 22.4405 76.6286 16.0729 22.4902 40.8428 9.63519 
457 73.814 31.0003 89.5432 38.2708 22.7217 76.1589 
458 28.5011 16.6049 79.5395 15.1802 8.31378 57.5093 
459 83.8082 51.3648 87.4667 49.5983 36.4537 74.4473 
460 88.5764 77.5745 68.9826 59.7134 59.9873 49.9215 
461 11.6059 30.8688 29.1955 5.50523 7.25793 8.46516 
462 26.1683 12.509 5.00587 3.85249 3.21753 1.64707 
