Pre-made_Targets/Patch Width 8-11mm - Expert (Use rig-guide-ruler)/Generated Targets/CM-Expert-Letter-578p-2pages-w11.0mm-17x18/CM-Expert-Letter-578p-2pages.ti2
CTI2   

DESCRIPTOR "Argyll Calibration Target chart information 2"
ORIGINATOR "Argyll printtarg"
CREATED "Sun Feb  8 17:31:25 2026"
TARGET_INSTRUMENT "X-Rite ColorMunki"
COMP_GREY_STEPS "108"
APPROX_WHITE_POINT "95.106486 100.000000 108.844025"
TOTAL_INK_LIMIT "300.0"
COLOR_REP "iRGB"
PAPER_SIZE "215.9x279.4"
RANDOM_START "537"
STEPS_IN_PASS "17"
PASSES_IN_STRIPS2 "17,17"
STRIP_INDEX_PATTERN "A-Z, A-Z"
PATCH_INDEX_PATTERN "0-9,@-9,@-9;1-999"
INDEX_ORDER "STRIP_THEN_PATCH"

NUMBER_OF_FIELDS 8
BEGIN_DATA_FORMAT
SAMPLE_ID SAMPLE_LOC RGB_R RGB_G RGB_B XYZ_X XYZ_Y XYZ_Z 
END_DATA_FORMAT

NUMBER_OF_SETS 578
BEGIN_DATA
1 "W5" 100.0000 100.0000 100.0000 95.10649 100.0000 108.8440 
2 "Z3" 100.0000 100.0000 100.0000 95.10649 100.0000 108.8440 
3 "T2" 100.0000 100.0000 100.0000 95.10649 100.0000 108.8440 
4 "AE10" 100.0000 100.0000 100.0000 95.10649 100.0000 108.8440 
5 "W8" 100.0000 100.0000 100.0000 95.10649 100.0000 108.8440 
6 "F3" 100.0000 100.0000 100.0000 95.10649 100.0000 108.8440 
7 "G10" 0.00000 0.00000 0.00000 1.000000 1.000000 1.000000 
8 "AA3" 0.00000 0.00000 0.00000 1.000000 1.000000 1.000000 
9 "AF1" 0.00000 0.00000 0.00000 1.000000 1.000000 1.000000 
10 "A15" 0.00000 0.00000 0.00000 1.000000 1.000000 1.000000 
11 "AE17" 0.00000 0.00000 0.00000 1.000000 1.000000 1.000000 
12 "T17" 0.00000 0.00000 0.00000 1.000000 1.000000 1.000000 
13 "AH16" 99.06615 99.06615 99.06615 93.11812 97.90824 106.5654 
14 "R11" 98.13077 98.13077 98.13077 91.15448 95.84249 104.3151 
15 "G15" 97.19692 97.19692 97.19692 89.21548 93.80266 102.0931 
16 "X13" 96.26154 96.26154 96.26154 87.30102 91.78865 99.89913 
17 "V7" 95.32769 95.32769 95.32769 85.41102 89.80037 97.73323 
18 "T4" 94.39231 94.39231 94.39231 83.54539 87.83773 95.59525 
19 "M3" 93.45846 93.45846 93.45846 81.70403 85.90062 93.48510 
20 "A8" 92.52308 92.52308 92.52308 79.88687 83.98896 91.40267 
21 "N8" 91.58923 91.58923 91.58923 78.09379 82.10265 89.34784 
22 "AC9" 90.65385 90.65385 90.65385 76.32472 80.24159 87.32052 
23 "Q7" 89.72000 89.72000 89.72000 74.57956 78.40568 85.32061 
24 "AD13" 88.78462 88.78462 88.78462 72.85821 76.59482 83.34798 
25 "W11" 87.85077 87.85077 87.85077 71.16059 74.80893 81.40254 
26 "L10" 86.91539 86.91539 86.91539 69.48660 73.04788 79.48418 
27 "L12" 85.98154 85.98154 85.98154 67.83614 71.31160 77.59279 
28 "U9" 85.04616 85.04616 85.04616 66.20911 69.59997 75.72825 
29 "V4" 84.11231 84.11231 84.11231 64.60543 67.91290 73.89047 
30 "F5" 83.17693 83.17693 83.17693 63.02499 66.25028 72.07932 
31 "R2" 82.24308 82.24308 82.24308 61.46771 64.61201 70.29470 
32 "AH13" 81.30770 81.30770 81.30770 59.93347 62.99799 68.53650 
33 "B2" 80.37385 80.37385 80.37385 58.42218 61.40812 66.80459 
34 "S14" 79.43999 79.43999 79.43999 56.93374 59.84229 65.09888 
35 "B7" 78.50462 78.50462 78.50462 55.46806 58.30039 63.41924 
36 "Q9" 77.57076 77.57076 77.57076 54.02503 56.78232 61.76555 
37 "AE15" 76.63539 76.63539 76.63539 52.60455 55.28797 60.13771 
38 "AH11" 75.70153 75.70153 75.70153 51.20652 53.81725 58.53560 
39 "Q4" 74.76616 74.76616 74.76616 49.83084 52.37003 56.95910 
40 "AC15" 73.83230 73.83230 73.83230 48.47739 50.94621 55.40808 
41 "V2" 72.89693 72.89693 72.89693 47.14609 49.54568 53.88244 
42 "E15" 71.96307 71.96307 71.96307 45.83682 48.16833 52.38204 
43 "N14" 71.02770 71.02770 71.02770 44.54949 46.81405 50.90678 
44 "D11" 70.09384 70.09384 70.09384 43.28397 45.48273 49.45653 
45 "P6" 69.15846 69.15846 69.15846 42.04017 44.17425 48.03116 
46 "K9" 68.22461 68.22461 68.22461 40.81798 42.88850 46.63056 
47 "U11" 67.28923 67.28923 67.28923 39.61729 41.62538 45.25459 
48 "K11" 66.35538 66.35538 66.35538 38.43799 40.38475 43.90313 
49 "AD2" 65.42000 65.42000 65.42000 37.27996 39.16651 42.57606 
50 "K6" 64.48615 64.48615 64.48615 36.14311 37.97054 41.27325 
51 "F7" 63.55077 63.55077 63.55077 35.02731 36.79672 39.99457 
52 "S5" 62.61692 62.61692 62.61692 33.93246 35.64494 38.73990 
53 "X16" 61.68154 61.68154 61.68154 32.85844 34.51507 37.50909 
54 "AC4" 60.74769 60.74769 60.74769 31.80513 33.40699 36.30202 
55 "U5" 59.81384 59.81384 59.81384 30.77242 32.32058 35.11856 
56 "AB16" 58.87846 58.87846 58.87846 29.76019 31.25571 33.95857 
57 "Z9" 57.94461 57.94461 57.94461 28.76833 30.21228 32.82191 
58 "AA15" 57.00923 57.00923 57.00923 27.79671 29.19014 31.70846 
59 "O6" 56.07538 56.07538 56.07538 26.84522 28.18917 30.61808 
60 "F10" 55.14000 55.14000 55.14000 25.91374 27.20925 29.55061 
61 "C6" 54.20615 54.20615 54.20615 25.00214 26.25024 28.50594 
62 "S7" 53.27077 53.27077 53.27077 24.11030 25.31203 27.48391 
63 "D15" 52.33692 52.33692 52.33692 23.23809 24.39447 26.48438 
64 "W15" 51.40154 51.40154 51.40154 22.38540 23.49743 25.50721 
65 "N5" 50.46769 50.46769 50.46769 21.55209 22.62079 24.55225 
66 "F12" 49.53231 49.53231 49.53231 20.73803 21.76440 23.61936 
67 "AE7" 48.59846 48.59846 48.59846 19.94310 20.92814 22.70839 
68 "J3" 47.66308 47.66308 47.66308 19.16717 20.11186 21.81919 
69 "H5" 46.72923 46.72923 46.72923 18.41010 19.31542 20.95160 
70 "AF13" 45.79385 45.79385 45.79385 17.67176 18.53869 20.10548 
71 "O4" 44.86000 44.86000 44.86000 16.95201 17.78151 19.28067 
72 "AE13" 43.92462 43.92462 43.92462 16.25073 17.04376 18.47701 
73 "Y11" 42.99077 42.99077 42.99077 15.56777 16.32529 17.69435 
74 "O13" 42.05539 42.05539 42.05539 14.90299 15.62594 16.93252 
75 "E4" 41.12154 41.12154 41.12154 14.25625 14.94557 16.19137 
76 "Y9" 40.18616 40.18616 40.18616 13.62740 14.28403 15.47074 
77 "AG4" 39.25231 39.25231 39.25231 13.01632 13.64116 14.77044 
78 "F14" 38.31846 38.31846 38.31846 12.42284 13.01682 14.09033 
79 "Y13" 37.38308 37.38308 37.38308 11.84682 12.41085 13.43022 
80 "Z17" 36.44923 36.44923 36.44923 11.28811 11.82309 12.78995 
81 "H3" 35.51385 35.51385 35.51385 10.74656 11.25338 12.16935 
82 "AC17" 34.58000 34.58000 34.58000 10.22201 10.70155 11.56823 
83 "C10" 33.64462 33.64462 33.64462 9.714311 10.16745 10.98641 
84 "K1" 32.71077 32.71077 32.71077 9.223301 9.650911 10.42373 
85 "AH8" 31.77539 31.77539 31.77539 8.748821 9.151758 9.879983 
86 "M15" 30.84154 30.84154 30.84154 8.290707 8.669822 9.354995 
87 "B11" 29.90616 29.90616 29.90616 7.848794 8.204929 8.848572 
88 "AD4" 28.97230 28.97230 28.97230 7.422914 7.756903 8.360522 
89 "L6" 28.03693 28.03693 28.03693 7.012896 7.325565 7.890650 
90 "AG7" 27.10307 27.10307 27.10307 6.618567 6.910731 7.438757 
91 "H1" 26.16770 26.16770 26.16770 6.239750 6.512216 7.004642 
92 "O1" 25.23384 25.23384 25.23384 5.876266 6.129831 6.588097 
93 "D17" 24.29847 24.29847 24.29847 5.527933 5.763384 6.188915 
94 "V14" 23.36461 23.36461 23.36461 5.194564 5.412680 5.806881 
95 "AH4" 22.42924 22.42924 22.42924 4.875970 5.077520 5.441779 
96 "M8" 21.49538 21.49538 21.49538 4.571957 4.757698 5.093387 
97 "E6" 20.56001 20.56001 20.56001 4.282329 4.453010 4.761479 
98 "AE4" 19.62615 19.62615 19.62615 4.006884 4.163241 4.445825 
99 "T7" 18.69230 18.69230 18.69230 3.745416 3.888177 4.146188 
100 "K4" 17.75692 17.75692 17.75692 3.497715 3.627596 3.862328 
101 "E10" 16.82307 16.82307 16.82307 3.263566 3.381271 3.593998 
102 "AD10" 15.88769 15.88769 15.88769 3.042748 3.148970 3.340946 
103 "A17" 14.95384 14.95384 14.95384 2.835035 2.930456 3.102911 
104 "D7" 14.01846 14.01846 14.01846 2.640194 2.725484 2.879628 
105 "S2" 13.08461 13.08461 13.08461 2.457988 2.533803 2.670823 
106 "M6" 12.14923 12.14923 12.14923 2.288171 2.355155 2.476216 
107 "AB12" 11.21538 11.21538 11.21538 2.130488 2.189273 2.295515 
108 "L8" 10.28000 10.28000 10.28000 1.984680 2.035883 2.128422 
109 "AA8" 9.346151 9.346151 9.346151 1.850476 1.894700 1.974627 
110 "V17" 8.410773 8.410773 8.410773 1.727595 1.765430 1.833809 
111 "V9" 7.476921 7.476921 7.476921 1.615748 1.647766 1.705634 
112 "I3" 6.541543 6.541543 6.541543 1.514630 1.541391 1.589755 
113 "AD15" 5.607691 5.607691 5.607691 1.423927 1.445971 1.485811 
114 "AB1" 4.672313 4.672313 4.672313 1.343306 1.361157 1.393421 
115 "R15" 3.738460 3.738460 3.738460 1.272291 1.286450 1.312040 
116 "D13" 2.803082 2.803082 2.803082 1.204218 1.214838 1.234030 
117 "L15" 1.869230 1.869230 1.869230 1.136145 1.143225 1.156020 
118 "G17" 0.933852 0.933852 0.933852 1.068073 1.071613 1.078010 
119 "X8" 0.00000 0.00000 100.0000 18.87111 8.147314 95.12896 
120 "M5" 0.00000 100.0000 0.00000 36.40521 71.80052 12.80184 
121 "AE12" 0.00000 95.53521 78.50004 43.25735 68.95733 66.11272 
122 "U6" 100.0000 0.00000 0.00000 41.83017 22.05217 2.913230 
123 "O3" 100.0000 93.78195 46.69871 75.73424 84.56897 30.50401 
124 "AH5" 77.12367 0.00000 52.26673 27.92134 14.39368 24.24300 
125 "AH2" 49.31716 13.01595 14.31754 10.35043 6.590681 3.280281 
126 "AD1" 18.20859 44.67079 0.00000 8.082491 13.47863 3.035717 
127 "AG9" 20.90791 23.32189 0.00000 4.042595 4.902484 1.593045 
128 "A10" 0.00000 48.40162 86.73838 21.01092 20.30544 71.54292 
129 "AC6" 0.00000 69.21645 84.75776 28.75725 36.84755 70.88183 
130 "B6" 100.0000 66.80247 53.26314 60.51360 52.39518 30.78668 
131 "I2" 30.50736 15.12169 41.48775 7.363386 5.029299 14.89085 
132 "N13" 79.70855 60.06561 21.42519 37.43331 36.48591 9.465183 
133 "L17" 70.49973 32.53376 4.428168 22.70460 16.72464 3.214542 
134 "T11" 46.27909 66.59190 52.68177 26.87895 34.91737 28.64251 
135 "N15" 78.50919 47.36095 100.0000 49.24876 33.81619 98.48387 
136 "P7" 57.44869 83.54925 38.86778 38.62915 55.12504 21.18410 
137 "Y2" 0.00000 68.41993 67.29076 23.40956 34.08055 44.65260 
138 "D5" 71.92035 48.36652 60.10681 33.19680 27.40882 34.36369 
139 "C7" 92.65431 4.786755 35.51232 37.32007 19.70958 12.40085 
140 "AG5" 79.36828 21.37331 19.62615 27.11974 16.37434 5.585601 
141 "AD16" 58.52750 62.59709 0.00000 25.69677 32.10913 5.704235 
142 "H9" 0.00000 28.69154 21.44045 4.044547 6.008325 5.345343 
143 "AA4" 20.91096 0.00000 0.00000 2.470379 1.758132 1.068899 
144 "J9" 66.14481 70.31968 88.77699 46.79510 46.81334 78.95812 
145 "AA14" 55.48638 0.00000 64.36408 18.60429 9.308112 36.51848 
146 "M11" 84.16571 57.01228 57.00923 43.80771 37.44735 32.45907 
147 "B15" 85.90066 44.49989 77.54330 45.89831 31.74091 57.31809 
148 "AB14" 46.27146 18.36423 33.78958 11.06511 7.480079 10.47389 
149 "O5" 87.63867 73.96353 0.00000 49.20856 52.47186 8.396510 
150 "AA17" 49.54452 35.83124 24.88746 14.20448 13.24767 7.393384 
151 "C5" 79.34844 100.0000 0.00000 60.61125 84.28123 13.93609 
152 "E17" 13.30892 38.23606 52.77485 10.22979 11.61098 25.10734 
153 "W6" 69.39803 91.42901 86.90776 60.83695 73.22464 79.96065 
154 "AH17" 56.62928 45.50088 72.40406 27.27578 22.73137 49.06170 
155 "U8" 100.0000 85.14076 63.68353 72.91682 73.83138 45.30430 
156 "I17" 80.32044 33.57900 48.24750 32.68401 21.77272 21.90849 
157 "H17" 25.96170 79.51019 0.00000 24.32424 44.32061 8.133694 
158 "V6" 100.0000 53.78042 0.00000 50.70683 39.80301 5.872142 
159 "T12" 29.84512 29.25460 84.07263 18.48926 12.27901 65.51267 
160 "D3" 73.80331 0.108339 64.36408 28.23073 14.27595 36.97041 
161 "AH3" 0.238041 98.47715 100.0000 53.07015 76.52471 106.5266 
162 "A9" 53.44472 86.70939 93.45388 52.05083 63.58456 90.73102 
163 "T3" 73.50271 77.56161 53.07088 45.69264 53.14060 31.53151 
164 "AD7" 88.86244 0.00000 100.0000 50.11010 24.25424 96.59276 
165 "D10" 100.0000 49.29732 46.57664 52.46339 38.06335 22.65581 
166 "AE3" 59.74365 0.00000 29.89548 15.18385 8.162916 8.449064 
167 "AF12" 90.32731 32.85115 14.08255 36.85061 24.08079 5.212887 
168 "O11" 80.51270 100.0000 79.62463 72.09384 88.96662 70.21502 
169 "AE11" 0.00000 25.13313 51.17571 6.842655 6.248689 22.79320 
170 "J2" 47.45251 100.0000 64.26490 50.83604 78.47499 48.05383 
171 "V13" 60.74311 100.0000 31.13909 51.18009 79.25518 20.86490 
172 "AH15" 92.36591 74.79667 91.69909 68.16329 61.22168 86.04949 
173 "R4" 66.93980 77.53262 85.28573 49.95275 54.37448 74.05881 
174 "AC3" 100.0000 28.25208 61.67239 50.17539 29.06476 35.53453 
175 "K15" 68.70069 60.35248 45.78012 33.13293 34.15663 22.29506 
176 "A1" 69.67422 39.71618 31.94324 25.22429 20.19537 11.22767 
177 "U17" 15.33227 0.00000 14.83787 2.175803 1.566484 2.849723 
178 "I11" 58.07126 93.29213 78.47715 53.68282 71.84981 66.08565 
179 "B10" 0.00000 67.48455 35.00877 17.41904 30.95929 15.33717 
180 "Y8" 59.58495 78.13535 0.00000 34.08619 48.15250 8.359217 
181 "E11" 55.49248 16.26459 91.67468 27.43341 14.12150 79.05679 
182 "AC12" 46.11429 40.32197 0.00000 13.12685 14.35363 2.938941 
183 "T8" 44.58534 45.67788 87.89807 27.40927 22.33210 73.66226 
184 "S16" 56.46754 71.96155 71.96307 37.76858 44.00751 52.00383 
185 "D12" 55.92889 23.21050 53.27535 18.09759 11.62013 25.16230 
186 "S10" 81.17647 58.88914 38.51835 39.49450 36.65938 17.35365 
187 "P16" 46.09140 52.03174 31.20775 18.01394 21.86925 11.56812 
188 "U10" 81.12459 0.00000 42.50095 29.13942 15.19650 16.41225 
189 "Q14" 47.67224 23.32341 0.00000 10.45777 8.210426 1.893699 
190 "R9" 45.86252 70.31510 88.77699 37.92052 42.23467 78.54171 
191 "Q11" 52.19806 37.99039 39.76959 17.15964 15.32515 15.21134 
192 "AF16" 92.10956 93.29213 81.68307 76.43068 83.46593 72.22754 
193 "M2" 60.37079 99.18822 100.0000 66.80970 84.44498 107.3318 
194 "A7" 46.19669 100.0000 91.99054 58.56191 81.51432 91.02727 
195 "AD6" 43.98413 52.73060 60.41047 21.91850 23.73789 34.58296 
196 "AD14" 100.0000 60.28992 72.94270 62.00419 48.35565 52.93429 
197 "T16" 85.23690 97.94461 44.84932 66.23577 84.40835 29.53839 
198 "AG15" 12.79011 18.33371 28.50233 3.785827 3.779031 7.577403 
199 "N10" 35.48638 0.00000 14.27481 5.543135 3.305283 2.890528 
200 "L13" 57.55093 37.53109 0.155642 16.98607 15.34874 2.939011 
201 "AC5" 55.19341 0.00000 38.28946 13.99819 7.451378 12.91592 
202 "Q13" 37.76761 33.57748 48.24750 12.61465 11.42475 20.96804 
203 "I4" 0.00000 0.00000 50.73472 4.947703 2.578832 21.79296 
204 "J13" 80.30213 67.64324 100.0000 58.43345 50.36063 101.1937 
205 "U7" 45.23537 67.37621 100.0000 40.48713 40.91657 100.3159 
206 "I14" 23.40124 74.48234 61.60220 27.07428 40.78107 38.93198 
207 "P2" 41.39315 49.48806 70.40208 22.35261 22.07118 46.45258 
208 "AC16" 100.0000 38.39933 96.52552 62.63795 37.27989 91.21190 
209 "H13" 83.12810 74.89586 40.90639 48.80746 52.73275 21.52042 
210 "R3" 71.05058 20.22889 28.97078 22.32531 13.63158 8.709395 
211 "F11" 89.62997 0.00000 13.00984 33.12639 17.53275 3.936941 
212 "D1" 57.57534 15.25292 0.00000 13.59535 8.555188 1.794997 
213 "X3" 35.30785 43.05180 35.07591 12.47917 14.86865 12.52915 
214 "Q17" 0.00000 49.82223 39.40490 10.82063 16.95797 15.62443 
215 "S8" 0.00000 15.24071 85.33303 14.19140 7.417877 66.95807 
216 "Z14" 77.91867 70.29374 77.16793 50.20157 48.97748 59.84960 
217 "AB10" 70.40513 49.49264 70.40208 35.04897 28.61947 47.04789 
218 "S4" 34.98131 62.45823 0.00000 17.41880 27.75106 5.298985 
219 "AF2" 32.96254 23.87121 0.00000 6.270212 6.159469 1.718355 
220 "E14" 41.70138 15.16442 72.14008 16.19369 8.893882 46.60793 
221 "J6" 96.63691 50.25711 57.00771 51.52723 37.83586 32.12530 
222 "Y1" 65.98459 35.97620 39.11955 23.07516 17.71036 14.94114 
223 "AA7" 69.20272 43.29442 25.23537 25.32090 21.68965 8.568241 
224 "AC1" 57.06722 0.00000 6.805524 12.75489 7.048953 2.088256 
225 "AF9" 76.62470 44.69520 0.00000 29.33748 24.44848 4.033756 
226 "Q5" 74.65782 17.94308 0.00000 23.07566 13.80395 2.308850 
227 "AE16" 19.24620 26.16312 64.35950 10.87337 8.246698 36.71574 
228 "AF3" 45.43984 0.00000 14.84550 8.457946 4.805542 3.145673 
229 "AF10" 95.68170 100.0000 69.43160 81.20054 93.98773 55.94411 
230 "X10" 23.90631 36.35920 12.64210 7.015149 9.786358 3.749371 
231 "U14" 71.37713 0.00000 17.55856 20.56710 11.03511 4.342619 
232 "AG6" 44.06653 58.15213 98.11856 35.30711 32.33593 94.97121 
233 "S13" 41.79599 82.92210 57.83169 35.37852 52.51168 36.66155 
234 "AG13" 34.46708 60.30213 66.35233 23.48673 28.69604 42.43054 
235 "N6" 89.27443 91.78149 17.97360 62.19497 75.74788 14.74795 
236 "F15" 100.0000 66.95964 34.67613 57.96311 51.49549 16.98181 
237 "A6" 73.10597 60.24414 55.33989 37.29730 36.05134 30.85456 
238 "X5" 19.32708 37.23659 39.52850 8.630957 10.67356 14.60618 
239 "AE2" 19.07073 14.74479 4.417487 2.971316 3.009002 1.605525 
240 "U2" 79.06767 35.84192 23.90173 29.58409 21.18898 7.756602 
241 "AB2" 50.81712 52.41474 14.04135 18.75725 22.57695 5.867119 
242 "O10" 88.87465 72.94270 73.98337 58.69113 55.50026 55.96733 
243 "J8" 85.86709 51.09789 36.99397 39.86977 32.59670 15.61746 
244 "X6" 93.83078 62.43839 0.00000 48.64491 43.83850 6.759707 
245 "W17" 28.62898 17.32204 21.25124 5.282293 4.464058 4.922376 
246 "Q6" 32.26673 42.25834 0.00000 9.753570 13.35573 2.923981 
247 "P9" 38.06668 86.39200 84.10010 43.38085 59.17756 73.30216 
248 "A2" 5.621424 72.90150 80.25330 29.41615 40.16444 64.03859 
249 "AD12" 95.24376 73.67971 57.03212 60.42441 57.43773 35.46595 
250 "AG14" 81.40383 41.14595 41.12154 34.14814 25.21129 17.12529 
251 "B14" 49.84207 28.78004 25.23079 12.98977 10.61344 7.077848 
252 "K7" 67.66003 59.23247 9.362936 29.08586 31.73413 6.302415 
253 "E16" 58.27115 44.67689 0.00000 19.14731 19.18646 3.554730 
254 "F9" 66.04868 0.00000 0.00000 17.07753 9.289627 1.753365 
255 "S1" 0.00000 39.29046 64.44343 12.19397 12.72382 37.61009 
256 "AE9" 37.52346 8.865492 52.06989 10.21544 5.707225 23.31955 
257 "G14" 88.64271 100.0000 91.99817 82.25810 93.73186 92.15100 
258 "AG17" 0.00000 1.087968 24.35798 1.893754 1.405132 5.560425 
259 "B1" 38.08194 0.00000 34.71733 7.658010 4.228650 10.52978 
260 "C1" 49.65591 36.19440 46.05173 16.62843 14.34872 19.55210 
261 "W16" 45.31777 32.16144 100.0000 28.93270 17.77005 96.45650 
262 "AG12" 75.79309 80.68055 37.57534 46.71376 56.66688 20.25339 
263 "AF4" 47.31365 77.57076 77.57076 38.77750 48.92077 61.05111 
264 "O2" 99.39117 65.97086 100.0000 73.04328 56.71484 101.6508 
265 "N16" 66.58885 47.81262 45.79232 27.41703 24.46712 20.73484 
266 "AF7" 0.00000 94.24887 38.54429 34.14450 63.76614 22.88422 
267 "S17" 67.36858 29.91226 50.37613 24.26398 16.37107 23.12347 
268 "E7" 43.54925 34.21836 69.16762 18.68751 14.25657 43.49819 
269 "V16" 0.00000 48.31312 24.48463 8.909722 15.42106 7.942422 
270 "U16" 17.55550 92.28351 64.78676 38.30934 63.24644 46.39935 
271 "K17" 37.41512 62.35599 30.44785 19.33954 28.51920 12.41749 
272 "L7" 56.93599 23.32799 0.00000 14.16700 10.12405 2.067726 
273 "O16" 66.80400 70.89799 61.59915 39.83816 44.54498 38.98409 
274 "Y6" 36.84291 34.43198 24.96834 9.911193 10.59383 7.137475 
275 "Y14" 20.69123 72.10040 23.90784 20.21545 35.95388 11.10238 
276 "B13" 0.00000 62.87785 91.97528 28.28499 31.91632 83.01996 
277 "W1" 100.0000 50.78202 24.95918 50.57366 38.08687 10.29906 
278 "L11" 44.06653 81.60525 98.14603 47.14412 55.98842 98.97312 
279 "G8" 0.00000 53.80941 71.68536 18.32863 22.14763 48.42529 
280 "AB13" 33.64462 64.99733 42.57572 20.94566 30.93945 19.93569 
281 "R8" 85.45052 70.47227 46.32639 48.94158 49.23839 24.80047 
282 "X17" 100.0000 28.48859 34.57847 45.91722 27.42360 12.91559 
283 "W13" 14.16190 24.68910 22.94957 4.251025 5.195577 5.671977 
284 "G9" 32.81147 14.39841 2.800031 5.275671 4.159300 1.587697 
285 "P1" 34.01694 32.55055 4.428168 7.991933 9.143596 2.526070 
286 "E5" 99.34691 77.05806 33.63699 62.53640 61.70871 18.14934 
287 "E1" 50.81254 23.26848 30.38987 12.95865 9.333850 9.022747 
288 "Z12" 78.60685 62.07218 74.19852 45.97139 41.17016 54.17814 
289 "P5" 91.28862 0.00000 82.46281 45.75272 22.73848 63.40100 
290 "AH7" 79.04326 77.43038 17.78592 45.34271 53.29650 11.25320 
291 "J1" 26.25620 32.75807 38.58701 8.592764 9.265447 13.73605 
292 "AD5" 9.156939 56.22950 9.373617 11.30257 20.81168 5.132128 
293 "Y4" 57.92020 45.87930 25.62142 20.28857 20.18110 8.689607 
294 "AH12" 55.72595 65.82284 32.24842 27.41390 34.97765 14.11870 
295 "L16" 32.27131 0.00000 0.00000 4.470325 2.789311 1.162613 
296 "K10" 76.65064 26.84520 86.90471 38.47571 21.89668 71.22318 
297 "Z8" 41.64645 87.02831 44.63111 35.74579 56.91979 25.67304 
298 "X12" 63.17693 81.92111 58.12314 43.43071 55.72913 37.16314 
299 "D9" 63.39361 59.97101 34.99046 28.74312 31.81706 14.89646 
300 "R5" 66.98100 26.64988 23.74151 20.45057 13.96723 6.786666 
301 "T6" 46.76432 19.58801 11.19860 9.907573 7.240914 2.858344 
302 "Z16" 79.29198 52.84657 88.88380 47.39228 36.01916 77.03809 
303 "H10" 100.0000 0.00000 71.63195 50.25772 25.42266 47.30201 
304 "J7" 89.13863 88.73274 100.0000 77.32845 78.35786 105.6028 
305 "P4" 51.34051 48.88685 36.30579 19.41123 20.98215 14.04647 
306 "AB5" 64.67384 59.38048 72.94270 36.14536 34.46667 51.61509 
307 "AG8" 100.0000 49.29274 75.36431 58.61852 40.52251 55.08327 
308 "G2" 43.17845 36.35309 19.57885 11.79745 12.21458 5.575988 
309 "Q8" 95.64355 63.08995 84.11536 62.57734 50.04853 70.55400 
310 "M1" 64.82338 58.72892 100.0000 45.05558 37.61743 99.43846 
311 "D2" 33.00374 52.02869 48.84260 16.53071 20.84614 23.07784 
312 "R6" 18.31998 56.74525 58.12772 17.43764 23.67226 32.34925 
313 "V12" 0.00000 90.34562 100.0000 46.99247 64.38217 104.5028 
314 "C16" 28.88685 80.44251 92.52613 40.39772 51.70504 87.25711 
315 "AC11" 29.83139 54.26108 75.40551 22.45801 24.40214 53.93695 
316 "M10" 38.54429 67.20836 60.74769 26.35700 34.90166 36.87678 
317 "A13" 52.40864 60.33875 56.27680 27.04324 30.80287 31.31514 
318 "O15" 60.23957 35.42687 69.88479 25.74583 18.25082 44.84485 
319 "AC10" 66.65599 18.97612 52.90303 22.79253 13.31275 24.89357 
320 "N9" 46.99474 7.783627 0.00000 8.891249 5.432381 1.439961 
321 "P10" 11.75402 0.00000 36.85512 3.528753 2.072561 11.55625 
322 "R13" 25.92355 33.57137 48.24750 10.03698 10.09385 20.84690 
323 "B12" 56.11353 36.11048 84.88289 28.35665 19.31310 67.73390 
324 "AF15" 78.37186 70.33341 90.69657 54.89243 50.92085 82.86930 
325 "G16" 81.83871 48.53742 69.26833 41.87479 31.71927 45.78056 
326 "O17" 77.60281 0.00000 2.415503 24.06098 12.88645 2.254995 
327 "AG3" 89.79629 48.92500 14.04135 40.52925 32.07631 6.554147 
328 "P14" 62.21408 0.988785 24.35798 15.97791 8.662943 6.219607 
329 "M14" 55.02556 72.05005 23.50652 29.48115 40.69491 11.38761 
330 "G5" 42.54673 55.48333 1.341268 16.70214 23.19448 4.554397 
331 "AB7" 49.47738 62.19730 84.84627 34.06808 34.74250 70.34691 
332 "I10" 11.90967 0.00000 5.105669 1.612840 1.307649 1.404816 
333 "N1" 50.74540 29.94888 48.41688 16.17606 12.24698 21.08001 
334 "I12" 75.51995 85.67636 87.02525 60.65446 67.26973 79.02910 
335 "AC13" 45.35592 54.92180 69.15846 25.17167 26.35233 45.47862 
336 "AG16" 91.54345 95.00572 53.27230 70.31635 83.00478 36.18779 
337 "H12" 89.62692 29.05776 76.22797 44.96446 26.15575 54.30665 
338 "I1" 58.62821 40.29603 21.47555 18.81736 17.19943 6.738389 
339 "J14" 20.12055 39.40185 25.45510 7.866441 11.19494 7.545170 
340 "K14" 56.72694 2.760357 53.25246 16.96150 8.834816 24.66248 
341 "M7" 38.97917 44.48310 74.90349 21.34292 19.15968 52.24864 
342 "Q10" 46.89250 0.00000 100.0000 26.48186 12.07144 95.48559 
343 "B17" 72.08209 0.00000 100.0000 38.39641 18.21463 96.04388 
344 "T13" 57.66690 35.59014 25.23384 17.53125 14.88275 7.663742 
345 "Y5" 37.96902 54.81498 85.19417 27.54664 26.98207 69.79195 
346 "M9" 93.58358 51.74029 98.11551 61.39748 42.27313 95.51072 
347 "AB8" 77.23964 73.67666 57.03212 46.65914 50.33865 34.82061 
348 "N4" 48.16968 94.25193 38.54429 42.21044 67.92888 23.26293 
349 "B9" 39.68414 24.69368 25.13619 9.012270 7.634117 6.676252 
350 "AA6" 3.360037 19.30266 23.73541 3.024184 3.576247 5.696701 
351 "Q16" 97.90799 61.13375 56.68116 56.69180 46.57592 33.20687 
352 "Q12" 0.00000 91.97223 87.02678 43.32425 64.76996 79.46153 
353 "AH9" 78.01938 100.0000 63.76593 66.22082 86.42054 48.18345 
354 "N7" 43.49279 92.57496 97.19692 53.94852 70.46602 99.44792 
355 "AD11" 0.00000 51.17113 81.31075 20.15978 21.40900 62.60665 
356 "E12" 40.59205 65.41085 64.64637 26.95180 33.85558 41.15635 
357 "K12" 83.40276 30.10758 58.58244 36.08857 22.34328 31.59068 
358 "A16" 46.48508 33.65377 7.631037 11.87008 11.45894 3.076981 
359 "G11" 69.65743 50.72404 22.71763 27.66455 26.26340 8.427189 
360 "W3" 40.61189 1.988251 1.866178 6.682062 4.007562 1.416625 
361 "AC7" 81.29854 63.96735 52.68330 43.83423 41.86490 29.09172 
362 "G3" 45.67941 100.0000 0.00000 43.59990 75.51012 13.13897 
363 "Y15" 47.70886 100.0000 78.46036 54.63414 80.00450 67.58453 
364 "AF6" 62.70390 59.56054 53.27230 30.81814 32.33619 28.48726 
