Pre-made_Targets/Patch Width 8-11mm - Expert (Use rig-guide-ruler)/Generated Targets/CM-Expert-Letter-578p-2pages-w11.0mm-17x18/CM-Expert-Letter-578p-2pages.ti1
CTI1   

DESCRIPTOR "Argyll Calibration Target chart information 1"
ORIGINATOR "Argyll targen"
CREATED "Sun Feb  8 17:31:15 2026"
APPROX_WHITE_POINT "95.106486 100.000000 108.844025"
COLOR_REP "iRGB"
TOTAL_INK_LIMIT "300.0"
WHITE_COLOR_PATCHES "6"
BLACK_COLOR_PATCHES "6"
COMP_GREY_STEPS "108"
IFP_PATCHES "460"

NUMBER_OF_FIELDS 7
BEGIN_DATA_FORMAT
SAMPLE_ID RGB_R RGB_G RGB_B XYZ_X XYZ_Y XYZ_Z 
END_DATA_FORMAT

NUMBER_OF_SETS 578
BEGIN_DATA
1 100.0000 100.0000 100.0000 95.10649 100.0000 108.8440 
2 100.0000 100.0000 100.0000 95.10649 100.0000 108.8440 
3 100.0000 100.0000 100.0000 95.10649 100.0000 108.8440 
4 100.0000 100.0000 100.0000 95.10649 100.0000 108.8440 
5 100.0000 100.0000 100.0000 95.10649 100.0000 108.8440 
6 100.0000 100.0000 100.0000 95.10649 100.0000 108.8440 
7 0.00000 0.00000 0.00000 1.000000 1.000000 1.000000 
8 0.00000 0.00000 0.00000 1.000000 1.000000 1.000000 
9 0.00000 0.00000 0.00000 1.000000 1.000000 1.000000 
10 0.00000 0.00000 0.00000 1.000000 1.000000 1.000000 
11 0.00000 0.00000 0.00000 1.000000 1.000000 1.000000 
12 0.00000 0.00000 0.00000 1.000000 1.000000 1.000000 
13 99.06542 99.06542 99.06542 93.11812 97.90824 106.5654 
14 98.13084 98.13084 98.13084 91.15448 95.84249 104.3151 
15 97.19626 97.19626 97.19626 89.21548 93.80266 102.0931 
16 96.26168 96.26168 96.26168 87.30102 91.78865 99.89913 
17 95.32710 95.32710 95.32710 85.41102 89.80037 97.73323 
18 94.39252 94.39252 94.39252 83.54539 87.83773 95.59525 
19 93.45794 93.45794 93.45794 81.70403 85.90062 93.48510 
20 92.52336 92.52336 92.52336 79.88687 83.98896 91.40267 
21 91.58879 91.58879 91.58879 78.09379 82.10265 89.34784 
22 90.65421 90.65421 90.65421 76.32472 80.24159 87.32052 
23 89.71963 89.71963 89.71963 74.57956 78.40568 85.32061 
24 88.78505 88.78505 88.78505 72.85821 76.59482 83.34798 
25 87.85047 87.85047 87.85047 71.16059 74.80893 81.40254 
26 86.91589 86.91589 86.91589 69.48660 73.04788 79.48418 
27 85.98131 85.98131 85.98131 67.83614 71.31160 77.59279 
28 85.04673 85.04673 85.04673 66.20911 69.59997 75.72825 
29 84.11215 84.11215 84.11215 64.60543 67.91290 73.89047 
30 83.17757 83.17757 83.17757 63.02499 66.25028 72.07932 
31 82.24299 82.24299 82.24299 61.46771 64.61201 70.29470 
32 81.30841 81.30841 81.30841 59.93347 62.99799 68.53650 
33 80.37383 80.37383 80.37383 58.42218 61.40812 66.80459 
34 79.43925 79.43925 79.43925 56.93374 59.84229 65.09888 
35 78.50467 78.50467 78.50467 55.46806 58.30039 63.41924 
36 77.57009 77.57009 77.57009 54.02503 56.78232 61.76555 
37 76.63551 76.63551 76.63551 52.60455 55.28797 60.13771 
38 75.70093 75.70093 75.70093 51.20652 53.81725 58.53560 
39 74.76636 74.76636 74.76636 49.83084 52.37003 56.95910 
40 73.83178 73.83178 73.83178 48.47739 50.94621 55.40808 
41 72.89720 72.89720 72.89720 47.14609 49.54568 53.88244 
42 71.96262 71.96262 71.96262 45.83682 48.16833 52.38204 
43 71.02804 71.02804 71.02804 44.54949 46.81405 50.90678 
44 70.09346 70.09346 70.09346 43.28397 45.48273 49.45653 
45 69.15888 69.15888 69.15888 42.04017 44.17425 48.03116 
46 68.22430 68.22430 68.22430 40.81798 42.88850 46.63056 
47 67.28972 67.28972 67.28972 39.61729 41.62538 45.25459 
48 66.35514 66.35514 66.35514 38.43799 40.38475 43.90313 
49 65.42056 65.42056 65.42056 37.27996 39.16651 42.57606 
50 64.48598 64.48598 64.48598 36.14311 37.97054 41.27325 
51 63.55140 63.55140 63.55140 35.02731 36.79672 39.99457 
52 62.61682 62.61682 62.61682 33.93246 35.64494 38.73990 
53 61.68224 61.68224 61.68224 32.85844 34.51507 37.50909 
54 60.74766 60.74766 60.74766 31.80513 33.40699 36.30202 
55 59.81308 59.81308 59.81308 30.77242 32.32058 35.11856 
56 58.87850 58.87850 58.87850 29.76019 31.25571 33.95857 
57 57.94393 57.94393 57.94393 28.76833 30.21228 32.82191 
58 57.00935 57.00935 57.00935 27.79671 29.19014 31.70846 
59 56.07477 56.07477 56.07477 26.84522 28.18917 30.61808 
60 55.14019 55.14019 55.14019 25.91374 27.20925 29.55061 
61 54.20561 54.20561 54.20561 25.00214 26.25024 28.50594 
62 53.27103 53.27103 53.27103 24.11030 25.31203 27.48391 
63 52.33645 52.33645 52.33645 23.23809 24.39447 26.48438 
64 51.40187 51.40187 51.40187 22.38540 23.49743 25.50721 
65 50.46729 50.46729 50.46729 21.55209 22.62079 24.55225 
66 49.53271 49.53271 49.53271 20.73803 21.76440 23.61936 
67 48.59813 48.59813 48.59813 19.94310 20.92814 22.70839 
68 47.66355 47.66355 47.66355 19.16717 20.11186 21.81919 
69 46.72897 46.72897 46.72897 18.41010 19.31542 20.95160 
70 45.79439 45.79439 45.79439 17.67176 18.53869 20.10548 
71 44.85981 44.85981 44.85981 16.95201 17.78151 19.28067 
72 43.92523 43.92523 43.92523 16.25073 17.04376 18.47701 
73 42.99065 42.99065 42.99065 15.56777 16.32529 17.69435 
74 42.05607 42.05607 42.05607 14.90299 15.62594 16.93252 
75 41.12150 41.12150 41.12150 14.25625 14.94557 16.19137 
76 40.18692 40.18692 40.18692 13.62740 14.28403 15.47074 
77 39.25234 39.25234 39.25234 13.01632 13.64116 14.77044 
78 38.31776 38.31776 38.31776 12.42284 13.01682 14.09033 
79 37.38318 37.38318 37.38318 11.84682 12.41085 13.43022 
80 36.44860 36.44860 36.44860 11.28811 11.82309 12.78995 
81 35.51402 35.51402 35.51402 10.74656 11.25338 12.16935 
82 34.57944 34.57944 34.57944 10.22201 10.70155 11.56823 
83 33.64486 33.64486 33.64486 9.714311 10.16745 10.98641 
84 32.71028 32.71028 32.71028 9.223301 9.650911 10.42373 
85 31.77570 31.77570 31.77570 8.748821 9.151758 9.879983 
86 30.84112 30.84112 30.84112 8.290707 8.669822 9.354995 
87 29.90654 29.90654 29.90654 7.848794 8.204929 8.848572 
88 28.97196 28.97196 28.97196 7.422914 7.756903 8.360522 
89 28.03738 28.03738 28.03738 7.012896 7.325565 7.890650 
90 27.10280 27.10280 27.10280 6.618567 6.910731 7.438757 
91 26.16822 26.16822 26.16822 6.239750 6.512216 7.004642 
92 25.23364 25.23364 25.23364 5.876266 6.129831 6.588097 
93 24.29907 24.29907 24.29907 5.527933 5.763384 6.188915 
94 23.36449 23.36449 23.36449 5.194564 5.412680 5.806881 
95 22.42991 22.42991 22.42991 4.875970 5.077520 5.441779 
96 21.49533 21.49533 21.49533 4.571957 4.757698 5.093387 
97 20.56075 20.56075 20.56075 4.282329 4.453010 4.761479 
98 19.62617 19.62617 19.62617 4.006884 4.163241 4.445825 
99 18.69159 18.69159 18.69159 3.745416 3.888177 4.146188 
100 17.75701 17.75701 17.75701 3.497715 3.627596 3.862328 
101 16.82243 16.82243 16.82243 3.263566 3.381271 3.593998 
102 15.88785 15.88785 15.88785 3.042748 3.148970 3.340946 
103 14.95327 14.95327 14.95327 2.835035 2.930456 3.102911 
104 14.01869 14.01869 14.01869 2.640194 2.725484 2.879628 
105 13.08411 13.08411 13.08411 2.457988 2.533803 2.670823 
106 12.14953 12.14953 12.14953 2.288171 2.355155 2.476216 
107 11.21495 11.21495 11.21495 2.130488 2.189273 2.295515 
108 10.28037 10.28037 10.28037 1.984680 2.035883 2.128422 
109 9.345794 9.345794 9.345794 1.850476 1.894700 1.974627 
110 8.411215 8.411215 8.411215 1.727595 1.765430 1.833809 
111 7.476636 7.476636 7.476636 1.615748 1.647766 1.705634 
112 6.542056 6.542056 6.542056 1.514630 1.541391 1.589755 
113 5.607477 5.607477 5.607477 1.423927 1.445971 1.485811 
114 4.672897 4.672897 4.672897 1.343306 1.361157 1.393421 
115 3.738318 3.738318 3.738318 1.272291 1.286450 1.312040 
116 2.803738 2.803738 2.803738 1.204218 1.214838 1.234030 
117 1.869159 1.869159 1.869159 1.136145 1.143225 1.156020 
118 0.934579 0.934579 0.934579 1.068073 1.071613 1.078010 
119 0.00000 0.00000 100.0000 18.87111 8.147314 95.12896 
120 0.00000 100.0000 0.00000 36.40521 71.80052 12.80184 
121 0.00000 95.53509 78.50033 43.25735 68.95733 66.11272 
122 100.0000 0.00000 0.00000 41.83017 22.05217 2.913230 
123 100.0000 93.78256 46.69848 75.73424 84.56897 30.50401 
124 77.12376 0.00000 52.26642 27.92134 14.39368 24.24300 
125 49.31761 13.01595 14.31750 10.35043 6.590681 3.280281 
126 18.20908 44.67056 0.00000 8.082491 13.47863 3.035717 
127 20.90844 23.32145 0.00000 4.042595 4.902484 1.593045 
128 0.00000 48.40170 86.73857 21.01092 20.30544 71.54292 
129 0.00000 69.21579 84.75739 28.75725 36.84755 70.88183 
130 100.0000 66.80189 53.26276 60.51360 52.39518 30.78668 
131 30.50782 15.12206 41.48828 7.363386 5.029299 14.89085 
132 79.70922 60.06610 21.42585 37.43331 36.48591 9.465183 
133 70.50001 32.53360 4.427978 22.70460 16.72464 3.214542 
134 46.27858 66.59185 52.68186 26.87895 34.91737 28.64251 
135 78.50969 47.36145 100.0000 49.24876 33.81619 98.48387 
136 57.44800 83.54932 38.86822 38.62915 55.12504 21.18410 
137 0.00000 68.41948 67.29031 23.40956 34.08055 44.65260 
138 71.91976 48.36724 60.10681 33.19680 27.40882 34.36369 
139 92.65442 4.787085 35.51188 37.32007 19.70958 12.40085 
140 79.36811 21.37383 19.62613 27.11974 16.37434 5.585601 
141 58.52712 62.59701 0.00000 25.69677 32.10913 5.704235 
142 0.00000 28.69128 21.44075 4.044547 6.008325 5.345343 
143 20.91025 0.00000 0.00000 2.470379 1.758132 1.068899 
144 66.14424 70.31921 88.77743 46.79510 46.81334 78.95812 
145 55.48695 0.00000 64.36429 18.60429 9.308112 36.51848 
146 84.16550 57.01263 57.00935 43.80771 37.44735 32.45907 
147 85.90136 44.49991 77.54270 45.89831 31.74091 57.31809 
148 46.27122 18.36403 33.78992 11.06511 7.480079 10.47389 
149 87.63851 73.96354 0.00000 49.20856 52.47186 8.396510 
150 49.54389 35.83112 24.88793 14.20448 13.24767 7.393384 
151 79.34870 100.0000 0.00000 60.61125 84.28123 13.93609 
152 13.30872 38.23581 52.77540 10.22979 11.61098 25.10734 
153 69.39803 91.42914 86.90843 60.83695 73.22464 79.96065 
154 56.62975 45.50159 72.40348 27.27578 22.73137 49.06170 
155 100.0000 85.14140 63.68416 72.91682 73.83138 45.30430 
156 80.32100 33.57859 48.24767 32.68401 21.77272 21.90849 
157 25.96153 79.51092 0.00000 24.32424 44.32061 8.133694 
158 100.0000 53.78050 0.00000 50.70683 39.80301 5.872142 
159 29.84507 29.25392 84.07223 18.48926 12.27901 65.51267 
160 73.80397 0.108560 64.36429 28.23073 14.27595 36.97041 
161 0.237436 98.47780 100.0000 53.07015 76.52471 106.5266 
162 53.44514 86.70893 93.45373 52.05083 63.58456 90.73102 
163 73.50309 77.56222 53.07107 45.69264 53.14060 31.53151 
164 88.86278 0.00000 100.0000 50.11010 24.25424 96.59276 
165 100.0000 49.29782 46.57654 52.46339 38.06335 22.65581 
166 59.74307 0.00000 29.89556 15.18385 8.162916 8.449064 
167 90.32743 32.85149 14.08261 36.85061 24.08079 5.212887 
168 80.51287 100.0000 79.62502 72.09384 88.96662 70.21502 
169 0.00000 25.13339 51.17507 6.842655 6.248689 22.79320 
170 47.45275 100.0000 64.26537 50.83604 78.47499 48.05383 
171 60.74239 100.0000 31.13936 51.18009 79.25518 20.86490 
172 92.36583 74.79678 91.69899 68.16329 61.22168 86.04949 
173 66.93984 77.53336 85.28648 49.95275 54.37448 74.05881 
174 100.0000 28.25262 61.67303 50.17539 29.06476 35.53453 
175 68.70034 60.35178 45.78046 33.13293 34.15663 22.29506 
176 69.67469 39.71547 31.94364 25.22429 20.19537 11.22767 
177 15.33209 0.00000 14.83796 2.175803 1.566484 2.849723 
178 58.07109 93.29285 78.47688 53.68282 71.84981 66.08565 
179 0.00000 67.48481 35.00851 17.41904 30.95929 15.33717 
180 59.58494 78.13555 0.00000 34.08619 48.15250 8.359217 
181 55.49218 16.26412 91.67470 27.43341 14.12150 79.05679 
182 46.11444 40.32251 0.00000 13.12685 14.35363 2.938941 
183 44.58566 45.67826 87.89777 27.40927 22.33210 73.66226 
184 56.46707 71.96157 71.96262 37.76858 44.00751 52.00383 
185 55.92913 23.21087 53.27598 18.09759 11.62013 25.16230 
186 81.17676 58.88948 38.51848 39.49450 36.65938 17.35365 
187 46.09098 52.03249 31.20851 18.01394 21.86925 11.56812 
188 81.12428 0.00000 42.50042 29.13942 15.19650 16.41225 
189 47.67172 23.32278 0.00000 10.45777 8.210426 1.893699 
190 45.86254 70.31534 88.77743 37.92052 42.23467 78.54171 
191 52.19753 37.99093 39.76886 17.15964 15.32515 15.21134 
192 92.11024 93.29259 81.68272 76.43068 83.46593 72.22754 
193 60.37068 99.18825 100.0000 66.80970 84.44498 107.3318 
194 46.19744 100.0000 91.99045 58.56191 81.51432 91.02727 
195 43.98446 52.73001 60.41043 21.91850 23.73789 34.58296 
196 100.0000 60.29019 72.94276 62.00419 48.35565 52.93429 
197 85.23668 97.94530 44.84988 66.23577 84.40835 29.53839 
198 12.79082 18.33435 28.50292 3.785827 3.779031 7.577403 
199 35.48573 0.00000 14.27470 5.543135 3.305283 2.890528 
200 57.55043 37.53054 0.155043 16.98607 15.34874 2.939011 
201 55.19357 0.00000 38.29022 13.99819 7.451378 12.91592 
202 37.76689 33.57813 48.24767 12.61465 11.42475 20.96804 
203 0.00000 0.00000 50.73407 4.947703 2.578832 21.79296 
204 80.30140 67.64356 100.0000 58.43345 50.36063 101.1937 
205 45.23572 67.37621 100.0000 40.48713 40.91657 100.3159 
206 23.40183 74.48301 61.60163 27.07428 40.78107 38.93198 
207 41.39388 49.48822 70.40140 22.35261 22.07118 46.45258 
208 100.0000 38.39935 96.52552 62.63795 37.27989 91.21190 
209 83.12841 74.89594 40.90704 48.80746 52.73275 21.52042 
210 71.05031 20.22916 28.97145 22.32531 13.63158 8.709395 
211 89.63015 0.00000 13.00993 33.12639 17.53275 3.936941 
212 57.57501 15.25273 0.00000 13.59535 8.555188 1.794997 
213 35.30847 43.05147 35.07611 12.47917 14.86865 12.52915 
214 0.00000 49.82202 39.40489 10.82063 16.95797 15.62443 
215 0.00000 15.24118 85.33265 14.19140 7.417877 66.95807 
216 77.91916 70.29384 77.16828 50.20157 48.97748 59.84960 
217 70.40445 49.49240 70.40140 35.04897 28.61947 47.04789 
218 34.98089 62.45795 0.00000 17.41880 27.75106 5.298985 
219 32.96276 23.87197 0.00000 6.270212 6.159469 1.718355 
220 41.70075 15.16493 72.14002 16.19369 8.893882 46.60793 
221 96.63727 50.25724 57.00720 51.52723 37.83586 32.12530 
222 65.98393 35.97604 39.11957 23.07516 17.71036 14.94114 
223 69.20270 43.29424 25.23565 25.32090 21.68965 8.568241 
224 57.06665 0.00000 6.806177 12.75489 7.048953 2.088256 
225 76.62472 44.69591 0.00000 29.33748 24.44848 4.033756 
226 74.65798 17.94381 0.00000 23.07566 13.80395 2.308850 
227 19.24647 26.16319 64.36009 10.87337 8.246698 36.71574 
228 45.43945 0.00000 14.84542 8.457946 4.805542 3.145673 
229 95.68118 100.0000 69.43227 81.20054 93.98773 55.94411 
230 23.90595 36.35922 12.64261 7.015149 9.786358 3.749371 
231 71.37712 0.00000 17.55879 20.56710 11.03511 4.342619 
232 44.06622 58.15143 98.11802 35.30711 32.33593 94.97121 
233 41.79582 82.92204 57.83224 35.37852 52.51168 36.66155 
234 34.46753 60.30209 66.35210 23.48673 28.69604 42.43054 
235 89.27435 91.78155 17.97299 62.19497 75.74788 14.74795 
236 100.0000 66.96018 34.67678 57.96311 51.49549 16.98181 
237 73.10561 60.24349 55.34011 37.29730 36.05134 30.85456 
238 19.32758 37.23657 39.52798 8.630957 10.67356 14.60618 
239 19.07023 14.74439 4.417502 2.971316 3.009002 1.605525 
240 79.06719 35.84230 23.90175 29.58409 21.18898 7.756602 
241 50.81659 52.41494 14.04076 18.75725 22.57695 5.867119 
242 88.87395 72.94279 73.98411 58.69113 55.50026 55.96733 
243 85.86690 51.09822 36.99470 39.86977 32.59670 15.61746 
244 93.83092 62.43806 0.00000 48.64491 43.83850 6.759707 
245 28.62855 17.32211 21.25049 5.282293 4.464058 4.922376 
246 32.26723 42.25830 0.00000 9.753570 13.35573 2.923981 
247 38.06723 86.39243 84.10036 43.38085 59.17756 73.30216 
248 5.620743 72.90201 80.25289 29.41615 40.16444 64.03859 
249 95.24415 73.67927 57.03210 60.42441 57.43773 35.46595 
250 81.40382 41.14614 41.12150 34.14814 25.21129 17.12529 
251 49.84178 28.78000 25.23084 12.98977 10.61344 7.077848 
252 67.65958 59.23311 9.362928 29.08586 31.73413 6.302415 
253 58.27181 44.67713 0.00000 19.14731 19.18646 3.554730 
254 66.04869 0.00000 0.00000 17.07753 9.289627 1.753365 
255 0.00000 39.28989 64.44332 12.19397 12.72382 37.61009 
256 37.52338 8.865165 52.07053 10.21544 5.707225 23.31955 
257 88.64242 100.0000 91.99748 82.25810 93.73186 92.15100 
258 0.00000 1.087766 24.35786 1.893754 1.405132 5.560425 
259 38.08177 0.00000 34.71729 7.658010 4.228650 10.52978 
260 49.65522 36.19434 46.05161 16.62843 14.34872 19.55210 
261 45.31829 32.16166 100.0000 28.93270 17.77005 96.45650 
262 75.79302 80.68018 37.57591 46.71376 56.66688 20.25339 
263 47.31413 77.57024 77.57009 38.77750 48.92077 61.05111 
264 99.39176 65.97019 100.0000 73.04328 56.71484 101.6508 
265 66.58832 47.81334 45.79216 27.41703 24.46712 20.73484 
266 0.00000 94.24840 38.54464 34.14450 63.76614 22.88422 
267 67.36838 29.91295 50.37650 24.26398 16.37107 23.12347 
268 43.54880 34.21829 69.16807 18.68751 14.25657 43.49819 
269 0.00000 48.31283 24.48392 8.909722 15.42106 7.942422 
270 17.55484 92.28382 64.78613 38.30934 63.24644 46.39935 
271 37.41503 62.35536 30.44785 19.33954 28.51920 12.41749 
272 56.93594 23.32860 0.00000 14.16700 10.12405 2.067726 
273 66.80441 70.89838 61.59970 39.83816 44.54498 38.98409 
274 36.84282 34.43273 24.96882 9.911193 10.59383 7.137475 
275 20.69082 72.10105 23.90819 20.21545 35.95388 11.10238 
276 0.00000 62.87774 91.97573 28.28499 31.91632 83.01996 
277 100.0000 50.78276 24.95878 50.57366 38.08687 10.29906 
278 44.06622 81.60576 98.14675 47.14412 55.98842 98.97312 
279 0.00000 53.80925 71.68513 18.32863 22.14763 48.42529 
280 33.64397 64.99796 42.57529 20.94566 30.93945 19.93569 
281 85.45002 70.47258 46.32617 48.94158 49.23839 24.80047 
282 100.0000 28.48811 34.57857 45.91722 27.42360 12.91559 
283 14.16144 24.68887 22.94937 4.251025 5.195577 5.671977 
284 32.81161 14.39896 2.800100 5.275671 4.159300 1.587697 
285 34.01634 32.55054 4.427976 7.991933 9.143596 2.526070 
286 99.34712 77.05879 33.63735 62.53640 61.70871 18.14934 
287 50.81257 23.26802 30.38957 12.95865 9.333850 9.022747 
288 78.60747 62.07198 74.19783 45.97139 41.17016 54.17814 
289 91.28812 0.00000 82.46210 45.75272 22.73848 63.40100 
290 79.04375 77.43095 17.78516 45.34271 53.29650 11.25320 
291 26.25561 32.75751 38.58652 8.592764 9.265447 13.73605 
292 9.156746 56.22991 9.373500 11.30257 20.81168 5.132128 
293 57.91950 45.88005 25.62134 20.28857 20.18110 8.689607 
294 55.72536 65.82251 32.24790 27.41390 34.97765 14.11870 
295 32.27152 0.00000 0.00000 4.470325 2.789311 1.162613 
296 76.65098 26.84492 86.90424 38.47571 21.89668 71.22318 
297 41.64659 87.02759 44.63102 35.74579 56.91979 25.67304 
298 63.17729 81.92050 58.12331 43.43071 55.72913 37.16314 
299 63.39289 59.97066 34.99083 28.74312 31.81706 14.89646 
300 66.98088 26.64940 23.74123 20.45057 13.96723 6.786666 
301 46.76478 19.58861 11.19835 9.907573 7.240914 2.858344 
302 79.29136 52.84689 88.88445 47.39228 36.01916 77.03809 
303 100.0000 0.00000 71.63147 50.25772 25.42266 47.30201 
304 89.13824 88.73300 100.0000 77.32845 78.35786 105.6028 
305 51.34104 48.88750 36.30556 19.41123 20.98215 14.04647 
306 64.67391 59.38029 72.94265 36.14536 34.46667 51.61509 
307 100.0000 49.29296 75.36444 58.61852 40.52251 55.08327 
308 43.17870 36.35302 19.57832 11.79745 12.21458 5.575988 
309 95.64341 63.09001 84.11513 62.57734 50.04853 70.55400 
310 64.82280 58.72913 100.0000 45.05558 37.61743 99.43846 
311 33.00366 52.02901 48.84304 16.53071 20.84614 23.07784 
312 18.32033 56.74554 58.12808 17.43764 23.67226 32.34925 
313 0.00000 90.34577 100.0000 46.99247 64.38217 104.5028 
314 28.88671 80.44300 92.52667 40.39772 51.70504 87.25711 
315 29.83144 54.26061 75.40587 22.45801 24.40214 53.93695 
316 38.54382 67.20767 60.74704 26.35700 34.90166 36.87678 
317 52.40879 60.33935 56.27669 27.04324 30.80287 31.31514 
318 60.23985 35.42695 69.88443 25.74583 18.25082 44.84485 
319 66.65617 18.97572 52.90379 22.79253 13.31275 24.89357 
320 46.99447 7.783208 0.00000 8.891249 5.432381 1.439961 
321 11.75353 0.00000 36.85498 3.528753 2.072561 11.55625 
322 25.92323 33.57193 48.24767 10.03698 10.09385 20.84690 
323 56.11388 36.11073 84.88314 28.35665 19.31310 67.73390 
324 78.37256 70.33343 90.69679 54.89243 50.92085 82.86930 
325 81.83826 48.53767 69.26905 41.87479 31.71927 45.78056 
326 77.60243 0.00000 2.415242 24.06098 12.88645 2.254995 
327 89.79691 48.92477 14.04110 40.52925 32.07631 6.554147 
328 62.21471 0.988771 24.35786 15.97791 8.662943 6.219607 
329 55.02609 72.05020 23.50616 29.48115 40.69491 11.38761 
330 42.54696 55.48331 1.340669 16.70214 23.19448 4.554397 
331 49.47759 62.19669 84.84555 34.06808 34.74250 70.34691 
332 11.90899 0.00000 5.105410 1.612840 1.307649 1.404816 
333 50.74504 29.94820 48.41716 16.17606 12.24698 21.08001 
334 75.52030 85.67579 87.02598 60.65446 67.26973 79.02910 
335 45.35599 54.92149 69.15825 25.17167 26.35233 45.47862 
336 91.54414 95.00621 53.27218 70.31635 83.00478 36.18779 
337 89.62767 29.05702 76.22771 44.96446 26.15575 54.30665 
338 58.62853 40.29581 21.47528 18.81736 17.19943 6.738389 
339 20.12073 39.40231 25.45458 7.866441 11.19494 7.545170 
340 56.72644 2.760191 53.25255 16.96150 8.834816 24.66248 
341 38.97893 44.48279 74.90358 21.34292 19.15968 52.24864 
342 46.89281 0.00000 100.0000 26.48186 12.07144 95.48559 
343 72.08172 0.00000 100.0000 38.39641 18.21463 96.04388 
344 57.66695 35.58987 25.23344 17.53125 14.88275 7.663742 
345 37.96871 54.81494 85.19412 27.54664 26.98207 69.79195 
346 93.58360 51.73958 98.11584 61.39748 42.27313 95.51072 
347 77.23980 73.67719 57.03210 46.65914 50.33865 34.82061 
348 48.16909 94.25194 38.54464 42.21044 67.92888 23.26293 
349 39.68453 24.69335 25.13570 9.012270 7.634117 6.676252 
350 3.359427 19.30303 23.73552 3.024184 3.576247 5.696701 
351 97.90857 61.13418 56.68040 56.69180 46.57592 33.20687 
352 0.00000 91.97293 87.02722 43.32425 64.76996 79.46153 
353 78.01884 100.0000 63.76576 66.22082 86.42054 48.18345 
354 43.49309 92.57518 97.19727 53.94852 70.46602 99.44792 
355 0.00000 51.17075 81.31041 20.15978 21.40900 62.60665 
356 40.59217 65.41122 64.64684 26.95180 33.85558 41.15635 
357 83.40248 30.10707 58.58318 36.08857 22.34328 31.59068 
358 46.48572 33.65313 7.630426 11.87008 11.45894 3.076981 
359 69.65674 50.72420 22.71780 27.66455 26.26340 8.427189 
360 40.61182 1.988151 1.866370 6.682062 4.007562 1.416625 
361 81.29862 63.96670 52.68308 43.83423 41.86490 29.09172 
362 45.67980 100.0000 0.00000 43.59990 75.51012 13.13897 
363 47.70864 100.0000 78.46067 54.63414 80.00450 67.58453 
364 62.70340 59.55984 53.27185 30.81814 32.33619 28.48726 
365 95.20374 34.07728 48.40101 44.44823 27.98533 22.61548 
366 95.55814 23.87724 0.00000 39.47153 23.27923 3.274314 
367 70.82300 70.66652 34.67366 37.73408 43.77810 16.55584 
368 100.0000 38.91317 0.00000 46.26921 30.92902 4.392924 
369 95.17853 90.53347 66.26991 72.83727 79.15135 49.46845 
370 84.28381 23.25831 30.38957 31.63146 18.95973 9.897359 
371 44.19204 73.03209 100.0000 43.00711 46.46467 101.2541 
372 83.74976 0.183128 36.85498 30.33403 15.90090 12.81374 
373 75.13685 90.99194 21.38614 51.67208 69.46287 15.06827 
374 59.37959 57.67911 81.29140 35.24178 32.71120 63.96313 
375 30.49366 38.82961 36.84030 10.50797 12.22962 13.14056 
376 92.95721 100.0000 97.69466 87.94488 96.41420 103.6905 
377 0.00000 37.12070 85.82947 17.66304 14.09714 68.92650 
378 28.19705 19.73802 65.84786 11.77185 7.442446 38.32036 
379 85.45065 26.93148 51.50661 35.76266 21.54970 24.52086 
380 84.51990 36.25175 32.40407 34.25790 23.65071 11.65099 
381 69.62358 56.78517 80.49493 40.00997 34.68190 62.80907 
382 59.07153 28.43270 17.60700 16.36196 12.31980 4.824320 
383 0.108795 13.87181 0.783237 1.620268 2.217929 1.259224 
384 100.0000 31.06712 24.88831 45.51547 27.97996 8.588191 
385 29.00549 0.00000 22.00093 4.502449 2.723841 4.866405 
386 83.39072 77.10594 70.47806 55.87753 57.56654 51.64164 
387 64.17677 0.00000 38.29124 18.25251 9.644908 13.11590 
388 79.04384 62.44743 0.00000 37.31402 38.00230 6.229929 
389 26.70364 33.01671 19.78460 7.100110 8.758633 5.215459 
390 26.51618 67.12577 9.351274 17.94582 31.16467 6.777622 
391 28.23882 48.31414 24.48392 11.55672 16.78647 8.066573 
392 41.99560 73.21932 33.64098 26.20121 39.82349 15.84049 
393 26.36345 0.00000 71.61300 11.72987 5.558132 45.47138 
394 88.68236 10.41955 0.772242 32.48487 17.79398 2.639477 
395 43.78597 31.49281 55.10387 15.15909 12.00228 27.14602 
396 100.0000 88.09791 94.18813 83.99332 81.41205 93.92832 
397 70.71301 71.57160 100.0000 54.24497 51.11914 101.5607 
398 50.95830 64.17416 0.00000 23.18666 31.85291 5.786980 
399 50.69809 47.21360 53.85134 21.19585 20.83233 27.32172 
400 62.69912 89.19078 29.05813 43.87191 63.50149 17.23958 
401 38.74086 60.88672 72.89579 26.48271 30.41258 51.27552 
402 64.79936 54.65357 57.26619 30.74476 29.38655 31.85495 
