Pre-made_Targets/Patch Width 8-11mm - Expert (Use rig-guide-ruler)/Generated Targets/CM-Expert-A4-918p-3pages-w11.0mm-17x18/CM-Expert-A4-918p-3pages.ti2
CTI2   

DESCRIPTOR "Argyll Calibration Target chart information 2"
ORIGINATOR "Argyll printtarg"
CREATED "Mon Feb  9 15:51:41 2026"
TARGET_INSTRUMENT "X-Rite ColorMunki"
COMP_GREY_STEPS "162"
APPROX_WHITE_POINT "95.106486 100.000000 108.844025"
TOTAL_INK_LIMIT "300.0"
COLOR_REP "iRGB"
PAPER_SIZE "210.0x297.0"
RANDOM_START "203"
STEPS_IN_PASS "18"
PASSES_IN_STRIPS2 "17,17,17"
STRIP_INDEX_PATTERN "A-Z, A-Z"
PATCH_INDEX_PATTERN "0-9,@-9,@-9;1-999"
INDEX_ORDER "STRIP_THEN_PATCH"

NUMBER_OF_FIELDS 8
BEGIN_DATA_FORMAT
SAMPLE_ID SAMPLE_LOC RGB_R RGB_G RGB_B XYZ_X XYZ_Y XYZ_Z 
END_DATA_FORMAT

NUMBER_OF_SETS 918
BEGIN_DATA
1 "AR17" 100.0000 100.0000 100.0000 95.10649 100.0000 108.8440 
2 "AC7" 100.0000 100.0000 100.0000 95.10649 100.0000 108.8440 
3 "Y16" 100.0000 100.0000 100.0000 95.10649 100.0000 108.8440 
4 "G3" 100.0000 100.0000 100.0000 95.10649 100.0000 108.8440 
5 "G8" 100.0000 100.0000 100.0000 95.10649 100.0000 108.8440 
6 "AR9" 100.0000 100.0000 100.0000 95.10649 100.0000 108.8440 
7 "AA12" 100.0000 100.0000 100.0000 95.10649 100.0000 108.8440 
8 "O3" 0.00000 0.00000 0.00000 1.000000 1.000000 1.000000 
9 "AR4" 0.00000 0.00000 0.00000 1.000000 1.000000 1.000000 
10 "AV6" 0.00000 0.00000 0.00000 1.000000 1.000000 1.000000 
11 "C18" 0.00000 0.00000 0.00000 1.000000 1.000000 1.000000 
12 "AU18" 0.00000 0.00000 0.00000 1.000000 1.000000 1.000000 
13 "E6" 0.00000 0.00000 0.00000 1.000000 1.000000 1.000000 
14 "N3" 0.00000 0.00000 0.00000 1.000000 1.000000 1.000000 
15 "AN14" 99.37896 99.37896 99.37896 93.78227 98.60692 107.3265 
16 "AH14" 98.75792 98.75792 98.75792 92.46898 97.22534 105.8215 
17 "AD12" 98.13687 98.13687 98.13687 91.16660 95.85524 104.3290 
18 "F16" 97.51583 97.51583 97.51583 89.87510 94.49659 102.8490 
19 "L9" 96.89479 96.89479 96.89479 88.59446 93.14935 101.3814 
20 "AQ16" 96.27375 96.27375 96.27375 87.32465 91.81351 99.92621 
21 "L16" 95.65270 95.65270 95.65270 86.06564 90.48903 98.48341 
22 "V8" 95.03166 95.03166 95.03166 84.81741 89.17590 97.05296 
23 "AI6" 94.41062 94.41062 94.41062 83.57993 87.87407 95.63484 
24 "Q13" 93.78958 93.78958 93.78958 82.35317 86.58352 94.22900 
25 "AT4" 93.16701 93.16701 93.16701 81.13711 85.30422 92.83542 
26 "AW15" 92.54597 92.54597 92.54597 79.93172 84.03615 91.45407 
27 "AJ8" 91.92493 91.92493 91.92493 78.73697 82.77928 90.08491 
28 "A4" 91.30388 91.30388 91.30388 77.55284 81.53357 88.72793 
29 "AP16" 90.68284 90.68284 90.68284 76.37930 80.29901 87.38307 
30 "AY15" 90.06180 90.06180 90.06180 75.21632 79.07555 86.05032 
31 "A6" 89.44076 89.44076 89.44076 74.06388 77.86318 84.72964 
32 "AG10" 88.81971 88.81971 88.81971 72.92194 76.66186 83.42101 
33 "S14" 88.19867 88.19867 88.19867 71.79048 75.47157 82.12438 
34 "S12" 87.57763 87.57763 87.57763 70.66947 74.29227 80.83973 
35 "P15" 86.95659 86.95659 86.95659 69.55889 73.12394 79.56703 
36 "Q16" 86.33555 86.33555 86.33555 68.45870 71.96654 78.30623 
37 "B12" 85.71450 85.71450 85.71450 67.36889 70.82005 77.05733 
38 "B14" 85.09346 85.09346 85.09346 66.28941 69.68444 75.82027 
39 "S10" 84.47242 84.47242 84.47242 65.22024 68.55968 74.59503 
40 "AN9" 83.85138 83.85138 83.85138 64.16136 67.44573 73.38157 
41 "AY9" 83.23033 83.23033 83.23033 63.11273 66.34258 72.17986 
42 "N14" 82.60929 82.60929 82.60929 62.07433 65.25018 70.98988 
43 "M8" 81.98825 81.98825 81.98825 61.04613 64.16851 69.81158 
44 "K16" 81.36721 81.36721 81.36721 60.02809 63.09754 68.64493 
45 "AX4" 80.74464 80.74464 80.74464 59.02020 62.03723 67.48991 
46 "M13" 80.12360 80.12360 80.12360 58.02241 60.98757 66.34647 
47 "AE12" 79.50256 79.50256 79.50256 57.03471 59.94850 65.21459 
48 "AN7" 78.88151 78.88151 78.88151 56.05706 58.92002 64.09422 
49 "C6" 78.26047 78.26047 78.26047 55.08944 57.90208 62.98534 
50 "AE2" 77.63943 77.63943 77.63943 54.13181 56.89465 61.88792 
51 "AM11" 77.01839 77.01839 77.01839 53.18414 55.89770 60.80191 
52 "AX6" 76.39734 76.39734 76.39734 52.24640 54.91120 59.72729 
53 "H5" 75.77630 75.77630 75.77630 51.31857 53.93513 58.66401 
54 "F2" 75.15526 75.15526 75.15526 50.40062 52.96944 57.61205 
55 "AK8" 74.53422 74.53422 74.53422 49.49250 52.01410 56.57138 
56 "W9" 73.91318 73.91318 73.91318 48.59420 51.06909 55.54194 
57 "D13" 73.29213 73.29213 73.29213 47.70569 50.13437 54.52372 
58 "AB17" 72.67109 72.67109 72.67109 46.82692 49.20991 53.51668 
59 "AI12" 72.05005 72.05005 72.05005 45.95788 48.29568 52.52077 
60 "AQ8" 71.42901 71.42901 71.42901 45.09852 47.39164 51.53597 
61 "F9" 70.80797 70.80797 70.80797 44.24883 46.49776 50.56224 
62 "AX17" 70.18692 70.18692 70.18692 43.40876 45.61401 49.59954 
63 "AK17" 69.56588 69.56588 69.56588 42.57829 44.74035 48.64784 
64 "AR6" 68.94484 68.94484 68.94484 41.75739 43.87676 47.70710 
65 "AB8" 68.32227 68.32227 68.32227 40.94601 43.02320 46.77728 
66 "K12" 67.70123 67.70123 67.70123 40.14414 42.17963 45.85835 
67 "H15" 67.08019 67.08019 67.08019 39.35174 41.34602 44.95028 
68 "A2" 66.45914 66.45914 66.45914 38.56877 40.52234 44.05301 
69 "W6" 65.83810 65.83810 65.83810 37.79521 39.70856 43.16653 
70 "W4" 65.21706 65.21706 65.21706 37.03102 38.90463 42.29079 
71 "I3" 64.59602 64.59602 64.59602 36.27617 38.11053 41.42574 
72 "AA14" 63.97498 63.97498 63.97498 35.53063 37.32622 40.57137 
73 "U17" 63.35393 63.35393 63.35393 34.79436 36.55166 39.72762 
74 "T16" 62.73289 62.73289 62.73289 34.06733 35.78682 38.89446 
75 "AX8" 62.11185 62.11185 62.11185 33.34951 35.03167 38.07185 
76 "G13" 61.49081 61.49081 61.49081 32.64086 34.28617 37.25975 
77 "T2" 60.86976 60.86976 60.86976 31.94135 33.55029 36.45812 
78 "AP11" 60.24872 60.24872 60.24872 31.25094 32.82398 35.66693 
79 "R3" 59.62768 59.62768 59.62768 30.56960 32.10722 34.88613 
80 "AR14" 59.00664 59.00664 59.00664 29.89730 31.39996 34.11569 
81 "H13" 58.38560 58.38560 58.38560 29.23401 30.70217 33.35557 
82 "AP2" 57.76455 57.76455 57.76455 28.57968 30.01381 32.60572 
83 "AP9" 57.14351 57.14351 57.14351 27.93428 29.33486 31.86611 
84 "V13" 56.52247 56.52247 56.52247 27.29778 28.66526 31.13670 
85 "AI16" 55.89990 55.89990 55.89990 26.67014 28.00498 30.41744 
86 "AK6" 55.27886 55.27886 55.27886 26.05133 27.35399 29.70829 
87 "Z17" 54.65782 54.65782 54.65782 25.44131 26.71225 29.00922 
88 "AA16" 54.03677 54.03677 54.03677 24.84004 26.07972 28.32018 
89 "B17" 53.41573 53.41573 53.41573 24.24749 25.45636 27.64113 
90 "T11" 52.79469 52.79469 52.79469 23.66362 24.84213 26.97203 
91 "C4" 52.17365 52.17365 52.17365 23.08840 24.23699 26.31284 
92 "AH2" 51.55261 51.55261 51.55261 22.52178 23.64091 25.66351 
93 "AS9" 50.93156 50.93156 50.93156 21.96374 23.05385 25.02400 
94 "AO16" 50.31052 50.31052 50.31052 21.41423 22.47576 24.39427 
95 "I10" 49.68948 49.68948 49.68948 20.87321 21.90661 23.77428 
96 "A8" 49.06844 49.06844 49.06844 20.34065 21.34636 23.16397 
97 "AK15" 48.44739 48.44739 48.44739 19.81651 20.79497 22.56332 
98 "AG6" 47.82635 47.82635 47.82635 19.30075 20.25239 21.97227 
99 "AS11" 47.20531 47.20531 47.20531 18.79334 19.71859 21.39078 
100 "O12" 46.58427 46.58427 46.58427 18.29422 19.19352 20.81881 
101 "C14" 45.96323 45.96323 45.96323 17.80337 18.67714 20.25631 
102 "M3" 45.34218 45.34218 45.34218 17.32075 18.16942 19.70323 
103 "U9" 44.72114 44.72114 44.72114 16.84631 17.67031 19.15953 
104 "H11" 44.10010 44.10010 44.10010 16.38001 17.17977 18.62516 
105 "G15" 43.47753 43.47753 43.47753 15.92182 16.69775 18.10008 
106 "W11" 42.85649 42.85649 42.85649 15.47169 16.22421 17.58425 
107 "T4" 42.23545 42.23545 42.23545 15.02958 15.75911 17.07760 
108 "AX12" 41.61440 41.61440 41.61440 14.59545 15.30241 16.58010 
109 "Q4" 40.99336 40.99336 40.99336 14.16926 14.85406 16.09170 
110 "Y12" 40.37232 40.37232 40.37232 13.75097 14.41402 15.61234 
111 "AX14" 39.75128 39.75128 39.75128 13.34054 13.98224 15.14199 
112 "U7" 39.13024 39.13024 39.13024 12.93791 13.55868 14.68059 
113 "M17" 38.50919 38.50919 38.50919 12.54305 13.14329 14.22809 
114 "AY7" 37.88815 37.88815 37.88815 12.15592 12.73603 13.78445 
115 "AL5" 37.26711 37.26711 37.26711 11.77647 12.33685 13.34961 
116 "AV12" 36.64607 36.64607 36.64607 11.40466 11.94570 12.92352 
117 "Q2" 36.02502 36.02502 36.02502 11.04044 11.56254 12.50613 
118 "P6" 35.40398 35.40398 35.40398 10.68377 11.18733 12.09740 
119 "AT9" 34.78294 34.78294 34.78294 10.33460 10.82000 11.69726 
120 "M1" 34.16190 34.16190 34.16190 9.992891 10.46052 11.30566 
121 "Y6" 33.54086 33.54086 33.54086 9.658589 10.10883 10.92256 
122 "R15" 32.91981 32.91981 32.91981 9.331652 9.764895 10.54789 
123 "A18" 32.29877 32.29877 32.29877 9.012030 9.428654 10.18162 
124 "I1" 31.67773 31.67773 31.67773 8.699679 9.100060 9.823667 
125 "AA4" 31.05516 31.05516 31.05516 8.394548 8.779063 9.473994 
126 "V2" 30.43412 30.43412 30.43412 8.096590 8.465611 9.132541 
127 "F13" 29.81308 29.81308 29.81308 7.805756 8.159653 8.799251 
128 "H1" 29.19203 29.19203 29.19203 7.521995 7.861138 8.474068 
129 "AH18" 28.57099 28.57099 28.57099 7.245259 7.570011 8.156934 
130 "AM7" 27.94995 27.94995 27.94995 6.975497 7.286221 7.847792 
131 "V18" 27.32891 27.32891 27.32891 6.712657 7.009714 7.546583 
132 "J18" 26.70787 26.70787 26.70787 6.456688 6.740434 7.253247 
133 "Y18" 26.08682 26.08682 26.08682 6.207537 6.478327 6.967726 
134 "Q18" 25.46578 25.46578 25.46578 5.965151 6.223338 6.689957 
135 "D18" 24.84474 24.84474 24.84474 5.729478 5.975410 6.419881 
136 "O8" 24.22370 24.22370 24.22370 5.500462 5.734485 6.157434 
137 "AK1" 23.60266 23.60266 23.60266 5.278050 5.500507 5.902554 
138 "AG12" 22.98161 22.98161 22.98161 5.062184 5.273417 5.655177 
139 "A14" 22.36057 22.36057 22.36057 4.852810 5.053155 5.415238 
140 "E1" 21.73953 21.73953 21.73953 4.649870 4.839663 5.182673 
141 "T9" 21.11849 21.11849 21.11849 4.453307 4.632878 4.957416 
142 "AU13" 20.49744 20.49744 20.49744 4.263061 4.432739 4.739398 
143 "S18" 19.87640 19.87640 19.87640 4.079074 4.239185 4.528553 
144 "F18" 19.25536 19.25536 19.25536 3.901284 4.052150 4.324810 
145 "S4" 18.63279 18.63279 18.63279 3.729632 3.871572 4.128100 
146 "T13" 18.01175 18.01175 18.01175 3.564055 3.697385 3.938352 
147 "I17" 17.39071 17.39071 17.39071 3.404490 3.529523 3.755494 
148 "AG14" 16.76967 16.76967 16.76967 3.250873 3.367917 3.579452 
149 "W18" 16.14862 16.14862 16.14862 3.103138 3.212501 3.410151 
150 "K18" 15.52758 15.52758 15.52758 2.961220 3.063203 3.247516 
151 "AP18" 14.90654 14.90654 14.90654 2.825051 2.919954 3.091470 
152 "R11" 14.28550 14.28550 14.28550 2.694563 2.782680 2.941933 
153 "AX1" 13.66445 13.66445 13.66445 2.569686 2.651310 2.798827 
154 "AD18" 13.04341 13.04341 13.04341 2.450349 2.525767 2.662069 
155 "N5" 12.42237 12.42237 12.42237 2.336479 2.405976 2.531576 
156 "AN12" 11.80133 11.80133 11.80133 2.228002 2.291858 2.407264 
157 "U4" 11.18029 11.18029 11.18029 2.124843 2.183335 2.289046 
158 "V4" 10.55924 10.55924 10.55924 2.026924 2.080324 2.176833 
159 "J12" 9.938201 9.938201 9.938201 1.934167 1.982744 2.070536 
160 "AM5" 9.317159 9.317159 9.317159 1.846491 1.890508 1.970060 
161 "AV10" 8.696117 8.696117 8.696117 1.763812 1.803530 1.875312 
162 "Z11" 8.075074 8.075074 8.075074 1.686046 1.721721 1.786195 
163 "AI4" 7.454032 7.454032 7.454032 1.613107 1.644988 1.702607 
164 "AJ6" 6.832990 6.832990 6.832990 1.544903 1.573238 1.624447 
165 "G6" 6.210422 6.210422 6.210422 1.481344 1.506373 1.551610 
166 "AL10" 5.589380 5.589380 5.589380 1.422333 1.444294 1.483985 
167 "AV14" 4.968338 4.968338 4.968338 1.367774 1.386898 1.421461 
168 "O1" 4.347295 4.347295 4.347295 1.317563 1.334077 1.363921 
169 "AW4" 3.726253 3.726253 3.726253 1.271445 1.285560 1.311071 
170 "AW1" 3.105211 3.105211 3.105211 1.226204 1.237967 1.259225 
171 "J14" 2.484169 2.484169 2.484169 1.180964 1.190374 1.207380 
172 "AF9" 1.863127 1.863127 1.863127 1.135723 1.142780 1.155535 
173 "AO2" 1.242084 1.242084 1.242084 1.090482 1.095187 1.103690 
174 "L13" 0.621042 0.621042 0.621042 1.045241 1.047593 1.051845 
175 "AH3" 0.00000 0.00000 100.0000 18.87111 8.147314 95.12896 
176 "R2" 0.00000 100.0000 0.00000 36.40521 71.80052 12.80184 
177 "Q3" 0.00000 100.0000 83.22728 48.19986 76.51763 74.92547 
178 "Z18" 100.0000 0.00000 0.00000 41.83017 22.05217 2.913230 
179 "AB14" 93.85824 18.10636 65.83200 44.31605 23.97134 39.77798 
180 "AY8" 100.0000 98.56413 55.23766 80.83917 92.46125 39.34877 
181 "D2" 78.36728 42.82597 43.98871 32.88112 25.17011 19.21632 
182 "AA6" 97.43954 64.94240 34.19242 54.63293 48.38639 16.29229 
183 "AM18" 13.31197 46.39353 10.37613 8.290544 14.30883 4.179740 
184 "B11" 0.00000 21.79904 53.21126 6.758435 5.511256 24.51999 
185 "X12" 36.31800 0.00000 24.95155 6.336214 3.646606 5.978189 
186 "AW16" 68.87922 70.09995 100.0000 52.42895 49.06445 101.2597 
187 "AW17" 65.53445 96.27527 96.27375 65.67348 80.65231 98.91210 
188 "D3" 0.00000 66.50340 85.71756 27.75998 34.34746 72.10938 
189 "AI11" 0.00000 70.66911 4.898146 17.26907 33.42366 6.762112 
190 "V11" 0.00000 53.95285 49.57198 13.69375 20.37708 23.75658 
191 "AS5" 62.30564 72.81758 54.03830 36.97895 44.73022 31.28213 
192 "AV3" 65.34218 34.86992 85.67330 32.81963 21.18920 69.22574 
193 "AK7" 100.0000 0.00000 41.20851 44.35877 23.06345 16.23161 
194 "V16" 52.14160 39.51781 22.33921 15.88658 15.39657 6.823849 
195 "P3" 36.07996 3.172351 0.00000 5.457147 3.427114 1.233754 
196 "D6" 57.67300 57.51888 0.00000 23.20461 27.70571 4.985504 
197 "S17" 19.30877 81.18257 49.57046 28.11513 47.33864 28.19913 
198 "N8" 66.22263 26.32486 0.00000 19.16606 13.32712 2.422720 
199 "Q5" 0.00000 49.05470 100.0000 26.14312 22.68931 97.55299 
200 "AA15" 0.00000 23.40581 81.34279 13.78560 8.646655 60.53055 
201 "K10" 53.17006 58.28183 70.81407 29.78160 30.59309 48.26286 
202 "AU5" 76.32563 100.0000 0.00000 58.59261 83.24041 13.84150 
203 "AD16" 64.15351 98.02243 49.67880 53.67998 77.93868 32.85284 
204 "Q9" 54.12222 39.12718 50.45090 19.76936 16.89097 23.52512 
205 "AS14" 89.59640 26.93675 28.48707 36.09183 22.05600 9.396750 
206 "P7" 61.85397 0.00000 56.51637 19.90067 10.16772 27.95052 
207 "S1" 60.65156 0.00000 25.06752 15.23320 8.232960 6.438508 
208 "U1" 0.00000 34.92332 44.94087 7.582532 9.298356 18.19755 
209 "L7" 96.37293 85.46883 69.63912 71.26526 73.13270 52.71542 
210 "AK9" 0.00000 63.95972 100.0000 31.85561 34.11270 99.45716 
211 "AY12" 0.00000 84.13672 95.03471 40.86429 55.25102 92.82715 
212 "P10" 0.00000 87.39452 84.47089 39.28267 58.04503 73.92901 
213 "A5" 58.06516 87.65393 73.92691 48.40855 63.37601 57.94653 
214 "S2" 46.58579 63.35088 63.35393 27.63481 32.85821 39.39175 
215 "J1" 67.47082 29.32784 52.78706 24.63481 16.36437 25.27757 
216 "AM15" 56.54231 42.26749 39.16686 19.97683 18.36756 15.26141 
217 "AQ5" 57.38460 73.65988 31.74029 32.03223 43.20226 15.20901 
218 "AT2" 6.601053 26.63767 15.00572 3.618817 5.340649 3.538153 
219 "AE5" 59.81689 0.00000 4.483101 13.98158 7.686136 1.933540 
220 "Z16" 100.0000 0.00000 100.0000 59.70128 29.19948 97.04219 
221 "K1" 0.00000 48.69154 71.29320 16.49534 18.64575 47.30783 
222 "AJ16" 29.99771 61.57473 43.70031 18.79458 27.56434 20.20798 
223 "X1" 46.07767 41.31380 65.85031 20.35694 17.64718 39.84153 
224 "R8" 100.0000 75.78698 90.05417 74.85794 65.55610 83.44371 
225 "AL16" 43.60266 39.15007 81.63882 23.30359 17.86593 62.29131 
226 "Z7" 36.47822 74.52964 74.53422 32.92220 43.46733 55.79433 
227 "H14" 29.54147 0.00000 49.33700 7.615050 3.980878 20.71053 
228 "R9" 74.55253 69.79477 42.94652 40.56967 44.46959 21.77808 
229 "I12" 62.75425 58.52140 47.98962 29.53525 31.15331 23.67241 
230 "AA18" 57.88968 32.31098 38.68467 18.25275 14.11679 14.22582 
231 "AF2" 56.54536 29.16304 21.46639 15.54559 12.05557 5.914955 
232 "M2" 98.95781 78.19181 0.00000 61.17806 62.16983 9.638091 
233 "L18" 24.40375 15.86938 2.046235 3.776378 3.566419 1.497558 
234 "AL13" 0.00000 48.82277 54.03372 12.72470 17.20447 27.24170 
235 "AQ18" 33.87961 34.90806 44.92714 11.41288 11.26847 18.36593 
236 "F17" 86.73228 54.19699 85.67178 52.19002 39.33515 71.70578 
237 "L8" 58.14450 78.50919 100.0000 51.50600 55.39132 102.5296 
238 "C9" 43.34783 48.12238 24.19013 15.26229 18.61021 8.116701 
239 "AJ7" 33.46609 50.65080 83.82391 24.51851 23.30549 66.90470 
240 "Q15" 4.600595 77.33120 61.61440 26.99397 43.10793 39.40041 
241 "G12" 45.89151 0.00000 77.62264 18.35103 8.779760 54.45878 
242 "AR13" 78.03006 90.24491 33.27382 53.98091 69.76038 19.96201 
243 "W8" 66.80095 47.96826 0.00000 24.41594 23.35736 4.082346 
244 "I7" 58.85252 31.05364 62.77867 22.53770 15.50548 35.64055 
245 "AA2" 32.71229 19.00664 19.41405 6.193321 5.194250 4.469366 
246 "V14" 100.0000 43.25780 0.00000 47.38356 33.15740 4.764377 
247 "AY10" 53.94217 100.0000 0.00000 46.70938 77.11338 13.28467 
248 "L12" 0.00000 3.204395 20.10986 1.685525 1.414642 4.177503 
249 "O13" 48.41077 32.33692 100.0000 30.04343 18.39228 96.51811 
250 "W10" 91.46105 0.00000 49.33700 38.05927 19.67802 22.13709 
251 "J7" 97.17403 70.08164 62.74205 61.43752 55.03622 41.17851 
252 "AW12" 78.06516 14.16953 1.605249 24.98754 14.29843 2.420004 
253 "X7" 83.80865 80.29603 93.24483 65.17611 64.31798 89.77403 
254 "AO11" 25.39864 70.66148 81.36873 30.55043 38.97791 65.54626 
255 "AN4" 0.00000 36.01129 63.08995 11.13310 11.09094 35.74972 
256 "B6" 76.95583 58.52445 63.22881 40.66723 36.56079 39.27297 
257 "AB16" 72.81147 57.37392 99.41100 48.82541 38.79233 98.21640 
258 "AW2" 12.95186 0.390631 31.48089 3.076271 1.919448 8.637093 
259 "AF3" 0.00000 26.19211 26.23178 3.974768 5.349174 6.924584 
260 "L3" 31.74792 19.67193 35.12779 7.301602 5.726040 11.06593 
261 "D8" 29.28817 28.42603 7.431144 6.289868 7.165463 2.519308 
262 "O11" 0.00000 100.0000 48.15595 39.93244 73.21119 31.38012 
263 "AL9" 52.90761 81.20851 49.57046 36.74390 51.81034 28.60785 
264 "AM8" 100.0000 47.38842 63.35393 54.99802 38.11744 38.96540 
265 "AE7" 73.29213 46.01968 28.76326 28.80482 24.60435 10.39404 
266 "Z15" 41.05135 10.44022 19.12413 7.654132 4.931176 4.260345 
267 "AS3" 29.57961 44.21302 28.76478 10.92645 14.61408 9.407480 
268 "AT15" 43.13878 99.38048 36.03876 44.18347 74.85283 22.98541 
269 "R13" 44.79438 64.10620 75.04387 30.30030 34.39427 54.92261 
270 "M7" 41.76699 76.91310 54.94926 31.21266 45.08239 32.53510 
271 "G16" 0.00000 0.00000 60.37690 6.771813 3.308361 31.40073 
272 "P14" 100.0000 58.55802 57.14199 57.63621 45.47757 33.41620 
273 "P11" 69.14473 46.59037 38.76555 27.52921 24.08095 15.71128 
274 "AM9" 83.12047 65.68246 46.36912 44.89214 43.69207 23.97670 
275 "AI7" 67.36553 21.96536 25.94491 20.17618 12.85283 7.406860 
276 "B9" 40.63630 4.313725 40.25025 9.133413 5.091190 13.97473 
277 "B5" 49.34310 80.47150 4.155032 31.21334 48.72109 8.921806 
278 "AV17" 79.19890 37.47616 27.76379 30.32569 22.07905 9.394333 
279 "AW8" 36.65217 51.21843 0.00000 13.49980 19.29378 3.872891 
280 "P1" 18.48783 4.608225 14.35264 2.618885 1.985967 2.805996 
281 "L2" 58.39170 51.11925 22.28733 21.93017 23.50632 8.053897 
282 "U14" 51.47478 80.30060 94.46098 47.56835 55.19155 91.32424 
283 "X2" 86.83604 78.59770 32.06226 52.69913 57.97711 17.13329 
284 "M9" 42.96635 100.0000 100.0000 60.58914 82.20274 107.2266 
285 "AL2" 53.49508 87.45556 95.66033 53.40482 64.92936 95.28502 
286 "T18" 36.97566 33.17006 25.57107 9.733979 10.11851 7.283620 
287 "AA5" 0.00000 61.98825 28.70375 14.31433 25.70984 11.34439 
288 "L10" 0.00000 70.18997 63.97192 23.51399 35.53231 40.85416 
289 "AY16" 77.83169 84.12299 53.38216 52.52555 62.58157 33.28553 
290 "G10" 66.19364 42.86412 63.67437 29.09178 22.81660 37.75364 
291 "AC8" 40.47150 58.95781 32.52918 18.95703 26.18594 13.01005 
292 "AM3" 48.52674 21.74105 21.73953 11.25913 8.247662 5.492419 
293 "G7" 52.51392 29.28969 0.00000 13.18970 10.95116 2.278854 
294 "G14" 88.99825 61.88907 0.776684 44.43159 41.31218 6.550323 
295 "O6" 25.96475 40.33875 55.08202 12.74743 13.61798 27.56349 
296 "AE11" 90.07095 73.04189 40.22126 53.04785 53.43850 20.97501 
297 "AG5" 100.0000 39.83520 91.81811 61.21721 37.26606 82.01903 
298 "AJ3" 17.32357 25.40322 30.91630 5.286199 5.807879 8.996633 
299 "J15" 77.07027 53.56832 26.22110 33.47509 30.68978 10.25806 
300 "AS16" 68.31159 4.242008 40.25025 20.84727 11.12780 14.52303 
301 "AR15" 89.61776 29.29122 0.00000 35.31335 22.35867 3.315624 
302 "Y7" 72.26673 39.36217 0.00000 25.18478 20.21895 3.436049 
303 "Y8" 28.45045 37.50057 32.59632 9.344715 11.21948 10.66197 
304 "AX18" 29.66201 61.27565 14.39689 16.06108 26.25897 6.792461 
305 "Z5" 0.00000 66.19974 71.42596 23.38613 32.36973 49.77652 
306 "Q14" 87.56237 100.0000 81.99588 78.02675 91.94150 74.29100 
307 "M10" 72.88777 50.93919 50.31052 32.78171 28.64747 24.98677 
308 "D16" 60.87892 39.11803 39.75128 21.26103 17.83669 15.46874 
309 "AH11" 61.81735 66.13565 31.45190 30.31250 36.69777 13.90191 
310 "AB18" 55.39178 8.731212 42.85496 14.95427 8.306035 16.08171 
311 "AC18" 32.68025 15.49248 8.073548 5.426281 4.357687 2.097961 
312 "K7" 49.58419 18.15824 65.83200 17.54822 10.17724 38.52513 
313 "H16" 100.0000 96.84596 0.00000 74.74797 87.87856 13.88592 
314 "AP5" 86.00900 87.65087 78.46036 66.61080 72.60799 65.52439 
315 "AV5" 80.00610 28.67781 43.63928 30.88161 19.59003 17.98829 
316 "Q8" 90.03738 100.0000 0.00000 68.58544 88.39275 14.30974 
317 "AB10" 56.76051 50.20523 64.87526 26.92474 24.93181 39.71010 
318 "E12" 93.36690 51.11162 28.97536 45.10548 35.39459 11.71195 
319 "C1" 80.68971 10.13352 29.97482 27.80286 15.20610 9.180880 
320 "AJ9" 0.00000 67.27703 43.64691 18.37968 31.18374 20.88962 
321 "AJ10" 15.60082 18.89677 9.706264 3.083118 3.618603 2.292595 
322 "AE10" 47.89044 64.71351 90.71183 36.61315 37.48094 81.26695 
323 "AY17" 100.0000 79.80468 57.10079 68.19841 66.61194 36.89709 
324 "J4" 0.105287 70.27695 69.56435 24.90042 36.15763 47.92202 
325 "Y14" 87.72259 100.0000 95.21630 82.73352 93.83832 98.43183 
326 "AE3" 100.0000 60.47608 48.44434 56.87928 46.43032 25.55750 
327 "AW14" 86.08377 70.46769 93.74075 61.60617 54.35540 89.00720 
328 "K8" 35.30327 26.64683 32.51240 8.762608 7.856922 10.00016 
329 "AO15" 93.89639 0.00000 16.62165 36.80945 19.41481 4.873825 
330 "X16" 16.07080 6.065461 1.355001 2.099050 1.825275 1.199661 
331 "AT18" 34.77684 84.93782 38.35050 31.68369 52.87379 20.79000 
332 "AH4" 58.66331 45.58633 100.0000 37.46076 26.95054 97.77945 
333 "J17" 90.84611 42.68406 69.70779 47.16751 31.89769 46.11571 
334 "H18" 65.54360 72.54292 0.00000 33.98002 43.49197 7.465190 
335 "AP12" 42.04166 0.00000 49.36599 10.74883 5.596130 20.88150 
336 "AA10" 100.0000 39.92523 28.76478 47.71805 31.90305 10.80716 
337 "J9" 81.88296 30.05417 100.0000 47.45149 26.74596 97.21376 
338 "Z12" 39.54681 37.45022 0.00000 10.39238 11.92219 2.613621 
339 "P2" 0.105287 41.48318 30.66300 7.452081 11.70855 9.900332 
340 "J11" 65.52071 0.00000 100.0000 34.66501 16.29070 95.86903 
341 "AQ2" 0.00000 21.62356 38.15518 4.509279 4.577992 12.77752 
342 "AQ11" 56.13489 100.0000 72.74891 56.36833 81.08456 59.27560 
343 "J2" 50.60807 66.22416 57.21065 29.12253 35.71913 33.10576 
344 "AD4" 22.20493 35.91974 0.00000 6.403829 9.358298 2.328785 
345 "AP6" 84.13367 100.0000 61.26345 69.97695 88.42087 45.48642 
346 "AV1" 100.0000 40.44709 48.46418 50.22239 33.11321 23.35447 
347 "I11" 84.76081 0.00000 76.32868 38.79084 19.36169 53.47136 
348 "AT1" 62.18814 29.50637 43.81933 20.46185 14.42237 17.67153 
349 "I16" 48.78157 2.229343 13.09071 9.624126 5.505231 2.868089 
350 "R1" 27.41283 2.610819 6.150912 3.655435 2.464879 1.616249 
351 "AI5" 33.83230 72.65126 34.18631 23.76541 38.11242 15.93170 
352 "AC14" 53.53475 58.61601 100.0000 39.72125 34.79985 99.17554 
353 "AM6" 90.13352 42.62608 40.65614 41.09739 29.37793 17.24935 
354 "AW10" 65.41543 54.97520 1.934844 26.07664 27.74669 4.982451 
355 "Q7" 50.75456 27.39452 46.79484 15.50306 11.29923 19.61018 
356 "Y1" 92.08057 44.21149 28.76478 41.87723 30.57190 10.85768 
357 "AO7" 81.90738 92.01953 100.0000 74.18123 80.17167 106.1187 
358 "O4" 38.43748 20.42878 0.00000 7.208413 6.011544 1.640388 
359 "AG15" 0.00000 46.76585 25.18959 8.483895 14.48944 8.047453 
360 "AY4" 73.30892 0.00000 53.29061 25.66730 13.21050 25.08474 
361 "B2" 88.17273 50.80034 100.0000 57.40802 39.65732 99.18164 
362 "N17" 67.85687 52.19806 38.14450 28.53751 27.29553 15.88976 
