Pre-made_Targets/Patch Width 8-11mm - Expert (Use rig-guide-ruler)/Generated Targets/CM-Expert-A4-918p-3pages-w11.0mm-17x18/CM-Expert-A4-918p-3pages.ti1
CTI1   

DESCRIPTOR "Argyll Calibration Target chart information 1"
ORIGINATOR "Argyll targen"
CREATED "Mon Feb  9 15:51:26 2026"
APPROX_WHITE_POINT "95.106486 100.000000 108.844025"
COLOR_REP "iRGB"
TOTAL_INK_LIMIT "300.0"
WHITE_COLOR_PATCHES "7"
BLACK_COLOR_PATCHES "7"
COMP_GREY_STEPS "162"
IFP_PATCHES "744"

NUMBER_OF_FIELDS 7
BEGIN_DATA_FORMAT
SAMPLE_ID RGB_R RGB_G RGB_B XYZ_X XYZ_Y XYZ_Z 
END_DATA_FORMAT

NUMBER_OF_SETS 918
BEGIN_DATA
1 100.0000 100.0000 100.0000 95.10649 100.0000 108.8440 
2 100.0000 100.0000 100.0000 95.10649 100.0000 108.8440 
3 100.0000 100.0000 100.0000 95.10649 100.0000 108.8440 
4 100.0000 100.0000 100.0000 95.10649 100.0000 108.8440 
5 100.0000 100.0000 100.0000 95.10649 100.0000 108.8440 
6 100.0000 100.0000 100.0000 95.10649 100.0000 108.8440 
7 100.0000 100.0000 100.0000 95.10649 100.0000 108.8440 
8 0.00000 0.00000 0.00000 1.000000 1.000000 1.000000 
9 0.00000 0.00000 0.00000 1.000000 1.000000 1.000000 
10 0.00000 0.00000 0.00000 1.000000 1.000000 1.000000 
11 0.00000 0.00000 0.00000 1.000000 1.000000 1.000000 
12 0.00000 0.00000 0.00000 1.000000 1.000000 1.000000 
13 0.00000 0.00000 0.00000 1.000000 1.000000 1.000000 
14 0.00000 0.00000 0.00000 1.000000 1.000000 1.000000 
15 99.37888 99.37888 99.37888 93.78227 98.60692 107.3265 
16 98.75776 98.75776 98.75776 92.46898 97.22534 105.8215 
17 98.13665 98.13665 98.13665 91.16660 95.85524 104.3290 
18 97.51553 97.51553 97.51553 89.87510 94.49659 102.8490 
19 96.89441 96.89441 96.89441 88.59446 93.14935 101.3814 
20 96.27329 96.27329 96.27329 87.32465 91.81351 99.92621 
21 95.65217 95.65217 95.65217 86.06564 90.48903 98.48341 
22 95.03106 95.03106 95.03106 84.81741 89.17590 97.05296 
23 94.40994 94.40994 94.40994 83.57993 87.87407 95.63484 
24 93.78882 93.78882 93.78882 82.35317 86.58352 94.22900 
25 93.16770 93.16770 93.16770 81.13711 85.30422 92.83542 
26 92.54658 92.54658 92.54658 79.93172 84.03615 91.45407 
27 91.92547 91.92547 91.92547 78.73697 82.77928 90.08491 
28 91.30435 91.30435 91.30435 77.55284 81.53357 88.72793 
29 90.68323 90.68323 90.68323 76.37930 80.29901 87.38307 
30 90.06211 90.06211 90.06211 75.21632 79.07555 86.05032 
31 89.44099 89.44099 89.44099 74.06388 77.86318 84.72964 
32 88.81988 88.81988 88.81988 72.92194 76.66186 83.42101 
33 88.19876 88.19876 88.19876 71.79048 75.47157 82.12438 
34 87.57764 87.57764 87.57764 70.66947 74.29227 80.83973 
35 86.95652 86.95652 86.95652 69.55889 73.12394 79.56703 
36 86.33540 86.33540 86.33540 68.45870 71.96654 78.30623 
37 85.71429 85.71429 85.71429 67.36889 70.82005 77.05733 
38 85.09317 85.09317 85.09317 66.28941 69.68444 75.82027 
39 84.47205 84.47205 84.47205 65.22024 68.55968 74.59503 
40 83.85093 83.85093 83.85093 64.16136 67.44573 73.38157 
41 83.22981 83.22981 83.22981 63.11273 66.34258 72.17986 
42 82.60870 82.60870 82.60870 62.07433 65.25018 70.98988 
43 81.98758 81.98758 81.98758 61.04613 64.16851 69.81158 
44 81.36646 81.36646 81.36646 60.02809 63.09754 68.64493 
45 80.74534 80.74534 80.74534 59.02020 62.03723 67.48991 
46 80.12422 80.12422 80.12422 58.02241 60.98757 66.34647 
47 79.50311 79.50311 79.50311 57.03471 59.94850 65.21459 
48 78.88199 78.88199 78.88199 56.05706 58.92002 64.09422 
49 78.26087 78.26087 78.26087 55.08944 57.90208 62.98534 
50 77.63975 77.63975 77.63975 54.13181 56.89465 61.88792 
51 77.01863 77.01863 77.01863 53.18414 55.89770 60.80191 
52 76.39752 76.39752 76.39752 52.24640 54.91120 59.72729 
53 75.77640 75.77640 75.77640 51.31857 53.93513 58.66401 
54 75.15528 75.15528 75.15528 50.40062 52.96944 57.61205 
55 74.53416 74.53416 74.53416 49.49250 52.01410 56.57138 
56 73.91304 73.91304 73.91304 48.59420 51.06909 55.54194 
57 73.29193 73.29193 73.29193 47.70569 50.13437 54.52372 
58 72.67081 72.67081 72.67081 46.82692 49.20991 53.51668 
59 72.04969 72.04969 72.04969 45.95788 48.29568 52.52077 
60 71.42857 71.42857 71.42857 45.09852 47.39164 51.53597 
61 70.80745 70.80745 70.80745 44.24883 46.49776 50.56224 
62 70.18634 70.18634 70.18634 43.40876 45.61401 49.59954 
63 69.56522 69.56522 69.56522 42.57829 44.74035 48.64784 
64 68.94410 68.94410 68.94410 41.75739 43.87676 47.70710 
65 68.32298 68.32298 68.32298 40.94601 43.02320 46.77728 
66 67.70186 67.70186 67.70186 40.14414 42.17963 45.85835 
67 67.08075 67.08075 67.08075 39.35174 41.34602 44.95028 
68 66.45963 66.45963 66.45963 38.56877 40.52234 44.05301 
69 65.83851 65.83851 65.83851 37.79521 39.70856 43.16653 
70 65.21739 65.21739 65.21739 37.03102 38.90463 42.29079 
71 64.59627 64.59627 64.59627 36.27617 38.11053 41.42574 
72 63.97516 63.97516 63.97516 35.53063 37.32622 40.57137 
73 63.35404 63.35404 63.35404 34.79436 36.55166 39.72762 
74 62.73292 62.73292 62.73292 34.06733 35.78682 38.89446 
75 62.11180 62.11180 62.11180 33.34951 35.03167 38.07185 
76 61.49068 61.49068 61.49068 32.64086 34.28617 37.25975 
77 60.86957 60.86957 60.86957 31.94135 33.55029 36.45812 
78 60.24845 60.24845 60.24845 31.25094 32.82398 35.66693 
79 59.62733 59.62733 59.62733 30.56960 32.10722 34.88613 
80 59.00621 59.00621 59.00621 29.89730 31.39996 34.11569 
81 58.38509 58.38509 58.38509 29.23401 30.70217 33.35557 
82 57.76398 57.76398 57.76398 28.57968 30.01381 32.60572 
83 57.14286 57.14286 57.14286 27.93428 29.33486 31.86611 
84 56.52174 56.52174 56.52174 27.29778 28.66526 31.13670 
85 55.90062 55.90062 55.90062 26.67014 28.00498 30.41744 
86 55.27950 55.27950 55.27950 26.05133 27.35399 29.70829 
87 54.65839 54.65839 54.65839 25.44131 26.71225 29.00922 
88 54.03727 54.03727 54.03727 24.84004 26.07972 28.32018 
89 53.41615 53.41615 53.41615 24.24749 25.45636 27.64113 
90 52.79503 52.79503 52.79503 23.66362 24.84213 26.97203 
91 52.17391 52.17391 52.17391 23.08840 24.23699 26.31284 
92 51.55280 51.55280 51.55280 22.52178 23.64091 25.66351 
93 50.93168 50.93168 50.93168 21.96374 23.05385 25.02400 
94 50.31056 50.31056 50.31056 21.41423 22.47576 24.39427 
95 49.68944 49.68944 49.68944 20.87321 21.90661 23.77428 
96 49.06832 49.06832 49.06832 20.34065 21.34636 23.16397 
97 48.44720 48.44720 48.44720 19.81651 20.79497 22.56332 
98 47.82609 47.82609 47.82609 19.30075 20.25239 21.97227 
99 47.20497 47.20497 47.20497 18.79334 19.71859 21.39078 
100 46.58385 46.58385 46.58385 18.29422 19.19352 20.81881 
101 45.96273 45.96273 45.96273 17.80337 18.67714 20.25631 
102 45.34161 45.34161 45.34161 17.32075 18.16942 19.70323 
103 44.72050 44.72050 44.72050 16.84631 17.67031 19.15953 
104 44.09938 44.09938 44.09938 16.38001 17.17977 18.62516 
105 43.47826 43.47826 43.47826 15.92182 16.69775 18.10008 
106 42.85714 42.85714 42.85714 15.47169 16.22421 17.58425 
107 42.23602 42.23602 42.23602 15.02958 15.75911 17.07760 
108 41.61491 41.61491 41.61491 14.59545 15.30241 16.58010 
109 40.99379 40.99379 40.99379 14.16926 14.85406 16.09170 
110 40.37267 40.37267 40.37267 13.75097 14.41402 15.61234 
111 39.75155 39.75155 39.75155 13.34054 13.98224 15.14199 
112 39.13043 39.13043 39.13043 12.93791 13.55868 14.68059 
113 38.50932 38.50932 38.50932 12.54305 13.14329 14.22809 
114 37.88820 37.88820 37.88820 12.15592 12.73603 13.78445 
115 37.26708 37.26708 37.26708 11.77647 12.33685 13.34961 
116 36.64596 36.64596 36.64596 11.40466 11.94570 12.92352 
117 36.02484 36.02484 36.02484 11.04044 11.56254 12.50613 
118 35.40373 35.40373 35.40373 10.68377 11.18733 12.09740 
119 34.78261 34.78261 34.78261 10.33460 10.82000 11.69726 
120 34.16149 34.16149 34.16149 9.992891 10.46052 11.30566 
121 33.54037 33.54037 33.54037 9.658589 10.10883 10.92256 
122 32.91925 32.91925 32.91925 9.331652 9.764895 10.54789 
123 32.29814 32.29814 32.29814 9.012030 9.428654 10.18162 
124 31.67702 31.67702 31.67702 8.699679 9.100060 9.823667 
125 31.05590 31.05590 31.05590 8.394548 8.779063 9.473994 
126 30.43478 30.43478 30.43478 8.096590 8.465611 9.132541 
127 29.81366 29.81366 29.81366 7.805756 8.159653 8.799251 
128 29.19255 29.19255 29.19255 7.521995 7.861138 8.474068 
129 28.57143 28.57143 28.57143 7.245259 7.570011 8.156934 
130 27.95031 27.95031 27.95031 6.975497 7.286221 7.847792 
131 27.32919 27.32919 27.32919 6.712657 7.009714 7.546583 
132 26.70807 26.70807 26.70807 6.456688 6.740434 7.253247 
133 26.08696 26.08696 26.08696 6.207537 6.478327 6.967726 
134 25.46584 25.46584 25.46584 5.965151 6.223338 6.689957 
135 24.84472 24.84472 24.84472 5.729478 5.975410 6.419881 
136 24.22360 24.22360 24.22360 5.500462 5.734485 6.157434 
137 23.60248 23.60248 23.60248 5.278050 5.500507 5.902554 
138 22.98137 22.98137 22.98137 5.062184 5.273417 5.655177 
139 22.36025 22.36025 22.36025 4.852810 5.053155 5.415238 
140 21.73913 21.73913 21.73913 4.649870 4.839663 5.182673 
141 21.11801 21.11801 21.11801 4.453307 4.632878 4.957416 
142 20.49689 20.49689 20.49689 4.263061 4.432739 4.739398 
143 19.87578 19.87578 19.87578 4.079074 4.239185 4.528553 
144 19.25466 19.25466 19.25466 3.901284 4.052150 4.324810 
145 18.63354 18.63354 18.63354 3.729632 3.871572 4.128100 
146 18.01242 18.01242 18.01242 3.564055 3.697385 3.938352 
147 17.39130 17.39130 17.39130 3.404490 3.529523 3.755494 
148 16.77019 16.77019 16.77019 3.250873 3.367917 3.579452 
149 16.14907 16.14907 16.14907 3.103138 3.212501 3.410151 
150 15.52795 15.52795 15.52795 2.961220 3.063203 3.247516 
151 14.90683 14.90683 14.90683 2.825051 2.919954 3.091470 
152 14.28571 14.28571 14.28571 2.694563 2.782680 2.941933 
153 13.66460 13.66460 13.66460 2.569686 2.651310 2.798827 
154 13.04348 13.04348 13.04348 2.450349 2.525767 2.662069 
155 12.42236 12.42236 12.42236 2.336479 2.405976 2.531576 
156 11.80124 11.80124 11.80124 2.228002 2.291858 2.407264 
157 11.18012 11.18012 11.18012 2.124843 2.183335 2.289046 
158 10.55901 10.55901 10.55901 2.026924 2.080324 2.176833 
159 9.937888 9.937888 9.937888 1.934167 1.982744 2.070536 
160 9.316770 9.316770 9.316770 1.846491 1.890508 1.970060 
161 8.695652 8.695652 8.695652 1.763812 1.803530 1.875312 
162 8.074534 8.074534 8.074534 1.686046 1.721721 1.786195 
163 7.453416 7.453416 7.453416 1.613107 1.644988 1.702607 
164 6.832298 6.832298 6.832298 1.544903 1.573238 1.624447 
165 6.211180 6.211180 6.211180 1.481344 1.506373 1.551610 
166 5.590062 5.590062 5.590062 1.422333 1.444294 1.483985 
167 4.968944 4.968944 4.968944 1.367774 1.386898 1.421461 
168 4.347826 4.347826 4.347826 1.317563 1.334077 1.363921 
169 3.726708 3.726708 3.726708 1.271445 1.285560 1.311071 
170 3.105590 3.105590 3.105590 1.226204 1.237967 1.259225 
171 2.484472 2.484472 2.484472 1.180964 1.190374 1.207380 
172 1.863354 1.863354 1.863354 1.135723 1.142780 1.155535 
173 1.242236 1.242236 1.242236 1.090482 1.095187 1.103690 
174 0.621118 0.621118 0.621118 1.045241 1.047593 1.051845 
175 0.00000 0.00000 100.0000 18.87111 8.147314 95.12896 
176 0.00000 100.0000 0.00000 36.40521 71.80052 12.80184 
177 0.00000 100.0000 83.22747 48.19986 76.51763 74.92547 
178 100.0000 0.00000 0.00000 41.83017 22.05217 2.913230 
179 93.85804 18.10680 65.83253 44.31605 23.97134 39.77798 
180 100.0000 98.56398 55.23730 80.83917 92.46125 39.34877 
181 78.36767 42.82640 43.98835 32.88112 25.17011 19.21632 
182 97.43978 64.94222 34.19274 54.63293 48.38639 16.29229 
183 13.31192 46.39303 10.37655 8.290544 14.30883 4.179740 
184 0.00000 21.79829 53.21172 6.758435 5.511256 24.51999 
185 36.31815 0.00000 24.95131 6.336214 3.646606 5.978189 
186 68.87882 70.09991 100.0000 52.42895 49.06445 101.2597 
187 65.53370 96.27524 96.27329 65.67348 80.65231 98.91210 
188 0.00000 66.50380 85.71785 27.75998 34.34746 72.10938 
189 0.00000 70.66866 4.898514 17.26907 33.42366 6.762112 
190 0.00000 53.95346 49.57237 13.69375 20.37708 23.75658 
191 62.30638 72.81704 54.03852 36.97895 44.73022 31.28213 
192 65.34263 34.86961 85.67341 32.81963 21.18920 69.22574 
193 100.0000 0.00000 41.20777 44.35877 23.06345 16.23161 
194 52.14168 39.51811 22.33953 15.88658 15.39657 6.823849 
195 36.08025 3.171743 0.00000 5.457147 3.427114 1.233754 
196 57.67226 57.51939 0.00000 23.20461 27.70571 4.985504 
197 19.30809 81.18302 49.56972 28.11513 47.33864 28.19913 
198 66.22203 26.32538 0.00000 19.16606 13.32712 2.422720 
199 0.00000 49.05451 100.0000 26.14312 22.68931 97.55299 
200 0.00000 23.40544 81.34226 13.78560 8.646655 60.53055 
201 53.17074 58.28126 70.81390 29.78160 30.59309 48.26286 
202 76.32537 100.0000 0.00000 58.59261 83.24041 13.84150 
203 64.15321 98.02285 49.67853 53.67998 77.93868 32.85284 
204 54.12167 39.12723 50.45018 19.76936 16.89097 23.52512 
205 89.59619 26.93637 28.48656 36.09183 22.05600 9.396750 
206 61.85437 0.00000 56.51660 19.90067 10.16772 27.95052 
207 60.65188 0.00000 25.06752 15.23320 8.232960 6.438508 
208 0.00000 34.92405 44.94020 7.582532 9.298356 18.19755 
209 96.37297 85.46901 69.63916 71.26526 73.13270 52.71542 
210 0.00000 63.96005 100.0000 31.85561 34.11270 99.45716 
211 0.00000 84.13661 95.03494 40.86429 55.25102 92.82715 
212 0.00000 87.39410 84.47060 39.28267 58.04503 73.92901 
213 58.06526 87.65444 73.92646 48.40855 63.37601 57.94653 
214 46.58594 63.35106 63.35403 27.63481 32.85821 39.39175 
215 67.47128 29.32800 52.78765 24.63481 16.36437 25.27757 
216 56.54206 42.26698 39.16686 19.97683 18.36756 15.26141 
217 57.38492 73.65969 31.74061 32.03223 43.20226 15.20901 
218 6.601499 26.63806 15.00582 3.618817 5.340649 3.538153 
219 59.81699 0.00000 4.482517 13.98158 7.686136 1.933540 
220 100.0000 0.00000 100.0000 59.70128 29.19948 97.04219 
221 0.00000 48.69123 71.29274 16.49534 18.64575 47.30783 
222 29.99723 61.57541 43.69960 18.79458 27.56434 20.20798 
223 46.07787 41.31372 65.85072 20.35694 17.64718 39.84153 
224 100.0000 75.78673 90.05358 74.85794 65.55610 83.44371 
225 43.60208 39.14942 81.63881 23.30359 17.86593 62.29131 
226 36.47825 74.53038 74.53416 32.92220 43.46733 55.79433 
227 29.54220 0.00000 49.33705 7.615050 3.980878 20.71053 
228 74.55296 69.79494 42.94586 40.56967 44.46959 21.77808 
229 62.75372 58.52099 47.99033 29.53525 31.15331 23.67241 
230 57.88895 32.31078 38.68519 18.25275 14.11679 14.22582 
231 56.54552 29.16251 21.46629 15.54559 12.05557 5.914955 
232 98.95740 78.19190 0.00000 61.17806 62.16983 9.638091 
233 24.40385 15.86902 2.046330 3.776378 3.566419 1.497558 
234 0.00000 48.82262 54.03372 12.72470 17.20447 27.24170 
235 33.88027 34.90786 44.92678 11.41288 11.26847 18.36593 
236 86.73245 54.19767 85.67200 52.19002 39.33515 71.70578 
237 58.14479 78.50980 100.0000 51.50600 55.39132 102.5296 
238 43.34711 48.12212 24.19045 15.26229 18.61021 8.116701 
239 33.46571 50.65008 83.82462 24.51851 23.30549 66.90470 
240 4.600356 77.33147 61.61492 26.99397 43.10793 39.40041 
241 45.89089 0.00000 77.62267 18.35103 8.779760 54.45878 
242 78.02988 90.24517 33.27368 53.98091 69.76038 19.96201 
243 66.80158 47.96841 0.00000 24.41594 23.35736 4.082346 
244 58.85292 31.05319 62.77931 22.53770 15.50548 35.64055 
245 32.71245 19.00656 19.41397 6.193321 5.194250 4.469366 
246 100.0000 43.25739 0.00000 47.38356 33.15740 4.764377 
247 53.94276 100.0000 0.00000 46.70938 77.11338 13.28467 
248 0.00000 3.204314 20.10918 1.685525 1.414642 4.177503 
249 48.41061 32.33636 100.0000 30.04343 18.39228 96.51811 
250 91.46050 0.00000 49.33705 38.05927 19.67802 22.13709 
251 97.17328 70.08176 62.74146 61.43752 55.03622 41.17851 
252 78.06546 14.16997 1.605156 24.98754 14.29843 2.420004 
253 83.80901 80.29538 93.24440 65.17611 64.31798 89.77403 
254 25.39794 70.66215 81.36928 30.55043 38.97791 65.54626 
255 0.00000 36.01112 63.08947 11.13310 11.09094 35.74972 
256 76.95554 58.52418 63.22845 40.66723 36.56079 39.27297 
257 72.81192 57.37451 99.41107 48.82541 38.79233 98.21640 
258 12.95150 0.391184 31.48093 3.076271 1.919448 8.637093 
259 0.00000 26.19232 26.23175 3.974768 5.349174 6.924584 
260 31.74849 19.67140 35.12769 7.301602 5.726040 11.06593 
261 29.28771 28.42559 7.430438 6.289868 7.165463 2.519308 
262 0.00000 100.0000 48.15622 39.93244 73.21119 31.38012 
263 52.90771 81.20800 49.56973 36.74390 51.81034 28.60785 
264 100.0000 47.38813 63.35372 54.99802 38.11744 38.96540 
265 73.29173 46.01931 28.76358 28.80482 24.60435 10.39404 
266 41.05092 10.43948 19.12388 7.654132 4.931176 4.260345 
267 29.57926 44.21329 28.76409 10.92645 14.61408 9.407480 
268 43.13864 99.38051 36.03867 44.18347 74.85283 22.98541 
269 44.79412 64.10690 75.04411 30.30030 34.39427 54.92261 
270 41.76738 76.91250 54.94982 31.21266 45.08239 32.53510 
271 0.00000 0.00000 60.37735 6.771813 3.308361 31.40073 
272 100.0000 58.55792 57.14132 57.63621 45.47757 33.41620 
273 69.14425 46.59076 38.76548 27.52921 24.08095 15.71128 
274 83.12100 65.68233 46.36873 44.89214 43.69207 23.97670 
275 67.36620 21.96471 25.94530 20.17618 12.85283 7.406860 
276 40.63650 4.314155 40.25013 9.133413 5.091190 13.97473 
277 49.34369 80.47116 4.155283 31.21334 48.72109 8.921806 
278 79.19921 37.47652 27.76429 30.32569 22.07905 9.394333 
279 36.65272 51.21889 0.00000 13.49980 19.29378 3.872891 
280 18.48788 4.608576 14.35331 2.618885 1.985967 2.805996 
281 58.39184 51.11887 22.28777 21.93017 23.50632 8.053897 
282 51.47525 80.30074 94.46127 47.56835 55.19155 91.32424 
283 86.83650 78.59823 32.06281 52.69913 57.97711 17.13329 
284 42.96596 100.0000 100.0000 60.58914 82.20274 107.2266 
285 53.49525 87.45522 95.65973 53.40482 64.92936 95.28502 
286 36.97583 33.16972 25.57072 9.733979 10.11851 7.283620 
287 0.00000 61.98789 28.70407 14.31433 25.70984 11.34439 
288 0.00000 70.19031 63.97193 23.51399 35.53231 40.85416 
289 77.83172 84.12256 53.38167 52.52555 62.58157 33.28553 
290 66.19378 42.86354 63.67442 29.09178 22.81660 37.75364 
291 40.47163 58.95732 32.52928 18.95703 26.18594 13.01005 
292 48.52619 21.74048 21.73913 11.25913 8.247662 5.492419 
293 52.51338 29.28950 0.00000 13.18970 10.95116 2.278854 
294 88.99777 61.88860 0.777220 44.43159 41.31218 6.550323 
295 25.96455 40.33854 55.08203 12.74743 13.61798 27.56349 
296 90.07077 73.04166 40.22101 53.04785 53.43850 20.97501 
297 100.0000 39.83470 91.81878 61.21721 37.26606 82.01903 
298 17.32433 25.40284 30.91577 5.286199 5.807879 8.996633 
299 77.07065 53.56822 26.22098 33.47509 30.68978 10.25806 
300 68.31134 4.241864 40.25014 20.84727 11.12780 14.52303 
301 89.61849 29.29143 0.00000 35.31335 22.35867 3.315624 
302 72.26660 39.36261 0.00000 25.18478 20.21895 3.436049 
303 28.44989 37.50043 32.59697 9.344715 11.21948 10.66197 
304 29.66152 61.27550 14.39722 16.06108 26.25897 6.792461 
305 0.00000 66.20021 71.42614 23.38613 32.36973 49.77652 
306 87.56292 100.0000 81.99536 78.02675 91.94150 74.29100 
307 72.88722 50.93925 50.31043 32.78171 28.64747 24.98677 
308 60.87927 39.11766 39.75137 21.26103 17.83669 15.46874 
309 61.81770 66.13538 31.45254 30.31250 36.69777 13.90191 
310 55.39159 8.730681 42.85526 14.95427 8.306035 16.08171 
311 32.68053 15.49174 8.074031 5.426281 4.357687 2.097961 
312 49.58435 18.15763 65.83253 17.54822 10.17724 38.52513 
313 100.0000 96.84594 0.00000 74.74797 87.87856 13.88592 
314 86.00967 87.65032 78.45963 66.61080 72.60799 65.52439 
315 80.00545 28.67797 43.63973 30.88161 19.59003 17.98829 
316 90.03719 100.0000 0.00000 68.58544 88.39275 14.30974 
317 56.76123 50.20569 64.87468 26.92474 24.93181 39.71010 
318 93.36716 51.11090 28.97471 45.10548 35.39459 11.71195 
319 80.68909 10.13337 29.97530 27.80286 15.20610 9.180880 
320 0.00000 67.27673 43.64650 18.37968 31.18374 20.88962 
321 15.60072 18.89679 9.705854 3.083118 3.618603 2.292595 
322 47.89025 64.71291 90.71238 36.61315 37.48094 81.26695 
323 100.0000 79.80486 57.10006 68.19841 66.61194 36.89709 
324 0.105434 70.27726 69.56509 24.90042 36.15763 47.92202 
325 87.72258 100.0000 95.21611 82.73352 93.83832 98.43183 
326 100.0000 60.47670 48.44461 56.87928 46.43032 25.55750 
327 86.08416 70.46809 93.74103 61.60617 54.35540 89.00720 
328 35.30323 26.64667 32.51209 8.762608 7.856922 10.00016 
329 93.89650 0.00000 16.62177 36.80945 19.41481 4.873825 
330 16.07088 6.064752 1.354793 2.099050 1.825275 1.199661 
331 34.77628 84.93706 38.35073 31.68369 52.87379 20.79000 
332 58.66320 45.58594 100.0000 37.46076 26.95054 97.77945 
333 90.84589 42.68360 69.70752 47.16751 31.89769 46.11571 
334 65.54384 72.54255 0.00000 33.98002 43.49197 7.465190 
335 42.04189 0.00000 49.36545 10.74883 5.596130 20.88150 
336 100.0000 39.92523 28.76444 47.71805 31.90305 10.80716 
337 81.88323 30.05425 100.0000 47.45149 26.74596 97.21376 
338 39.54607 37.45094 0.00000 10.39238 11.92219 2.613621 
339 0.104960 41.48253 30.66236 7.452081 11.70855 9.900332 
340 65.52004 0.00000 100.0000 34.66501 16.29070 95.86903 
341 0.00000 21.62370 38.15574 4.509279 4.577992 12.77752 
342 56.13465 100.0000 72.74836 56.36833 81.08456 59.27560 
343 50.60831 66.22360 57.21083 29.12253 35.71913 33.10576 
344 22.20504 35.91931 0.00000 6.403829 9.358298 2.328785 
345 84.13292 100.0000 61.26288 69.97695 88.42087 45.48642 
346 100.0000 40.44768 48.46494 50.22239 33.11321 23.35447 
347 84.76091 0.00000 76.32891 38.79084 19.36169 53.47136 
348 62.18744 29.50581 43.81971 20.46185 14.42237 17.67153 
349 48.78164 2.229013 13.09009 9.624126 5.505231 2.868089 
350 27.41209 2.610553 6.151152 3.655435 2.464879 1.616249 
351 33.83161 72.65086 34.18692 23.76541 38.11242 15.93170 
352 53.53483 58.61641 100.0000 39.72125 34.79985 99.17554 
353 90.13297 42.62545 40.65574 41.09739 29.37793 17.24935 
354 65.41485 54.97514 1.934778 26.07664 27.74669 4.982451 
355 50.75460 27.39454 46.79524 15.50306 11.29923 19.61018 
356 92.08083 44.21207 28.76409 41.87723 30.57190 10.85768 
357 81.90806 92.01978 100.0000 74.18123 80.17167 106.1187 
358 38.43714 20.42838 0.00000 7.208413 6.011544 1.640388 
359 0.00000 46.76549 25.18888 8.483895 14.48944 8.047453 
360 73.30927 0.00000 53.29102 25.66730 13.21050 25.08474 
361 88.17293 50.80069 100.0000 57.40802 39.65732 99.18164 
362 67.85759 52.19788 38.14382 28.53751 27.29553 15.88976 
363 21.29774 38.12382 93.18848 22.00071 16.37744 82.68548 
364 67.99972 74.09693 82.60819 47.75372 50.48758 68.89367 
365 27.72625 28.40529 48.01818 9.378827 8.361129 20.35740 
366 88.40816 54.41570 61.50019 46.99640 37.53599 37.14170 
367 94.57232 83.67600 88.63397 74.21408 72.27850 82.16859 
368 82.44709 84.87292 41.37651 54.35294 64.45670 23.81057 
369 63.31373 30.95070 29.81323 19.69707 14.59116 9.414226 
370 77.01424 60.09708 73.81944 43.96946 38.91051 53.30463 
371 74.83955 6.836623 18.25914 22.93718 12.55764 4.693052 
372 68.35291 17.38984 75.26210 28.66399 15.51746 51.68404 
373 67.93125 3.062981 0.00000 18.19549 9.990621 1.829796 
374 70.17456 83.45194 84.46815 55.09646 62.37195 73.92717 
375 22.74900 58.51936 47.99033 16.90527 24.64028 23.08040 
376 37.26493 43.25246 0.00000 11.22709 14.51300 3.069761 
377 89.41378 81.72697 49.56998 58.86266 63.68819 29.73587 
378 82.09041 10.63735 52.03913 31.68795 16.92047 24.32447 
379 88.44553 32.49351 91.81831 49.68391 28.92787 81.01607 
380 35.96716 24.54036 56.31657 12.03305 8.693245 27.87810 
381 59.18926 58.00272 38.34476 26.26612 29.31530 16.52414 
382 0.00000 1.083096 43.81847 3.910849 2.211638 16.18530 
383 94.96535 66.06872 48.02048 54.76560 49.02073 25.81734 
384 22.49081 0.00000 21.26014 3.354718 2.137271 4.577776 
385 91.84065 99.37569 99.37888 87.18156 95.19979 107.0165 
386 45.76188 85.91058 78.73359 43.73263 59.07837 64.54283 
387 21.97328 39.15379 78.27362 17.38893 14.93570 56.69687 
388 32.91371 22.31036 68.10287 13.58862 8.761598 41.32067 
389 87.42263 35.82223 57.13933 39.95455 26.03433 30.59230 
390 26.25053 21.54513 46.58789 7.922241 6.192471 18.85870 
391 100.0000 92.03374 33.29345 72.77427 81.34096 21.21797 
392 77.93368 66.69619 62.59132 44.74293 43.97413 39.74885 
393 56.14567 18.66503 6.066017 13.36342 8.893260 2.337554 
394 48.75564 8.237976 5.409971 9.619171 5.829378 1.882520 
395 89.69494 0.00000 25.73225 33.86673 17.83487 7.564477 
396 34.04982 87.17302 0.00000 30.81421 54.86846 9.827923 
397 91.82225 51.72334 0.00000 42.79744 34.65423 5.294852 
398 60.95546 55.71832 61.61858 30.09165 29.53286 36.62101 
399 37.20956 14.42746 93.26841 21.56467 10.80118 81.78731 
400 86.80309 76.90629 54.94982 54.89196 57.28626 33.64366 
401 31.39890 61.98537 28.70407 17.59426 27.39936 11.49776 
402 51.26955 62.65277 6.305344 22.72572 30.60260 6.058427 
