Pre-made_Targets/Patch Width 8-11mm - Expert (Use rig-guide-ruler)/Designed Targets/i1Pro-Expert-Letter-1168p-2pages-w7.0mm-24x25-portrait_TC918+Spyderprint_grays-randomized/i1Pro-Expert-Letter-1168p-2pages-tc918-grays-randomized.ti2
CTI2   

DESCRIPTOR "Argyll Calibration Target chart information 2"
ORIGINATOR "Argyll printtarg"
CREATED "Sat Mar 14 14:41:30 2026"
TARGET_INSTRUMENT "GretagMacbeth i1 Pro"
APPROX_WHITE_POINT "95.106486 100.000000 108.844025"
COLOR_REP "iRGB"
PAPER_SIZE "215.9x279.4"
RANDOM_START "161"
STEPS_IN_PASS "25"
PASSES_IN_STRIPS2 "24,23"
STRIP_INDEX_PATTERN "A-Z, A-Z"
PATCH_INDEX_PATTERN "0-9,@-9,@-9;1-999"
INDEX_ORDER "STRIP_THEN_PATCH"

NUMBER_OF_FIELDS 8
BEGIN_DATA_FORMAT
SAMPLE_ID SAMPLE_LOC RGB_R RGB_G RGB_B XYZ_X XYZ_Y XYZ_Z 
END_DATA_FORMAT

NUMBER_OF_SETS 1175
BEGIN_DATA
1 "J13" 0.00000 0.00000 0.00000 0.00000 0.00000 0.00000 
2 "S1" 0.00000 12.54902 0.00000 0.00516500 0.0103300 0.00172200 
3 "AN20" 0.00000 25.09804 0.00000 0.0183330 0.0366650 0.00611100 
4 "T5" 0.00000 37.64706 0.00000 0.0418260 0.0836520 0.0139420 
5 "AN3" 0.00000 50.19608 0.00000 0.0771870 0.154373 0.0257290 
6 "AP2" 0.00000 62.74510 0.00000 0.125700 0.251399 0.0419000 
7 "O17" 0.00000 75.29412 0.00000 0.188484 0.376968 0.0628280 
8 "AH2" 0.00000 87.84314 0.00000 0.266539 0.533077 0.0888460 
9 "AR25" 0.00000 100.0000 0.00000 0.357576 0.715152 0.119192 
10 "B20" 0.00000 0.00000 12.54902 0.00260600 0.00104200 0.0137260 
11 "G23" 0.00000 12.54902 12.54902 0.00777100 0.0113720 0.0154480 
12 "AK13" 0.00000 25.09804 12.54902 0.0209390 0.0377080 0.0198370 
13 "P12" 0.00000 37.64706 12.54902 0.0444320 0.0846940 0.0276680 
14 "AJ16" 0.00000 50.19608 12.54902 0.0797930 0.155416 0.0394550 
15 "AM17" 0.00000 62.74510 12.54902 0.128306 0.252442 0.0556260 
16 "AB5" 0.00000 75.29412 12.54902 0.191090 0.378010 0.0765540 
17 "R2" 0.00000 87.84314 12.54902 0.269145 0.534120 0.102572 
18 "AK2" 0.00000 100.0000 12.54902 0.360182 0.716195 0.132918 
19 "Y20" 0.00000 0.00000 25.09804 0.00925100 0.00370000 0.0487220 
20 "W23" 0.00000 12.54902 25.09804 0.0144160 0.0140300 0.0504430 
21 "AR5" 0.00000 25.09804 25.09804 0.0275840 0.0403660 0.0548320 
22 "O21" 0.00000 37.64706 25.09804 0.0510770 0.0873520 0.0626640 
23 "AD20" 0.00000 50.19608 25.09804 0.0864370 0.158073 0.0744500 
24 "AL1" 0.00000 62.74510 25.09804 0.134951 0.255100 0.0906210 
25 "AS2" 0.00000 75.29412 25.09804 0.197735 0.380668 0.111549 
26 "AM21" 0.00000 87.84314 25.09804 0.275790 0.536778 0.137568 
27 "F10" 0.00000 100.0000 25.09804 0.366827 0.718853 0.167914 
28 "AQ14" 12.54902 0.00000 0.00000 0.00595700 0.00307200 0.000279000 
29 "AE23" 12.54902 12.54902 0.00000 0.0111220 0.0134010 0.00200100 
30 "AG6" 12.54902 25.09804 0.00000 0.0242900 0.0397370 0.00639000 
31 "AI19" 12.54902 37.64706 0.00000 0.0477830 0.0867240 0.0142210 
32 "AJ19" 12.54902 50.19608 0.00000 0.0831440 0.157445 0.0260080 
33 "AR16" 12.54902 62.74510 0.00000 0.131657 0.254471 0.0421790 
34 "Y7" 12.54902 75.29412 0.00000 0.194441 0.380039 0.0631070 
35 "C1" 12.54902 87.84314 0.00000 0.272496 0.536149 0.0891250 
36 "AG15" 12.54902 100.0000 0.00000 0.363534 0.718224 0.119471 
37 "K16" 12.54902 0.00000 12.54902 0.00856400 0.00411400 0.0140050 
38 "AC6" 12.54902 12.54902 12.54902 0.0137280 0.0144440 0.0157270 
39 "AG22" 12.54902 25.09804 12.54902 0.0268960 0.0407800 0.0201160 
40 "C25" 12.54902 37.64706 12.54902 0.0503900 0.0877660 0.0279470 
41 "AM2" 12.54902 50.19608 12.54902 0.0857500 0.158487 0.0397340 
42 "T6" 12.54902 62.74510 12.54902 0.134263 0.255514 0.0559050 
43 "AH22" 12.54902 75.29412 12.54902 0.197047 0.381082 0.0768330 
44 "AB1" 12.54902 87.84314 12.54902 0.275102 0.537192 0.102852 
45 "AS11" 12.54902 100.0000 12.54902 0.366140 0.719266 0.133197 
46 "AP14" 12.54902 0.00000 25.09804 0.0152080 0.00677200 0.0490010 
47 "P24" 12.54902 12.54902 25.09804 0.0203730 0.0171020 0.0507220 
48 "C22" 12.54902 25.09804 25.09804 0.0335410 0.0434380 0.0551120 
49 "X6" 12.54902 37.64706 25.09804 0.0570340 0.0904240 0.0629430 
50 "AT23" 12.54902 50.19608 25.09804 0.0923950 0.161145 0.0747300 
51 "AH21" 12.54902 62.74510 25.09804 0.140908 0.258172 0.0909010 
52 "W17" 12.54902 75.29412 25.09804 0.203692 0.383740 0.111829 
53 "E14" 12.54902 87.84314 25.09804 0.281747 0.539850 0.137847 
54 "N4" 12.54902 100.0000 25.09804 0.372784 0.721924 0.168193 
55 "AP9" 25.09804 0.00000 0.00000 0.0211460 0.0109040 0.000991000 
56 "AJ22" 25.09804 12.54902 0.00000 0.0263110 0.0212330 0.00271300 
57 "F21" 25.09804 25.09804 0.00000 0.0394790 0.0475690 0.00710200 
58 "AE14" 25.09804 37.64706 0.00000 0.0629720 0.0945550 0.0149330 
59 "A23" 25.09804 50.19608 0.00000 0.0983330 0.165277 0.0267200 
60 "AB18" 25.09804 62.74510 0.00000 0.146846 0.262303 0.0428910 
61 "O20" 25.09804 75.29412 0.00000 0.209630 0.387871 0.0638190 
62 "T7" 25.09804 87.84314 0.00000 0.287685 0.543981 0.0898370 
63 "W20" 25.09804 100.0000 0.00000 0.378723 0.726056 0.120183 
64 "D20" 25.09804 0.00000 12.54902 0.0237530 0.0119460 0.0147170 
65 "AS4" 25.09804 12.54902 12.54902 0.0289170 0.0222760 0.0164390 
66 "AL10" 25.09804 25.09804 12.54902 0.0420850 0.0486120 0.0208280 
67 "AB4" 25.09804 37.64706 12.54902 0.0655790 0.0955980 0.0286590 
68 "I25" 25.09804 50.19608 12.54902 0.100939 0.166319 0.0404460 
69 "C6" 25.09804 62.74510 12.54902 0.149452 0.263345 0.0566170 
70 "AL2" 25.09804 75.29412 12.54902 0.212236 0.388914 0.0775450 
71 "C10" 25.09804 87.84314 12.54902 0.290291 0.545024 0.103564 
72 "AM18" 25.09804 100.0000 12.54902 0.381329 0.727098 0.133909 
73 "Q14" 25.09804 0.00000 25.09804 0.0303970 0.0146040 0.0497130 
74 "C24" 25.09804 12.54902 25.09804 0.0355620 0.0249340 0.0514340 
75 "Y19" 25.09804 25.09804 25.09804 0.0487300 0.0512690 0.0558240 
76 "C16" 25.09804 37.64706 25.09804 0.0722230 0.0982560 0.0636550 
77 "AQ25" 25.09804 50.19608 25.09804 0.107584 0.168977 0.0754420 
78 "Q15" 25.09804 62.74510 25.09804 0.156097 0.266003 0.0916130 
79 "L9" 25.09804 75.29412 25.09804 0.218881 0.391572 0.112541 
80 "AI21" 25.09804 87.84314 25.09804 0.296936 0.547681 0.138559 
81 "AB12" 25.09804 100.0000 25.09804 0.387973 0.729756 0.168905 
82 "AK7" 37.64706 0.00000 0.00000 0.0482450 0.0248760 0.00226100 
83 "AK25" 37.64706 12.54902 0.00000 0.0534100 0.0352060 0.00398300 
84 "AP11" 37.64706 25.09804 0.00000 0.0665780 0.0615420 0.00837200 
85 "AG13" 37.64706 37.64706 0.00000 0.0900710 0.108528 0.0162030 
86 "O13" 37.64706 50.19608 0.00000 0.125432 0.179250 0.0279900 
87 "R15" 37.64706 62.74510 0.00000 0.173945 0.276276 0.0441610 
88 "O16" 37.64706 75.29412 0.00000 0.236729 0.401844 0.0650890 
89 "X11" 37.64706 87.84314 0.00000 0.314784 0.557954 0.0911080 
90 "W16" 37.64706 100.0000 0.00000 0.405821 0.740029 0.121453 
91 "R9" 37.64706 0.00000 12.54902 0.0508520 0.0259190 0.0159880 
92 "AD21" 37.64706 12.54902 12.54902 0.0560160 0.0362490 0.0177090 
93 "Y21" 37.64706 25.09804 12.54902 0.0691840 0.0625840 0.0220980 
94 "L22" 37.64706 37.64706 12.54902 0.0926770 0.109571 0.0299300 
95 "AN13" 37.64706 50.19608 12.54902 0.128038 0.180292 0.0417160 
96 "AT22" 37.64706 62.74510 12.54902 0.176551 0.277318 0.0578870 
97 "AT19" 37.64706 75.29412 12.54902 0.239335 0.402887 0.0788150 
98 "N15" 37.64706 87.84314 12.54902 0.317390 0.558996 0.104834 
99 "L7" 37.64706 100.0000 12.54902 0.408428 0.741071 0.135180 
100 "AF5" 37.64706 0.00000 25.09804 0.0574960 0.0285770 0.0509830 
101 "AP23" 37.64706 12.54902 25.09804 0.0626610 0.0389060 0.0527050 
102 "AP5" 37.64706 25.09804 25.09804 0.0758290 0.0652420 0.0570940 
103 "AG17" 37.64706 37.64706 25.09804 0.0993220 0.112229 0.0649250 
104 "Z7" 37.64706 50.19608 25.09804 0.134683 0.182950 0.0767120 
105 "K5" 37.64706 62.74510 25.09804 0.183196 0.279976 0.0928830 
106 "AA18" 37.64706 75.29412 25.09804 0.245980 0.405544 0.113811 
107 "K17" 37.64706 87.84314 25.09804 0.324035 0.561654 0.139829 
108 "B16" 37.64706 100.0000 25.09804 0.415072 0.743729 0.170175 
109 "AD7" 50.19608 0.00000 0.00000 0.0890330 0.0459080 0.00417300 
110 "U16" 50.19608 12.54902 0.00000 0.0941980 0.0562370 0.00589500 
111 "AF10" 50.19608 25.09804 0.00000 0.107366 0.0825730 0.0102840 
112 "C12" 50.19608 37.64706 0.00000 0.130859 0.129560 0.0181150 
113 "V10" 50.19608 50.19608 0.00000 0.166220 0.200281 0.0299020 
114 "E21" 50.19608 62.74510 0.00000 0.214733 0.297307 0.0460730 
115 "I15" 50.19608 75.29412 0.00000 0.277517 0.422875 0.0670010 
116 "AT20" 50.19608 87.84314 0.00000 0.355572 0.578985 0.0930200 
117 "AP4" 50.19608 100.0000 0.00000 0.446609 0.761060 0.123365 
118 "AA4" 50.19608 0.00000 12.54902 0.0916390 0.0469500 0.0178990 
119 "AF15" 50.19608 12.54902 12.54902 0.0968040 0.0572800 0.0196210 
120 "AC1" 50.19608 25.09804 12.54902 0.109972 0.0836160 0.0240100 
121 "P11" 50.19608 37.64706 12.54902 0.133465 0.130602 0.0318410 
122 "AP18" 50.19608 50.19608 12.54902 0.168826 0.201323 0.0436280 
123 "Q8" 50.19608 62.74510 12.54902 0.217339 0.298349 0.0597990 
124 "T2" 50.19608 75.29412 12.54902 0.280123 0.423918 0.0807270 
125 "AA7" 50.19608 87.84314 12.54902 0.358178 0.580028 0.106746 
126 "AS1" 50.19608 100.0000 12.54902 0.449215 0.762102 0.137091 
127 "AA8" 50.19608 0.00000 25.09804 0.0982840 0.0496080 0.0528950 
128 "N23" 50.19608 12.54902 25.09804 0.103449 0.0599380 0.0546170 
129 "AL3" 50.19608 25.09804 25.09804 0.116617 0.0862740 0.0590060 
130 "K4" 50.19608 37.64706 25.09804 0.140110 0.133260 0.0668370 
131 "AQ9" 50.19608 50.19608 25.09804 0.175471 0.203981 0.0786240 
132 "H15" 50.19608 62.74510 25.09804 0.223984 0.301007 0.0947950 
133 "S20" 50.19608 75.29412 25.09804 0.286768 0.426576 0.115723 
134 "AP21" 50.19608 87.84314 25.09804 0.364823 0.582686 0.141741 
135 "S15" 50.19608 100.0000 25.09804 0.455860 0.764760 0.172087 
136 "C3" 62.74510 0.00000 0.00000 0.144992 0.0747610 0.00679600 
137 "W24" 62.74510 12.54902 0.00000 0.150157 0.0850910 0.00851800 
138 "AM13" 62.74510 25.09804 0.00000 0.163325 0.111427 0.0129070 
139 "U13" 62.74510 37.64706 0.00000 0.186818 0.158413 0.0207380 
140 "B5" 62.74510 50.19608 0.00000 0.222178 0.229135 0.0325250 
141 "AH9" 62.74510 62.74510 0.00000 0.270692 0.326161 0.0486960 
142 "W21" 62.74510 75.29412 0.00000 0.333476 0.451729 0.0696240 
143 "AF24" 62.74510 87.84314 0.00000 0.411531 0.607839 0.0956430 
144 "H9" 62.74510 100.0000 0.00000 0.502568 0.789914 0.125988 
145 "E11" 62.74510 0.00000 12.54902 0.147598 0.0758040 0.0205230 
146 "S6" 62.74510 12.54902 12.54902 0.152763 0.0861330 0.0222440 
147 "AS17" 62.74510 25.09804 12.54902 0.165931 0.112469 0.0266330 
148 "E23" 62.74510 37.64706 12.54902 0.189424 0.159456 0.0344650 
149 "AU18" 62.74510 50.19608 12.54902 0.224785 0.230177 0.0462510 
150 "AH10" 62.74510 62.74510 12.54902 0.273298 0.327203 0.0624220 
151 "Q22" 62.74510 75.29412 12.54902 0.336082 0.452772 0.0833500 
152 "D14" 62.74510 87.84314 12.54902 0.414137 0.608881 0.109369 
153 "AA25" 62.74510 100.0000 12.54902 0.505174 0.790956 0.139715 
154 "AT12" 62.74510 0.00000 25.09804 0.154243 0.0784620 0.0555180 
155 "V2" 62.74510 12.54902 25.09804 0.159408 0.0887910 0.0572400 
156 "AA5" 62.74510 25.09804 25.09804 0.172576 0.115127 0.0616290 
157 "H4" 62.74510 37.64706 25.09804 0.196069 0.162114 0.0694600 
158 "AN2" 62.74510 50.19608 25.09804 0.231429 0.232835 0.0812470 
159 "AJ18" 62.74510 62.74510 25.09804 0.279942 0.329861 0.0974180 
160 "X21" 62.74510 75.29412 25.09804 0.342727 0.455429 0.118346 
161 "AR8" 62.74510 87.84314 25.09804 0.420782 0.611539 0.144364 
162 "F23" 62.74510 100.0000 25.09804 0.511819 0.793614 0.174710 
163 "AT5" 75.29412 0.00000 0.00000 0.217412 0.112103 0.0101910 
164 "M13" 75.29412 12.54902 0.00000 0.222577 0.122433 0.0119130 
165 "AJ5" 75.29412 25.09804 0.00000 0.235745 0.148769 0.0163020 
166 "AM16" 75.29412 37.64706 0.00000 0.259238 0.195755 0.0241330 
167 "L12" 75.29412 50.19608 0.00000 0.294599 0.266476 0.0359200 
168 "AT8" 75.29412 62.74510 0.00000 0.343112 0.363502 0.0520910 
169 "M9" 75.29412 75.29412 0.00000 0.405896 0.489071 0.0730190 
170 "AP17" 75.29412 87.84314 0.00000 0.483951 0.645181 0.0990370 
171 "D8" 75.29412 100.0000 0.00000 0.574988 0.827255 0.129383 
172 "AC3" 75.29412 0.00000 12.54902 0.220018 0.113146 0.0239170 
173 "AL25" 75.29412 12.54902 12.54902 0.225183 0.123475 0.0256390 
174 "W5" 75.29412 25.09804 12.54902 0.238351 0.149811 0.0300280 
175 "R7" 75.29412 37.64706 12.54902 0.261844 0.196797 0.0378590 
176 "T10" 75.29412 50.19608 12.54902 0.297205 0.267519 0.0496460 
177 "S13" 75.29412 62.74510 12.54902 0.345718 0.364545 0.0658170 
178 "T25" 75.29412 75.29412 12.54902 0.408502 0.490113 0.0867450 
179 "AF23" 75.29412 87.84314 12.54902 0.486557 0.646223 0.112763 
180 "X17" 75.29412 100.0000 12.54902 0.577594 0.828298 0.143109 
181 "AT6" 0.00000 0.00000 0.00000 0.00000 0.00000 0.00000 
182 "AJ17" 100.0000 100.0000 100.0000 0.950470 1.000000 1.088830 
183 "AL7" 75.29412 0.00000 25.09804 0.226663 0.115803 0.0589130 
184 "G10" 75.29412 12.54902 25.09804 0.231828 0.126133 0.0606340 
185 "H2" 75.29412 25.09804 25.09804 0.244996 0.152469 0.0650240 
186 "J17" 75.29412 37.64706 25.09804 0.268489 0.199455 0.0728550 
187 "F11" 75.29412 50.19608 25.09804 0.303850 0.270177 0.0846420 
188 "AK11" 75.29412 62.74510 25.09804 0.352363 0.367203 0.100813 
189 "W4" 75.29412 75.29412 25.09804 0.415147 0.492771 0.121741 
190 "G4" 75.29412 87.84314 25.09804 0.493202 0.648881 0.147759 
191 "AE21" 75.29412 100.0000 25.09804 0.584239 0.830956 0.178105 
192 "AU24" 87.84314 0.00000 0.00000 0.307447 0.158527 0.0144120 
193 "AN19" 87.84314 12.54902 0.00000 0.312612 0.168857 0.0161330 
194 "B25" 87.84314 25.09804 0.00000 0.325779 0.195193 0.0205220 
195 "AJ20" 87.84314 37.64706 0.00000 0.349273 0.242179 0.0283540 
196 "AN21" 87.84314 50.19608 0.00000 0.384633 0.312900 0.0401400 
197 "AE20" 87.84314 62.74510 0.00000 0.433146 0.409927 0.0563110 
198 "N1" 87.84314 75.29412 0.00000 0.495931 0.535495 0.0772390 
199 "A11" 87.84314 87.84314 0.00000 0.573986 0.691605 0.103258 
200 "AF11" 87.84314 100.0000 0.00000 0.665023 0.873679 0.133604 
201 "A9" 87.84314 0.00000 12.54902 0.310053 0.159570 0.0281380 
202 "U6" 87.84314 12.54902 12.54902 0.315218 0.169899 0.0298590 
203 "I17" 87.84314 25.09804 12.54902 0.328386 0.196235 0.0342490 
204 "AA11" 87.84314 37.64706 12.54902 0.351879 0.243222 0.0420800 
205 "P8" 87.84314 50.19608 12.54902 0.387240 0.313943 0.0538660 
206 "F1" 87.84314 62.74510 12.54902 0.435753 0.410969 0.0700370 
207 "AL8" 87.84314 75.29412 12.54902 0.498537 0.536537 0.0909660 
208 "E9" 87.84314 87.84314 12.54902 0.576592 0.692647 0.116984 
209 "E1" 87.84314 100.0000 12.54902 0.667629 0.874722 0.147330 
210 "A4" 87.84314 0.00000 25.09804 0.316698 0.162228 0.0631330 
211 "C19" 87.84314 12.54902 25.09804 0.321862 0.172557 0.0648550 
212 "AK18" 87.84314 25.09804 25.09804 0.335030 0.198893 0.0692440 
213 "AG18" 87.84314 37.64706 25.09804 0.358524 0.245879 0.0770750 
214 "AU4" 87.84314 50.19608 25.09804 0.393884 0.316601 0.0888620 
215 "AN4" 87.84314 62.74510 25.09804 0.442397 0.413627 0.105033 
216 "G15" 87.84314 75.29412 25.09804 0.505181 0.539195 0.125961 
217 "T18" 87.84314 87.84314 25.09804 0.583236 0.695305 0.151979 
218 "AR15" 87.84314 100.0000 25.09804 0.674274 0.877380 0.182325 
219 "AN25" 100.0000 0.00000 0.00000 0.412456 0.212673 0.0193340 
220 "A21" 100.0000 12.54902 0.00000 0.417621 0.223002 0.0210550 
221 "O11" 100.0000 25.09804 0.00000 0.430789 0.249338 0.0254450 
222 "AC9" 100.0000 37.64706 0.00000 0.454282 0.296325 0.0332760 
223 "AQ2" 100.0000 50.19608 0.00000 0.489643 0.367046 0.0450630 
224 "E24" 100.0000 62.74510 0.00000 0.538156 0.464072 0.0612340 
225 "S2" 100.0000 75.29412 0.00000 0.600940 0.589640 0.0821620 
226 "J6" 100.0000 87.84314 0.00000 0.678995 0.745750 0.108180 
227 "S22" 100.0000 100.0000 0.00000 0.770033 0.927825 0.138526 
228 "AG9" 100.0000 0.00000 12.54902 0.415063 0.213715 0.0330600 
229 "B3" 100.0000 12.54902 12.54902 0.420227 0.224045 0.0347820 
230 "AH20" 100.0000 25.09804 12.54902 0.433395 0.250381 0.0391710 
231 "F4" 100.0000 37.64706 12.54902 0.456889 0.297367 0.0470020 
232 "AB9" 100.0000 50.19608 12.54902 0.492249 0.368089 0.0587890 
233 "AU21" 100.0000 62.74510 12.54902 0.540762 0.465115 0.0749600 
234 "AL6" 100.0000 75.29412 12.54902 0.603546 0.590683 0.0958880 
235 "W11" 100.0000 87.84314 12.54902 0.681601 0.746793 0.121906 
236 "AP25" 100.0000 100.0000 12.54902 0.772639 0.928868 0.152252 
237 "AU20" 100.0000 0.00000 25.09804 0.421707 0.216373 0.0680550 
238 "AA16" 100.0000 12.54902 25.09804 0.426872 0.226703 0.0697770 
239 "AT17" 100.0000 25.09804 25.09804 0.440040 0.253039 0.0741660 
240 "H19" 100.0000 37.64706 25.09804 0.463533 0.300025 0.0819970 
241 "AU1" 100.0000 50.19608 25.09804 0.498894 0.370746 0.0937840 
242 "U9" 100.0000 62.74510 25.09804 0.547407 0.467773 0.109955 
243 "AS8" 100.0000 75.29412 25.09804 0.610191 0.593341 0.130883 
244 "AJ24" 100.0000 87.84314 25.09804 0.688246 0.749451 0.156902 
245 "X12" 100.0000 100.0000 25.09804 0.779283 0.931525 0.187247 
246 "AK23" 0.00000 0.00000 37.64706 0.0211060 0.00844200 0.111158 
247 "R5" 0.00000 12.54902 37.64706 0.0262710 0.0187720 0.112879 
248 "AS10" 0.00000 25.09804 37.64706 0.0394390 0.0451080 0.117269 
249 "AF25" 0.00000 37.64706 37.64706 0.0629320 0.0920940 0.125100 
250 "Z1" 0.00000 50.19608 37.64706 0.0982920 0.162815 0.136887 
251 "S18" 0.00000 62.74510 37.64706 0.146806 0.259842 0.153058 
252 "Z23" 0.00000 75.29412 37.64706 0.209590 0.385410 0.173986 
253 "Y5" 0.00000 87.84314 37.64706 0.287645 0.541520 0.200004 
254 "D2" 0.00000 100.0000 37.64706 0.378682 0.723595 0.230350 
255 "L24" 0.00000 0.00000 50.19608 0.0389490 0.0155800 0.205133 
256 "M2" 0.00000 12.54902 50.19608 0.0441140 0.0259090 0.206855 
257 "Y13" 0.00000 25.09804 50.19608 0.0572820 0.0522450 0.211244 
258 "AT24" 0.00000 37.64706 50.19608 0.0807750 0.0992320 0.219075 
259 "I4" 0.00000 50.19608 50.19608 0.116136 0.169953 0.230862 
260 "I18" 0.00000 62.74510 50.19608 0.164649 0.266979 0.247033 
261 "AA21" 0.00000 75.29412 50.19608 0.227433 0.392547 0.267961 
262 "AQ12" 0.00000 87.84314 50.19608 0.305488 0.548657 0.293979 
263 "Z2" 0.00000 100.0000 50.19608 0.396525 0.730732 0.324325 
264 "R18" 0.00000 0.00000 62.74510 0.0634300 0.0253720 0.334063 
265 "AB6" 0.00000 12.54902 62.74510 0.0685940 0.0357010 0.335784 
266 "L13" 0.00000 25.09804 62.74510 0.0817620 0.0620370 0.340174 
267 "AH13" 0.00000 37.64706 62.74510 0.105256 0.109024 0.348005 
268 "AB17" 0.00000 50.19608 62.74510 0.140616 0.179745 0.359792 
269 "AG8" 0.00000 62.74510 62.74510 0.189129 0.276771 0.375963 
270 "M18" 0.00000 75.29412 62.74510 0.251913 0.402339 0.396891 
271 "AG20" 0.00000 87.84314 62.74510 0.329968 0.558449 0.422909 
272 "Z21" 0.00000 100.0000 62.74510 0.421006 0.740524 0.453255 
273 "G11" 12.54902 0.00000 37.64706 0.0270630 0.0115140 0.111437 
274 "AS25" 12.54902 12.54902 37.64706 0.0322280 0.0218440 0.113159 
275 "V7" 12.54902 25.09804 37.64706 0.0453960 0.0481800 0.117548 
276 "AK10" 12.54902 37.64706 37.64706 0.0688890 0.0951660 0.125379 
277 "Y4" 12.54902 50.19608 37.64706 0.104250 0.165887 0.137166 
278 "B2" 12.54902 62.74510 37.64706 0.152763 0.262914 0.153337 
279 "AF21" 12.54902 75.29412 37.64706 0.215547 0.388482 0.174265 
280 "H10" 12.54902 87.84314 37.64706 0.293602 0.544592 0.200283 
281 "V17" 12.54902 100.0000 37.64706 0.384639 0.726666 0.230629 
282 "X5" 12.54902 0.00000 50.19608 0.0449070 0.0186520 0.205412 
283 "AH18" 12.54902 12.54902 50.19608 0.0500720 0.0289810 0.207134 
284 "S17" 12.54902 25.09804 50.19608 0.0632400 0.0553170 0.211523 
285 "K19" 12.54902 37.64706 50.19608 0.0867330 0.102303 0.219354 
286 "A10" 12.54902 50.19608 50.19608 0.122093 0.173025 0.231141 
287 "AK8" 12.54902 62.74510 50.19608 0.170606 0.270051 0.247312 
288 "K14" 12.54902 75.29412 50.19608 0.233391 0.395619 0.268240 
289 "AG4" 12.54902 87.84314 50.19608 0.311446 0.551729 0.294259 
290 "I6" 12.54902 100.0000 50.19608 0.402483 0.733804 0.324604 
291 "Z15" 12.54902 0.00000 62.74510 0.0693870 0.0284440 0.334342 
292 "T22" 12.54902 12.54902 62.74510 0.0745520 0.0387730 0.336064 
293 "AS23" 12.54902 25.09804 62.74510 0.0877200 0.0651090 0.340453 
294 "X22" 12.54902 37.64706 62.74510 0.111213 0.112096 0.348284 
295 "AU25" 12.54902 50.19608 62.74510 0.146574 0.182817 0.360071 
296 "C7" 12.54902 62.74510 62.74510 0.195087 0.279843 0.376242 
297 "AT14" 12.54902 75.29412 62.74510 0.257871 0.405411 0.397170 
298 "D23" 12.54902 87.84314 62.74510 0.335926 0.561521 0.423188 
299 "AU15" 12.54902 100.0000 62.74510 0.426963 0.743596 0.453534 
300 "AM6" 25.09804 0.00000 37.64706 0.0422520 0.0193460 0.112149 
301 "AR2" 25.09804 12.54902 37.64706 0.0474170 0.0296760 0.113871 
302 "I7" 25.09804 25.09804 37.64706 0.0605850 0.0560110 0.118260 
303 "X3" 25.09804 37.64706 37.64706 0.0840780 0.102998 0.126091 
304 "U8" 25.09804 50.19608 37.64706 0.119439 0.173719 0.137878 
305 "AC13" 25.09804 62.74510 37.64706 0.167952 0.270745 0.154049 
306 "C23" 25.09804 75.29412 37.64706 0.230736 0.396314 0.174977 
307 "A14" 25.09804 87.84314 37.64706 0.308791 0.552423 0.200995 
308 "AC8" 25.09804 100.0000 37.64706 0.399828 0.734498 0.231341 
309 "W22" 25.09804 0.00000 50.19608 0.0600960 0.0264830 0.206124 
310 "AS14" 25.09804 12.54902 50.19608 0.0652610 0.0368130 0.207846 
311 "B18" 25.09804 25.09804 50.19608 0.0784280 0.0631490 0.212235 
312 "U17" 25.09804 37.64706 50.19608 0.101922 0.110135 0.220066 
313 "F14" 25.09804 50.19608 50.19608 0.137282 0.180856 0.231853 
314 "R1" 25.09804 62.74510 50.19608 0.185795 0.277883 0.248024 
315 "U3" 25.09804 75.29412 50.19608 0.248580 0.403451 0.268952 
316 "AT10" 25.09804 87.84314 50.19608 0.326634 0.559561 0.294971 
317 "I19" 25.09804 100.0000 50.19608 0.417672 0.741636 0.325316 
318 "AH12" 25.09804 0.00000 62.74510 0.0845760 0.0362750 0.335054 
319 "AO10" 25.09804 12.54902 62.74510 0.0897410 0.0466050 0.336776 
320 "E16" 25.09804 25.09804 62.74510 0.102909 0.0729410 0.341165 
321 "AE6" 25.09804 37.64706 62.74510 0.126402 0.119927 0.348996 
322 "R23" 25.09804 50.19608 62.74510 0.161763 0.190649 0.360783 
323 "B1" 25.09804 62.74510 62.74510 0.210276 0.287675 0.376954 
324 "AS13" 25.09804 75.29412 62.74510 0.273060 0.413243 0.397882 
325 "Q20" 25.09804 87.84314 62.74510 0.351115 0.569353 0.423900 
326 "T3" 25.09804 100.0000 62.74510 0.442152 0.751428 0.454246 
327 "AL18" 37.64706 0.00000 37.64706 0.0693510 0.0333190 0.113419 
328 "U1" 37.64706 12.54902 37.64706 0.0745160 0.0436480 0.115141 
329 "AA12" 37.64706 25.09804 37.64706 0.0876840 0.0699840 0.119530 
330 "E19" 37.64706 37.64706 37.64706 0.111177 0.116971 0.127361 
331 "AN10" 37.64706 50.19608 37.64706 0.146538 0.187692 0.139148 
332 "AK12" 37.64706 62.74510 37.64706 0.195051 0.284718 0.155319 
333 "AT15" 37.64706 75.29412 37.64706 0.257835 0.410286 0.176247 
334 "AC20" 37.64706 87.84314 37.64706 0.335890 0.566396 0.202265 
335 "AL11" 37.64706 100.0000 37.64706 0.426927 0.748471 0.232611 
336 "Y24" 37.64706 0.00000 50.19608 0.0871950 0.0404560 0.207395 
337 "M23" 37.64706 12.54902 50.19608 0.0923590 0.0507860 0.209116 
338 "AT11" 37.64706 25.09804 50.19608 0.105527 0.0771220 0.213506 
339 "AR13" 37.64706 37.64706 50.19608 0.129021 0.124108 0.221337 
340 "H7" 37.64706 50.19608 50.19608 0.164381 0.194829 0.233123 
341 "L8" 37.64706 62.74510 50.19608 0.212894 0.291856 0.249295 
342 "M3" 37.64706 75.29412 50.19608 0.275678 0.417424 0.270223 
343 "AD25" 37.64706 87.84314 50.19608 0.353733 0.573534 0.296241 
344 "A20" 37.64706 100.0000 50.19608 0.444771 0.755608 0.326587 
345 "X7" 37.64706 0.00000 62.74510 0.111675 0.0502480 0.336324 
346 "K21" 37.64706 12.54902 62.74510 0.116840 0.0605780 0.338046 
347 "J15" 37.64706 25.09804 62.74510 0.130008 0.0869140 0.342435 
348 "L17" 37.64706 37.64706 62.74510 0.153501 0.133900 0.350266 
349 "AQ24" 37.64706 50.19608 62.74510 0.188862 0.204621 0.362053 
350 "AS6" 37.64706 62.74510 62.74510 0.237375 0.301648 0.378224 
351 "AL19" 37.64706 75.29412 62.74510 0.300159 0.427216 0.399152 
352 "J10" 37.64706 87.84314 62.74510 0.378214 0.583326 0.425171 
353 "AD18" 37.64706 100.0000 62.74510 0.469251 0.765401 0.455516 
354 "AQ16" 50.19608 0.00000 37.64706 0.110139 0.0543500 0.115331 
355 "I11" 50.19608 12.54902 37.64706 0.115304 0.0646800 0.117053 
356 "M7" 50.19608 25.09804 37.64706 0.128472 0.0910160 0.121442 
357 "L20" 50.19608 37.64706 37.64706 0.151965 0.138002 0.129273 
