Pre-made_Targets/Patch Width 16-30mm - Easy (Freehand possible)/CM-Easy-A4-105p-1page-w17.5mm-10x11/CM-Easy-A4-105p-1page.ti2
CTI2   

DESCRIPTOR "Argyll Calibration Target chart information 2"
ORIGINATOR "Argyll printtarg"
CREATED "Sun Feb  8 01:12:24 2026"
TARGET_INSTRUMENT "X-Rite ColorMunki"
COMP_GREY_STEPS "20"
APPROX_WHITE_POINT "95.106486 100.000000 108.844025"
TOTAL_INK_LIMIT "300.0"
COLOR_REP "iRGB"
PAPER_SIZE "210.0x297.0"
RANDOM_START "69"
STEPS_IN_PASS "11"
PASSES_IN_STRIPS2 "10"
STRIP_INDEX_PATTERN "A-Z, A-Z"
PATCH_INDEX_PATTERN "0-9,@-9,@-9;1-999"
INDEX_ORDER "STRIP_THEN_PATCH"

NUMBER_OF_FIELDS 8
BEGIN_DATA_FORMAT
SAMPLE_ID SAMPLE_LOC RGB_R RGB_G RGB_B XYZ_X XYZ_Y XYZ_Z 
END_DATA_FORMAT

NUMBER_OF_SETS 110
BEGIN_DATA
1 "F4" 100.0000 100.0000 100.0000 95.10649 100.0000 108.8440 
2 "D4" 100.0000 100.0000 100.0000 95.10649 100.0000 108.8440 
3 "J11" 0.00000 0.00000 0.00000 1.000000 1.000000 1.000000 
4 "A7" 0.00000 0.00000 0.00000 1.000000 1.000000 1.000000 
5 "C10" 94.73716 94.73716 94.73716 84.22990 88.55783 96.37969 
6 "I2" 89.47433 89.47433 89.47433 74.12427 77.92671 84.79885 
7 "A3" 84.20996 84.20996 84.20996 64.77314 68.08933 74.08266 
8 "F2" 78.94713 78.94713 78.94713 56.15950 59.02778 64.21161 
9 "F9" 73.68429 73.68429 73.68429 48.26572 50.72353 55.16551 
10 "E4" 68.42145 68.42145 68.42145 41.07349 43.15730 46.92337 
11 "J5" 63.15862 63.15862 63.15862 34.56378 36.30908 39.46337 
12 "G4" 57.89425 57.89425 57.89425 28.71669 30.15795 32.76273 
13 "H7" 52.63142 52.63142 52.63142 23.51141 24.68200 26.79760 
14 "A10" 47.36858 47.36858 47.36858 18.92606 19.85821 21.54288 
15 "D8" 42.10575 42.10575 42.10575 14.93752 15.66227 16.97210 
16 "A1" 36.84138 36.84138 36.84138 11.52125 12.06836 13.05713 
17 "F11" 31.57855 31.57855 31.57855 8.651021 9.048872 9.767907 
18 "H11" 26.31571 26.31571 26.31571 6.298539 6.574062 7.072013 
19 "B4" 21.05287 21.05287 21.05287 4.432984 4.611499 4.934127 
20 "B2" 15.79004 15.79004 15.79004 3.020270 3.125324 3.315187 
21 "E1" 10.52567 10.52567 10.52567 2.021914 2.075054 2.171092 
22 "I10" 5.262837 5.262837 5.262837 1.393069 1.413509 1.450449 
23 "J7" 0.00000 0.00000 100.0000 18.87111 8.147314 95.12896 
24 "D9" 100.0000 0.00000 0.00000 41.83017 22.05217 2.913230 
25 "C11" 0.00000 30.32731 63.17998 10.02962 8.851780 35.48212 
26 "A4" 0.00000 100.0000 0.00000 36.40521 71.80052 12.80184 
27 "B5" 50.71183 58.45274 15.79461 21.04354 27.09470 6.994015 
28 "G9" 0.00000 85.96170 68.43519 33.74644 54.30372 49.47896 
29 "B11" 91.66247 58.45579 15.79461 45.54379 39.72883 8.142388 
30 "A9" 76.67659 0.00000 49.78561 27.20612 14.07362 22.01132 
31 "C9" 66.41032 74.01541 100.0000 53.10625 52.45667 101.8789 
32 "J1" 53.39590 21.05287 18.09720 12.86121 8.975856 4.489896 
33 "A6" 0.00000 25.05837 0.00000 2.809543 4.618581 1.603186 
34 "E8" 45.55428 34.06271 10.53330 11.70969 11.49092 3.479362 
35 "I4" 21.96231 0.00000 24.42512 3.483505 2.180031 5.650892 
36 "D7" 77.59518 34.06577 10.53330 27.58127 19.67535 4.223267 
37 "G6" 66.41642 100.0000 100.0000 70.55289 87.34009 107.6935 
38 "I1" 88.65034 0.00000 31.86389 33.55005 17.61173 10.25083 
39 "F3" 33.17769 77.93240 35.15068 26.64440 43.93138 17.43505 
40 "D1" 100.0000 100.0000 0.00000 77.23538 92.85269 14.71507 
41 "G2" 0.00000 79.53155 100.0000 39.96947 50.33815 102.1618 
42 "G5" 0.00000 26.26688 84.21607 15.09856 9.815683 65.46019 
43 "B9" 66.86198 0.00000 0.00000 17.51927 9.517390 1.774064 
44 "G11" 91.37865 53.93759 100.0000 61.08051 43.16892 99.66606 
45 "I8" 88.25360 79.35912 59.26604 58.29374 61.05997 38.62424 
46 "F7" 0.00000 55.43450 56.01740 15.37972 21.92088 29.95515 
47 "B3" 0.00000 57.19692 100.0000 29.02560 28.45345 98.51382 
48 "A8" 34.58610 14.29007 21.05287 6.292578 4.600101 4.834117 
49 "I6" 0.00000 34.08560 46.72007 7.672791 9.056553 19.53001 
50 "B1" 31.54650 35.75952 0.00000 8.032303 10.14637 2.395137 
51 "E3" 64.05585 92.16754 0.00000 45.44454 67.57960 11.51099 
52 "I11" 49.29274 0.00000 57.33425 14.62680 7.430040 28.53648 
53 "G8" 25.35897 12.38422 0.00000 3.636589 3.101844 1.266853 
54 "D5" 47.90723 0.00000 30.09079 10.28614 5.635635 8.310063 
55 "C2" 0.00000 90.30442 100.0000 46.96319 64.32361 104.4931 
56 "E11" 66.04715 0.117494 30.09079 18.39723 9.822535 8.691061 
57 "C4" 61.48013 46.15854 62.42466 27.31397 23.31743 36.48665 
58 "F1" 89.69100 0.00000 18.30320 33.40316 17.64917 5.136122 
59 "J3" 66.01663 47.77600 46.72770 27.23608 24.34073 21.45621 
60 "H4" 37.55093 63.84985 84.21149 30.79642 34.15973 69.32351 
61 "D10" 30.07858 0.00000 0.520333 4.013619 2.552999 1.178815 
62 "H8" 67.49065 28.42908 100.0000 38.06379 21.49542 96.69469 
63 "G7" 44.91798 1.104753 16.89174 8.403662 4.812180 3.616132 
64 "J8" 100.0000 69.26375 57.88968 62.58538 55.13807 35.79519 
65 "C8" 40.76600 57.50668 42.94804 19.68281 25.56340 19.23064 
66 "I9" 41.48623 27.59747 56.01740 13.94873 10.36262 27.79869 
67 "H5" 62.49027 0.915541 16.89174 15.68278 8.557652 3.955743 
68 "J10" 100.0000 53.80331 68.37568 58.31404 42.85894 45.89833 
69 "G3" 6.132601 0.00000 46.43931 4.467987 2.410745 18.19349 
70 "F10" 62.63828 57.17556 100.0000 43.31601 35.80882 99.18097 
71 "C3" 66.67735 82.75731 57.87900 45.75005 57.70442 37.16633 
72 "D6" 55.14000 72.20874 68.42145 36.41658 43.60702 47.25514 
73 "D3" 70.20066 58.45274 0.00000 30.05745 31.78687 5.412360 
74 "H2" 33.40505 28.27039 38.62516 9.231343 8.402443 13.56004 
75 "C1" 20.12970 19.79400 0.512703 3.524777 4.006981 1.484610 
76 "H1" 51.07195 24.58991 0.717174 11.90372 9.208780 2.062238 
77 "J4" 75.16594 78.80064 16.01282 43.50020 53.53867 10.96558 
78 "J6" 0.00000 100.0000 94.87144 52.26189 78.14219 96.32059 
79 "H3" 76.15015 37.45174 68.72663 34.85650 23.64736 43.88243 
80 "I7" 44.74861 83.70947 57.87900 36.81789 53.99281 36.92040 
81 "I3" 33.60647 80.27008 78.65721 36.70194 50.17608 63.07572 
82 "E6" 58.60685 31.18334 42.08133 18.80133 14.03613 16.43837 
83 "A11" 100.0000 0.00000 85.62905 54.40576 27.08161 69.15014 
84 "D2" 34.24887 47.77295 44.37781 14.75150 17.94206 19.06485 
85 "H6" 87.35790 24.60060 0.717174 32.81195 19.99112 3.042340 
86 "E10" 52.31708 31.46105 78.94255 23.97073 15.87194 57.56919 
87 "F8" 58.59922 27.00847 63.18456 21.82768 14.11622 35.88056 
88 "G10" 91.96918 74.61662 84.22065 65.16720 59.82756 72.48391 
89 "J9" 21.46792 65.07362 54.44266 20.63704 30.61255 29.80630 
90 "H9" 62.43534 62.32547 51.20317 31.48778 34.45404 26.96476 
91 "C7" 51.13298 0.00000 0.00000 10.17390 5.730090 1.429873 
92 "F6" 79.22484 46.11887 37.64248 33.57974 27.00743 15.26050 
93 "C6" 41.75784 46.01968 65.67330 20.22929 19.51819 39.99185 
94 "B6" 0.00000 11.57244 30.08316 2.763733 2.421205 8.082150 
95 "E5" 18.89220 20.89265 57.83322 8.739248 6.272096 29.14055 
96 "B10" 66.78721 74.61204 84.22065 47.87915 50.90910 71.67291 
97 "G1" 9.279011 0.00000 11.72961 1.595904 1.280541 2.233356 
98 "J2" 45.16670 71.43206 5.891508 24.70064 37.83535 7.310459 
99 "B7" 15.22545 0.00000 0.00000 1.821904 1.423777 1.038513 
100 "F5" 72.45136 63.87579 84.21149 45.80651 41.91577 70.03011 
101 "E9" 0.00000 21.11543 16.03418 2.693242 3.755218 3.509797 
102 "D11" 37.07637 14.33127 30.08316 7.582878 5.193318 8.363000 
103 "C5" 38.49546 0.00000 75.89685 15.59431 7.415652 51.74522 
104 "H10" 57.22133 100.0000 43.77050 51.00062 78.99349 28.49063 
105 "A2" 0.552377 46.65446 0.00000 7.545324 14.06289 3.176788 
0 "A5" 100.0000 100.0000 100.0000 95.10649 100.0000 108.8440 
0 "B8" 100.0000 100.0000 100.0000 95.10649 100.0000 108.8440 
0 "I5" 100.0000 100.0000 100.0000 95.10649 100.0000 108.8440 
0 "E2" 100.0000 100.0000 100.0000 95.10649 100.0000 108.8440 
0 "E7" 100.0000 100.0000 100.0000 95.10649 100.0000 108.8440 
END_DATA
