Pre-made_Targets/Patch Width 12-15mm - Intermediate (Easy with ruler)/Designed Targets/CM-Interm-A4-4410p-22pages-w13.0mm-14x15_Atkinson4096-randomized/Non-randomized for view of sequence/CM-Interm-A4-Atkinson4410.ti1
CTI1
DESCRIPTOR "Argyll Calibration Target chart information 1"
ORIGINATOR "Argyll targen"
CREATED "Sun Mar 30 10:47:43 2025"
APPROX_WHITE_POINT "95.106486 100.000000 108.844025"
COLOR_REP "iRGB"
WHITE_COLOR_PATCHES "4"
BLACK_COLOR_PATCHES "4"
OFPS_PATCHES "217"

NUMBER_OF_FIELDS 7
BEGIN_DATA_FORMAT
SAMPLE_ID RGB_R RGB_G RGB_B XYZ_X XYZ_Y XYZ_Z
END_DATA_FORMAT

NUMBER_OF_SETS 4410
BEGIN_DATA
1 100.0 100.0 100.0 0.95047 1.0 1.08883
2 100.0 100.0 93.33333 0.924305 0.989534 0.951029
3 100.0 100.0 86.66667 0.900499 0.980012 0.825648
4 100.0 100.0 80.0 0.878986 0.971406 0.712345
5 100.0 100.0 73.33333 0.859698 0.963691 0.610763
6 100.0 100.0 66.66667 0.842564 0.956838 0.520527
7 100.0 100.0 60.0 0.82751 0.950816 0.441242
8 100.0 100.0 53.33333 0.814456 0.945595 0.372492
9 100.0 100.0 46.66667 0.803319 0.94114 0.313833
10 100.0 100.0 40.0 0.794007 0.937415 0.264791
11 100.0 100.0 33.33333 0.786424 0.934382 0.224853
12 100.0 100.0 26.66667 0.780463 0.931997 0.193459
13 100.0 100.0 20.0 0.776006 0.930214 0.169985
14 100.0 100.0 13.33333 0.772919 0.92898 0.153727
15 100.0 100.0 6.66667 0.771044 0.92823 0.143853
16 100.0 100.0 0.0 0.770033 0.927825 0.138526
17 86.66667 100.0 100.0 0.836242 0.941101 1.083476
18 86.66667 100.0 93.33333 0.810078 0.930636 0.945674
19 86.66667 100.0 86.66667 0.786271 0.921113 0.820294
20 86.66667 100.0 80.0 0.764758 0.912508 0.706991
21 86.66667 100.0 73.33333 0.74547 0.904793 0.605409
22 86.66667 100.0 66.66667 0.728337 0.897939 0.515173
23 86.66667 100.0 60.0 0.713283 0.891918 0.435888
24 86.66667 100.0 53.33333 0.700229 0.886696 0.367138
25 86.66667 100.0 46.66667 0.689091 0.882241 0.308479
26 86.66667 100.0 40.0 0.679779 0.878516 0.259437
27 86.66667 100.0 33.33333 0.672196 0.875483 0.219499
28 86.66667 100.0 26.66667 0.666235 0.873099 0.188104
29 86.66667 100.0 20.0 0.661778 0.871316 0.164631
30 86.66667 100.0 13.33333 0.658691 0.870081 0.148373
31 86.66667 100.0 6.66667 0.656816 0.869331 0.138498
32 86.66667 100.0 0.0 0.655805 0.868926 0.133171
33 73.33333 100.0 100.0 0.742977 0.893011 1.079104
34 73.33333 100.0 93.33333 0.716812 0.882545 0.941303
35 73.33333 100.0 86.66667 0.693006 0.873023 0.815922
36 73.33333 100.0 80.0 0.671492 0.864418 0.702619
37 73.33333 100.0 73.33333 0.652205 0.856703 0.601037
38 73.33333 100.0 66.66667 0.635071 0.849849 0.510801
39 73.33333 100.0 60.0 0.620017 0.843827 0.431516
40 73.33333 100.0 53.33333 0.606963 0.838606 0.362766
41 73.33333 100.0 46.66667 0.595825 0.834151 0.304107
42 73.33333 100.0 40.0 0.586514 0.830426 0.255065
43 73.33333 100.0 33.33333 0.578931 0.827393 0.215127
44 73.33333 100.0 26.66667 0.57297 0.825008 0.183732
45 73.33333 100.0 20.0 0.568513 0.823226 0.160259
46 73.33333 100.0 13.33333 0.565426 0.821991 0.144001
47 73.33333 100.0 6.66667 0.563551 0.821241 0.134126
48 73.33333 100.0 0.0 0.562539 0.820836 0.1288
49 60.0 100.0 100.0 0.6694 0.855073 1.075655
50 60.0 100.0 93.33333 0.643235 0.844608 0.937854
51 60.0 100.0 86.66667 0.619429 0.835085 0.812473
52 60.0 100.0 80.0 0.597916 0.82648 0.69917
53 60.0 100.0 73.33333 0.578628 0.818765 0.597588
54 60.0 100.0 66.66667 0.561495 0.811911 0.507352
55 60.0 100.0 60.0 0.546441 0.80589 0.428067
56 60.0 100.0 53.33333 0.533387 0.800668 0.359317
57 60.0 100.0 46.66667 0.522249 0.796213 0.300658
58 60.0 100.0 40.0 0.512937 0.792488 0.251616
59 60.0 100.0 33.33333 0.505354 0.789455 0.211678
60 60.0 100.0 26.66667 0.499393 0.787071 0.180284
61 60.0 100.0 20.0 0.494936 0.785288 0.15681
62 60.0 100.0 13.33333 0.491849 0.784053 0.140552
63 60.0 100.0 6.66667 0.489974 0.783303 0.130678
64 60.0 100.0 0.0 0.488963 0.782898 0.125351
65 46.66667 100.0 100.0 0.614102 0.82656 1.073063
66 46.66667 100.0 93.33333 0.587937 0.816094 0.935262
67 46.66667 100.0 86.66667 0.56413 0.806572 0.809881
68 46.66667 100.0 80.0 0.542617 0.797966 0.696578
69 46.66667 100.0 73.33333 0.523329 0.790251 0.594996
70 46.66667 100.0 66.66667 0.506196 0.783398 0.50476
71 46.66667 100.0 60.0 0.491142 0.777376 0.425475
72 46.66667 100.0 53.33333 0.478088 0.772155 0.356725
73 46.66667 100.0 46.66667 0.46695 0.7677 0.298066
74 46.66667 100.0 40.0 0.457638 0.763975 0.249024
75 46.66667 100.0 33.33333 0.450055 0.760942 0.209086
76 46.66667 100.0 26.66667 0.444094 0.758557 0.177691
77 46.66667 100.0 20.0 0.439637 0.756774 0.154218
78 46.66667 100.0 13.33333 0.43655 0.75554 0.13796
79 46.66667 100.0 6.66667 0.434675 0.75479 0.128085
80 46.66667 100.0 0.0 0.433664 0.754385 0.122759
81 33.33333 100.0 100.0 0.575482 0.806647 1.071252
82 33.33333 100.0 93.33333 0.549317 0.796181 0.933451
83 33.33333 100.0 86.66667 0.525511 0.786658 0.808071
84 33.33333 100.0 80.0 0.503997 0.778053 0.694768
85 33.33333 100.0 73.33333 0.48471 0.770338 0.593186
86 33.33333 100.0 66.66667 0.467576 0.763485 0.502949
87 33.33333 100.0 60.0 0.452522 0.757463 0.423665
88 33.33333 100.0 53.33333 0.439468 0.752241 0.354914
89 33.33333 100.0 46.66667 0.428331 0.747786 0.296256
90 33.33333 100.0 40.0 0.419019 0.744062 0.247214
91 33.33333 100.0 33.33333 0.411436 0.741028 0.207276
92 33.33333 100.0 26.66667 0.405475 0.738644 0.175881
93 33.33333 100.0 20.0 0.401018 0.736861 0.152408
94 33.33333 100.0 13.33333 0.397931 0.735626 0.13615
95 33.33333 100.0 6.66667 0.396056 0.734876 0.126275
96 33.33333 100.0 0.0 0.395044 0.734472 0.120948
97 20.0 100.0 100.0 0.551668 0.794368 1.070136
98 20.0 100.0 93.33333 0.525503 0.783902 0.932335
99 20.0 100.0 86.66667 0.501697 0.774379 0.806954
100 20.0 100.0 80.0 0.480183 0.765774 0.693652
101 20.0 100.0 73.33333 0.460896 0.758059 0.592069
102 20.0 100.0 66.66667 0.443762 0.751205 0.501833
103 20.0 100.0 60.0 0.428708 0.745184 0.422548
104 20.0 100.0 53.33333 0.415654 0.739962 0.353798
105 20.0 100.0 46.66667 0.404517 0.735507 0.295139
106 20.0 100.0 40.0 0.395205 0.731782 0.246097
107 20.0 100.0 33.33333 0.387622 0.728749 0.206159
108 20.0 100.0 26.66667 0.381661 0.726365 0.174765
109 20.0 100.0 20.0 0.377204 0.724582 0.151292
110 20.0 100.0 13.33333 0.374117 0.723347 0.135033
111 20.0 100.0 6.66667 0.372242 0.722597 0.125159
112 20.0 100.0 0.0 0.37123 0.722193 0.119832
113 6.66667 100.0 100.0 0.540326 0.788519 1.069604
114 6.66667 100.0 93.33333 0.514161 0.778053 0.931803
115 6.66667 100.0 86.66667 0.490354 0.768531 0.806423
116 6.66667 100.0 80.0 0.468841 0.759926 0.69312
117 6.66667 100.0 73.33333 0.449553 0.75221 0.591538
118 6.66667 100.0 66.66667 0.43242 0.745357 0.501302
119 6.66667 100.0 60.0 0.417366 0.739335 0.422017
120 6.66667 100.0 53.33333 0.404312 0.734114 0.353266
121 6.66667 100.0 46.66667 0.393174 0.729659 0.294608
122 6.66667 100.0 40.0 0.383863 0.725934 0.245566
123 6.66667 100.0 33.33333 0.376279 0.722901 0.205628
124 6.66667 100.0 26.66667 0.370318 0.720516 0.174233
125 6.66667 100.0 20.0 0.365861 0.718734 0.15076
126 6.66667 100.0 13.33333 0.362774 0.717499 0.134502
127 6.66667 100.0 6.66667 0.3609 0.716749 0.124627
128 6.66667 100.0 0.0 0.359888 0.716344 0.1193
129 100.0 93.33333 100.0 0.898619 0.896298 1.071546
130 100.0 93.33333 93.33333 0.872454 0.885832 0.933745
131 100.0 93.33333 86.66667 0.848648 0.876309 0.808364
132 100.0 93.33333 80.0 0.827134 0.867704 0.695062
133 100.0 93.33333 73.33333 0.807847 0.859989 0.59348
134 100.0 93.33333 66.66667 0.790713 0.853135 0.503243
135 100.0 93.33333 60.0 0.775659 0.847114 0.423958
136 100.0 93.33333 53.33333 0.762605 0.841892 0.355208
137 100.0 93.33333 46.66667 0.751468 0.837437 0.29655
138 100.0 93.33333 40.0 0.742156 0.833712 0.247507
139 100.0 93.33333 33.33333 0.734573 0.830679 0.207569
140 100.0 93.33333 26.66667 0.728612 0.828295 0.176175
141 100.0 93.33333 20.0 0.724155 0.826512 0.152702
142 100.0 93.33333 13.33333 0.721068 0.825277 0.136444
143 100.0 93.33333 6.66667 0.719193 0.824527 0.126569
144 100.0 93.33333 0.0 0.718181 0.824123 0.121242
145 86.66667 93.33333 100.0 0.784391 0.837399 1.066192
146 86.66667 93.33333 93.33333 0.758226 0.826933 0.928391
147 86.66667 93.33333 86.66667 0.73442 0.817411 0.80301
148 86.66667 93.33333 80.0 0.712907 0.808805 0.689707
149 86.66667 93.33333 73.33333 0.693619 0.80109 0.588125
150 86.66667 93.33333 66.66667 0.676486 0.794237 0.497889
151 86.66667 93.33333 60.0 0.661431 0.788215 0.418604
152 86.66667 93.33333 53.33333 0.648378 0.782994 0.349854
153 86.66667 93.33333 46.66667 0.63724 0.778539 0.291195
154 86.66667 93.33333 40.0 0.627928 0.774814 0.242153
155 86.66667 93.33333 33.33333 0.620345 0.771781 0.202215
156 86.66667 93.33333 26.66667 0.614384 0.769396 0.17082
157 86.66667 93.33333 20.0 0.609927 0.767613 0.147347
158 86.66667 93.33333 13.33333 0.60684 0.766379 0.131089
159 86.66667 93.33333 6.66667 0.604965 0.765629 0.121215
160 86.66667 93.33333 0.0 0.603954 0.765224 0.115888
161 73.33333 93.33333 100.0 0.691126 0.789309 1.06182
162 73.33333 93.33333 93.33333 0.664961 0.778843 0.924019
163 73.33333 93.33333 86.66667 0.641154 0.76932 0.798638
164 73.33333 93.33333 80.0 0.619641 0.760715 0.685336
165 73.33333 93.33333 73.33333 0.600353 0.753 0.583753
166 73.33333 93.33333 66.66667 0.58322 0.746147 0.493517
167 73.33333 93.33333 60.0 0.568166 0.740125 0.414232
168 73.33333 93.33333 53.33333 0.555112 0.734904 0.345482
169 73.33333 93.33333 46.66667 0.543974 0.730448 0.286823
170 73.33333 93.33333 40.0 0.534662 0.726724 0.237781
171 73.33333 93.33333 33.33333 0.527079 0.72369 0.197843
172 73.33333 93.33333 26.66667 0.521118 0.721306 0.166449
173 73.33333 93.33333 20.0 0.516661 0.719523 0.142976
174 73.33333 93.33333 13.33333 0.513574 0.718288 0.126717
175 73.33333 93.33333 6.66667 0.511699 0.717539 0.116843
176 73.33333 93.33333 0.0 0.510688 0.717134 0.111516
177 60.0 93.33333 100.0 0.617549 0.751371 1.058371
178 60.0 93.33333 93.33333 0.591384 0.740905 0.92057
179 60.0 93.33333 86.66667 0.567578 0.731383 0.795189
180 60.0 93.33333 80.0 0.546065 0.722777 0.681887
181 60.0 93.33333 73.33333 0.526777 0.715062 0.580304
182 60.0 93.33333 66.66667 0.509643 0.708209 0.490068
183 60.0 93.33333 60.0 0.494589 0.702187 0.410783
184 60.0 93.33333 53.33333 0.481536 0.696966 0.342033
185 60.0 93.33333 46.66667 0.470398 0.692511 0.283374
186 60.0 93.33333 40.0 0.461086 0.688786 0.234332
187 60.0 93.33333 33.33333 0.453503 0.685753 0.194394
188 60.0 93.33333 26.66667 0.447542 0.683368 0.163
189 60.0 93.33333 20.0 0.443085 0.681585 0.139527
190 60.0 93.33333 13.33333 0.439998 0.680351 0.123268
191 60.0 93.33333 6.66667 0.438123 0.679601 0.113394
192 60.0 93.33333 0.0 0.437112 0.679196 0.108067
193 46.66667 93.33333 100.0 0.56225 0.722858 1.055779
194 46.66667 93.33333 93.33333 0.536086 0.712392 0.917978
195 46.66667 93.33333 86.66667 0.512279 0.702869 0.792597
196 46.66667 93.33333 80.0 0.490766 0.694264 0.679294
197 46.66667 93.33333 73.33333 0.471478 0.686549 0.577712
198 46.66667 93.33333 66.66667 0.454345 0.679695 0.487476
199 46.66667 93.33333 60.0 0.439291 0.673674 0.408191
200 46.66667 93.33333 53.33333 0.426237 0.668452 0.339441
201 46.66667 93.33333 46.66667 0.415099 0.663997 0.280782
202 46.66667 93.33333 40.0 0.405787 0.660272 0.23174
203 46.66667 93.33333 33.33333 0.398204 0.657239 0.191802
204 46.66667 93.33333 26.66667 0.392243 0.654855 0.160408
205 46.66667 93.33333 20.0 0.387786 0.653072 0.136934
206 46.66667 93.33333 13.33333 0.384699 0.651837 0.120676
207 46.66667 93.33333 6.66667 0.382824 0.651087 0.110802
208 46.66667 93.33333 0.0 0.381813 0.650683 0.105475
209 33.33333 93.33333 100.0 0.523631 0.702944 1.053969
210 33.33333 93.33333 93.33333 0.497466 0.692478 0.916168
211 33.33333 93.33333 86.66667 0.473659 0.682956 0.790787
212 33.33333 93.33333 80.0 0.452146 0.674351 0.677484
213 33.33333 93.33333 73.33333 0.432858 0.666635 0.575902
214 33.33333 93.33333 66.66667 0.415725 0.659782 0.485666
215 33.33333 93.33333 60.0 0.400671 0.65376 0.406381
216 33.33333 93.33333 53.33333 0.387617 0.648539 0.337631
217 33.33333 93.33333 46.66667 0.376479 0.644084 0.278972
218 33.33333 93.33333 40.0 0.367168 0.640359 0.22993
219 33.33333 93.33333 33.33333 0.359584 0.637326 0.189992
220 33.33333 93.33333 26.66667 0.353623 0.634941 0.158597
221 33.33333 93.33333 20.0 0.349166 0.633159 0.135124
222 33.33333 93.33333 13.33333 0.346079 0.631924 0.118866
223 33.33333 93.33333 6.66667 0.344205 0.631174 0.108991
224 33.33333 93.33333 0.0 0.343193 0.630769 0.103665
225 20.0 93.33333 100.0 0.499817 0.690665 1.052852
226 20.0 93.33333 93.33333 0.473652 0.680199 0.915051
227 20.0 93.33333 86.66667 0.449845 0.670677 0.789671
228 20.0 93.33333 80.0 0.428332 0.662072 0.676368
229 20.0 93.33333 73.33333 0.409045 0.654356 0.574786
230 20.0 93.33333 66.66667 0.391911 0.647503 0.484549
231 20.0 93.33333 60.0 0.376857 0.641481 0.405265
232 20.0 93.33333 53.33333 0.363803 0.63626 0.336514
233 20.0 93.33333 46.66667 0.352665 0.631805 0.277856
234 20.0 93.33333 40.0 0.343354 0.62808 0.228814
235 20.0 93.33333 33.33333 0.33577 0.625047 0.188876
236 20.0 93.33333 26.66667 0.329809 0.622662 0.157481
237 20.0 93.33333 20.0 0.325353 0.62088 0.134008
238 20.0 93.33333 13.33333 0.322266 0.619645 0.11775
239 20.0 93.33333 6.66667 0.320391 0.618895 0.107875
240 20.0 93.33333 0.0 0.319379 0.61849 0.102548
241 6.66667 93.33333 100.0 0.488474 0.684817 1.052321
242 6.66667 93.33333 93.33333 0.46231 0.674351 0.91452
243 6.66667 93.33333 86.66667 0.438503 0.664828 0.789139
244 6.66667 93.33333 80.0 0.41699 0.656223 0.675836
245 6.66667 93.33333 73.33333 0.397702 0.648508 0.574254
246 6.66667 93.33333 66.66667 0.380569 0.641655 0.484018
247 6.66667 93.33333 60.0 0.365515 0.635633 0.404733
248 6.66667 93.33333 53.33333 0.352461 0.630411 0.335983
249 6.66667 93.33333 46.66667 0.341323 0.625956 0.277324
250 6.66667 93.33333 40.0 0.332011 0.622232 0.228282
251 6.66667 93.33333 33.33333 0.324428 0.619198 0.188344
252 6.66667 93.33333 26.66667 0.318467 0.616814 0.156949
253 6.66667 93.33333 20.0 0.31401 0.615031 0.133476
254 6.66667 93.33333 13.33333 0.310923 0.613796 0.117218
255 6.66667 93.33333 6.66667 0.309048 0.613046 0.107343
256 6.66667 93.33333 0.0 0.308037 0.612642 0.102017
257 100.0 86.66667 100.0 0.851441 0.801942 1.05582
258 100.0 86.66667 93.33333 0.825276 0.791476 0.918019
259 100.0 86.66667 86.66667 0.80147 0.781954 0.792639
260 100.0 86.66667 80.0 0.779957 0.773349 0.679336
261 100.0 86.66667 73.33333 0.760669 0.765634 0.577754
262 100.0 86.66667 66.66667 0.743536 0.75878 0.487517
263 100.0 86.66667 60.0 0.728481 0.752759 0.408233
264 100.0 86.66667 53.33333 0.715428 0.747537 0.339482
265 100.0 86.66667 46.66667 0.70429 0.743082 0.280824
266 100.0 86.66667 40.0 0.694978 0.739357 0.231782
267 100.0 86.66667 33.33333 0.687395 0.736324 0.191844
268 100.0 86.66667 26.66667 0.681434 0.73394 0.160449
269 100.0 86.66667 20.0 0.676977 0.732157 0.136976
270 100.0 86.66667 13.33333 0.67389 0.730922 0.120718
271 100.0 86.66667 6.66667 0.672015 0.730172 0.110843
272 100.0 86.66667 0.0 0.671004 0.729767 0.105516
273 86.66667 86.66667 100.0 0.737213 0.743044 1.050466
274 86.66667 86.66667 93.33333 0.711049 0.732578 0.912665
275 86.66667 86.66667 86.66667 0.687242 0.723055 0.787284
276 86.66667 86.66667 80.0 0.665729 0.71445 0.673981
277 86.66667 86.66667 73.33333 0.646441 0.706735 0.572399
278 86.66667 86.66667 66.66667 0.629308 0.699882 0.482163
279 86.66667 86.66667 60.0 0.614254 0.69386 0.402878
280 86.66667 86.66667 53.33333 0.6012 0.688638 0.334128
281 86.66667 86.66667 46.66667 0.590062 0.684183 0.275469
282 86.66667 86.66667 40.0 0.58075 0.680459 0.226427
283 86.66667 86.66667 33.33333 0.573167 0.677425 0.186489
284 86.66667 86.66667 26.66667 0.567206 0.675041 0.155095
285 86.66667 86.66667 20.0 0.562749 0.673258 0.131621
286 86.66667 86.66667 13.33333 0.559662 0.672023 0.115363
287 86.66667 86.66667 6.66667 0.557787 0.671273 0.105489
288 86.66667 86.66667 0.0 0.556776 0.670869 0.100162
289 73.33333 86.66667 100.0 0.643948 0.694954 1.046094
290 73.33333 86.66667 93.33333 0.617783 0.684488 0.908293
291 73.33333 86.66667 86.66667 0.593977 0.674965 0.782912
292 73.33333 86.66667 80.0 0.572464 0.66636 0.66961
293 73.33333 86.66667 73.33333 0.553176 0.658645 0.568027
294 73.33333 86.66667 66.66667 0.536042 0.651791 0.477791
295 73.33333 86.66667 60.0 0.520988 0.64577 0.398506
296 73.33333 86.66667 53.33333 0.507934 0.640548 0.329756
297 73.33333 86.66667 46.66667 0.496797 0.636093 0.271097
298 73.33333 86.66667 40.0 0.487485 0.632368 0.222055
299 73.33333 86.66667 33.33333 0.479902 0.629335 0.182117
300 73.33333 86.66667 26.66667 0.473941 0.626951 0.150723
301 73.33333 86.66667 20.0 0.469484 0.625168 0.12725
302 73.33333 86.66667 13.33333 0.466397 0.623933 0.110991
303 73.33333 86.66667 6.66667 0.464522 0.623183 0.101117
304 73.33333 86.66667 0.0 0.46351 0.622779 0.09579
305 60.0 86.66667 100.0 0.570371 0.657016 1.042645
306 60.0 86.66667 93.33333 0.544207 0.64655 0.904844
307 60.0 86.66667 86.66667 0.5204 0.637027 0.779463
308 60.0 86.66667 80.0 0.498887 0.628422 0.666161
309 60.0 86.66667 73.33333 0.479599 0.620707 0.564579
310 60.0 86.66667 66.66667 0.462466 0.613854 0.474342
311 60.0 86.66667 60.0 0.447412 0.607832 0.395057
312 60.0 86.66667 53.33333 0.434358 0.60261 0.326307
313 60.0 86.66667 46.66667 0.42322 0.598155 0.267649
314 60.0 86.66667 40.0 0.413908 0.594431 0.218606
315 60.0 86.66667 33.33333 0.406325 0.591397 0.178668
316 60.0 86.66667 26.66667 0.400364 0.589013 0.147274
317 60.0 86.66667 20.0 0.395907 0.58723 0.123801
318 60.0 86.66667 13.33333 0.39282 0.585995 0.107542
319 60.0 86.66667 6.66667 0.390945 0.585245 0.097668
320 60.0 86.66667 0.0 0.389934 0.584841 0.092341
321 46.66667 86.66667 100.0 0.515073 0.628502 1.040053
322 46.66667 86.66667 93.33333 0.488908 0.618036 0.902252
323 46.66667 86.66667 86.66667 0.465101 0.608514 0.776871
324 46.66667 86.66667 80.0 0.443588 0.599909 0.663569
325 46.66667 86.66667 73.33333 0.4243 0.592193 0.561986
326 46.66667 86.66667 66.66667 0.407167 0.58534 0.47175
327 46.66667 86.66667 60.0 0.392113 0.579318 0.392465
328 46.66667 86.66667 53.33333 0.379059 0.574097 0.323715
329 46.66667 86.66667 46.66667 0.367921 0.569642 0.265056
330 46.66667 86.66667 40.0 0.35861 0.565917 0.216014
331 46.66667 86.66667 33.33333 0.351026 0.562884 0.176076
332 46.66667 86.66667 26.66667 0.345065 0.560499 0.144682
333 46.66667 86.66667 20.0 0.340609 0.558717 0.121209
334 46.66667 86.66667 13.33333 0.337521 0.557482 0.10495
335 46.66667 86.66667 6.66667 0.335647 0.556732 0.095076
336 46.66667 86.66667 0.0 0.334635 0.556327 0.089749
337 33.33333 86.66667 100.0 0.476453 0.608589 1.038243
338 33.33333 86.66667 93.33333 0.450288 0.598123 0.900442
339 33.33333 86.66667 86.66667 0.426482 0.588601 0.775061
340 33.33333 86.66667 80.0 0.404969 0.579995 0.661758
341 33.33333 86.66667 73.33333 0.385681 0.57228 0.560176
342 33.33333 86.66667 66.66667 0.368547 0.565427 0.46994
343 33.33333 86.66667 60.0 0.353493 0.559405 0.390655
344 33.33333 86.66667 53.33333 0.340439 0.554184 0.321905
345 33.33333 86.66667 46.66667 0.329302 0.549729 0.263246
346 33.33333 86.66667 40.0 0.31999 0.546004 0.214204
347 33.33333 86.66667 33.33333 0.312407 0.542971 0.174266
348 33.33333 86.66667 26.66667 0.306446 0.540586 0.142871
349 33.33333 86.66667 20.0 0.301989 0.538803 0.119398
350 33.33333 86.66667 13.33333 0.298902 0.537569 0.10314
351 33.33333 86.66667 6.66667 0.297027 0.536819 0.093266
352 33.33333 86.66667 0.0 0.296015 0.536414 0.087939
353 20.0 86.66667 100.0 0.452639 0.59631 1.037127
354 20.0 86.66667 93.33333 0.426474 0.585844 0.899325
355 20.0 86.66667 86.66667 0.402668 0.576322 0.773945
356 20.0 86.66667 80.0 0.381155 0.567716 0.660642
357 20.0 86.66667 73.33333 0.361867 0.560001 0.55906
358 20.0 86.66667 66.66667 0.344733 0.553148 0.468824
359 20.0 86.66667 60.0 0.329679 0.547126 0.389539
360 20.0 86.66667 53.33333 0.316625 0.541905 0.320789
361 20.0 86.66667 46.66667 0.305488 0.537449 0.26213
362 20.0 86.66667 40.0 0.296176 0.533725 0.213088
363 20.0 86.66667 33.33333 0.288593 0.530691 0.17315
364 20.0 86.66667 26.66667 0.282632 0.528307 0.141755
365 20.0 86.66667 20.0 0.278175 0.526524 0.118282
366 20.0 86.66667 13.33333 0.275088 0.52529 0.102024
367 20.0 86.66667 6.66667 0.273213 0.52454 0.092149
368 20.0 86.66667 0.0 0.272202 0.524135 0.086822
369 6.66667 86.66667 100.0 0.441297 0.590462 1.036595
370 6.66667 86.66667 93.33333 0.415132 0.579996 0.898794
371 6.66667 86.66667 86.66667 0.391326 0.570473 0.773413
372 6.66667 86.66667 80.0 0.369812 0.561868 0.66011
373 6.66667 86.66667 73.33333 0.350525 0.554153 0.558528
374 6.66667 86.66667 66.66667 0.333391 0.547299 0.468292
375 6.66667 86.66667 60.0 0.318337 0.541278 0.389007
376 6.66667 86.66667 53.33333 0.305283 0.536056 0.320257
377 6.66667 86.66667 46.66667 0.294145 0.531601 0.261598
378 6.66667 86.66667 40.0 0.284834 0.527876 0.212556
379 6.66667 86.66667 33.33333 0.27725 0.524843 0.172618
380 6.66667 86.66667 26.66667 0.27129 0.522459 0.141224
381 6.66667 86.66667 20.0 0.266833 0.520676 0.11775
382 6.66667 86.66667 13.33333 0.263746 0.519441 0.101492
383 6.66667 86.66667 6.66667 0.261871 0.518691 0.091618
384 6.66667 86.66667 0.0 0.260859 0.518287 0.086291
385 100.0 80.0 100.0 0.808808 0.716676 1.041609
386 100.0 80.0 93.33333 0.782643 0.70621 0.903808
387 100.0 80.0 86.66667 0.758837 0.696688 0.778428
388 100.0 80.0 80.0 0.737324 0.688083 0.665125
389 100.0 80.0 73.33333 0.718036 0.680367 0.563543
390 100.0 80.0 66.66667 0.700902 0.673514 0.473306
391 100.0 80.0 60.0 0.685848 0.667492 0.394022
392 100.0 80.0 53.33333 0.672795 0.662271 0.325271
393 100.0 80.0 46.66667 0.661657 0.657816 0.266613
394 100.0 80.0 40.0 0.652345 0.654091 0.217571
395 100.0 80.0 33.33333 0.644762 0.651058 0.177633
396 100.0 80.0 26.66667 0.638801 0.648673 0.146238
397 100.0 80.0 20.0 0.634344 0.646891 0.122765
398 100.0 80.0 13.33333 0.631257 0.645656 0.106507
399 100.0 80.0 6.66667 0.629382 0.644906 0.096632
400 100.0 80.0 0.0 0.628371 0.644501 0.091305
401 86.66667 80.0 100.0 0.69458 0.657778 1.036255
402 86.66667 80.0 93.33333 0.668416 0.647312 0.898454
403 86.66667 80.0 86.66667 0.644609 0.637789 0.773073
404 86.66667 80.0 80.0 0.623096 0.629184 0.65977
405 86.66667 80.0 73.33333 0.603808 0.621469 0.558188
406 86.66667 80.0 66.66667 0.586675 0.614615 0.467952
407 86.66667 80.0 60.0 0.571621 0.608594 0.388667
408 86.66667 80.0 53.33333 0.558567 0.603372 0.319917
409 86.66667 80.0 46.66667 0.547429 0.598917 0.261258
410 86.66667 80.0 40.0 0.538117 0.595192 0.212216
411 86.66667 80.0 33.33333 0.530534 0.592159 0.172278
412 86.66667 80.0 26.66667 0.524573 0.589775 0.140884
413 86.66667 80.0 20.0 0.520116 0.587992 0.11741
414 86.66667 80.0 13.33333 0.517029 0.586757 0.101152
415 86.66667 80.0 6.66667 0.515154 0.586007 0.091278
416 86.66667 80.0 0.0 0.514143 0.585603 0.085951
417 73.33333 80.0 100.0 0.601315 0.609688 1.031883
418 73.33333 80.0 93.33333 0.57515 0.599222 0.894082
419 73.33333 80.0 86.66667 0.551344 0.589699 0.768701
420 73.33333 80.0 80.0 0.52983 0.581094 0.655399
421 73.33333 80.0 73.33333 0.510543 0.573379 0.553816
422 73.33333 80.0 66.66667 0.493409 0.566525 0.46358
423 73.33333 80.0 60.0 0.478355 0.560504 0.384295
424 73.33333 80.0 53.33333 0.465301 0.555282 0.315545
425 73.33333 80.0 46.66667 0.454164 0.550827 0.256886
426 73.33333 80.0 40.0 0.444852 0.547102 0.207844
427 73.33333 80.0 33.33333 0.437269 0.544069 0.167906
428 73.33333 80.0 26.66667 0.431308 0.541685 0.136512
429 73.33333 80.0 20.0 0.426851 0.539902 0.113039
430 73.33333 80.0 13.33333 0.423764 0.538667 0.09678
431 73.33333 80.0 6.66667 0.421889 0.537917 0.086906
432 73.33333 80.0 0.0 0.420877 0.537513 0.081579
433 60.0 80.0 100.0 0.527738 0.57175 1.028434
434 60.0 80.0 93.33333 0.501574 0.561284 0.890633
435 60.0 80.0 86.66667 0.477767 0.551761 0.765252
436 60.0 80.0 80.0 0.456254 0.543156 0.65195
