Pre-made_Targets/Patch Width 8-11mm - Expert (Use rig-guide-ruler)/Generated Targets/CM-Expert-A4-1224p-4pages-w11.0mm-17x18/CM-Expert-A4-1224p-4pages.ti2
CTI2   

DESCRIPTOR "Argyll Calibration Target chart information 2"
ORIGINATOR "Argyll printtarg"
CREATED "Mon Feb  9 15:53:38 2026"
TARGET_INSTRUMENT "X-Rite ColorMunki"
COMP_GREY_STEPS "216"
APPROX_WHITE_POINT "95.106486 100.000000 108.844025"
TOTAL_INK_LIMIT "300.0"
COLOR_REP "iRGB"
PAPER_SIZE "210.0x297.0"
RANDOM_START "626"
STEPS_IN_PASS "18"
PASSES_IN_STRIPS2 "17,17,17,17"
STRIP_INDEX_PATTERN "A-Z, A-Z"
PATCH_INDEX_PATTERN "0-9,@-9,@-9;1-999"
INDEX_ORDER "STRIP_THEN_PATCH"

NUMBER_OF_FIELDS 8
BEGIN_DATA_FORMAT
SAMPLE_ID SAMPLE_LOC RGB_R RGB_G RGB_B XYZ_X XYZ_Y XYZ_Z 
END_DATA_FORMAT

NUMBER_OF_SETS 1224
BEGIN_DATA
1 "BK13" 100.0000 100.0000 100.0000 95.10649 100.0000 108.8440 
2 "T12" 100.0000 100.0000 100.0000 95.10649 100.0000 108.8440 
3 "B8" 100.0000 100.0000 100.0000 95.10649 100.0000 108.8440 
4 "D12" 100.0000 100.0000 100.0000 95.10649 100.0000 108.8440 
5 "G15" 100.0000 100.0000 100.0000 95.10649 100.0000 108.8440 
6 "U17" 100.0000 100.0000 100.0000 95.10649 100.0000 108.8440 
7 "BI17" 100.0000 100.0000 100.0000 95.10649 100.0000 108.8440 
8 "Q4" 100.0000 100.0000 100.0000 95.10649 100.0000 108.8440 
9 "BC1" 0.00000 0.00000 0.00000 1.000000 1.000000 1.000000 
10 "AX2" 0.00000 0.00000 0.00000 1.000000 1.000000 1.000000 
11 "AO5" 0.00000 0.00000 0.00000 1.000000 1.000000 1.000000 
12 "AT17" 0.00000 0.00000 0.00000 1.000000 1.000000 1.000000 
13 "BN6" 0.00000 0.00000 0.00000 1.000000 1.000000 1.000000 
14 "I16" 0.00000 0.00000 0.00000 1.000000 1.000000 1.000000 
15 "T5" 0.00000 0.00000 0.00000 1.000000 1.000000 1.000000 
16 "BJ16" 0.00000 0.00000 0.00000 1.000000 1.000000 1.000000 
17 "BC7" 99.53460 99.53460 99.53460 94.11383 98.95573 107.7065 
18 "AP5" 99.06920 99.06920 99.06920 93.12731 97.91791 106.5759 
19 "AI15" 98.60533 98.60533 98.60533 92.14692 96.88653 105.4524 
20 "BF13" 98.13993 98.13993 98.13993 91.17263 95.86159 104.3359 
21 "AT12" 97.67453 97.67453 97.67453 90.20445 94.84306 103.2264 
22 "AY14" 97.20912 97.20912 97.20912 89.24236 93.83094 102.1239 
23 "BN13" 96.74372 96.74372 96.74372 88.28635 92.82522 101.0283 
24 "AA6" 96.27832 96.27832 96.27832 87.33641 91.82588 99.93969 
25 "AN2" 95.81445 95.81445 95.81445 86.39253 90.83292 98.85802 
26 "AL13" 95.34905 95.34905 95.34905 85.45470 89.84632 97.78328 
27 "D14" 94.88365 94.88365 94.88365 84.52290 88.86607 96.71546 
28 "AR5" 94.41825 94.41825 94.41825 83.59712 87.89215 95.65454 
29 "AZ4" 93.95285 93.95285 93.95285 82.67736 86.92456 94.60051 
30 "H9" 93.48898 93.48898 93.48898 81.76360 85.96329 93.55337 
31 "AR8" 93.02358 93.02358 93.02358 80.85584 85.00832 92.51309 
32 "AE8" 92.55818 92.55818 92.55818 79.95405 84.05964 91.47966 
33 "BC17" 92.09277 92.09277 92.09277 79.05823 83.11724 90.45307 
34 "AG16" 91.62737 91.62737 91.62737 78.16837 82.18111 89.43331 
35 "P6" 91.16350 91.16350 91.16350 77.28445 81.25123 88.42036 
36 "AC3" 90.69810 90.69810 90.69810 76.40647 80.32759 87.41421 
37 "Z7" 90.23270 90.23270 90.23270 75.53442 79.41019 86.41485 
38 "Z3" 89.76730 89.76730 89.76730 74.66827 78.49900 85.42226 
39 "AN15" 89.30190 89.30190 89.30190 73.80802 77.59402 84.43644 
40 "C5" 88.83650 88.83650 88.83650 72.95366 76.69524 83.45736 
41 "AT15" 88.37263 88.37263 88.37263 72.10518 75.80263 82.48502 
42 "N11" 87.90723 87.90723 87.90723 71.26257 74.91620 81.51940 
43 "AL15" 87.44182 87.44182 87.44182 70.42580 74.03593 80.56049 
44 "AP15" 86.97642 86.97642 86.97642 69.59488 73.16180 79.60827 
45 "AF12" 86.51102 86.51102 86.51102 68.76979 72.29381 78.66274 
46 "H15" 86.04715 86.04715 86.04715 67.95052 71.43193 77.72387 
47 "J13" 85.58175 85.58175 85.58175 67.13706 70.57617 76.79166 
48 "AH8" 85.11635 85.11635 85.11635 66.32939 69.72650 75.86609 
49 "R10" 84.65095 84.65095 84.65095 65.52750 68.88292 74.94714 
50 "BE8" 84.18555 84.18555 84.18555 64.73139 68.04540 74.03481 
51 "BI15" 83.72168 83.72168 83.72168 63.94103 67.21395 73.12908 
52 "Y11" 83.25628 83.25628 83.25628 63.15642 66.38854 72.22993 
53 "J11" 82.79088 82.79088 82.79088 62.37755 65.56916 71.33736 
54 "BK17" 82.32547 82.32547 82.32547 61.60440 64.75581 70.45135 
55 "Z5" 81.86007 81.86007 81.86007 60.83696 63.94846 69.57188 
56 "AH5" 81.39467 81.39467 81.39467 60.07522 63.14711 68.69894 
57 "BK3" 80.93080 80.93080 80.93080 59.31916 62.35175 67.83252 
58 "D16" 80.46540 80.46540 80.46540 58.56879 61.56235 66.97260 
59 "O3" 80.00000 80.00000 80.00000 57.82407 60.77891 66.11917 
60 "M6" 79.53460 79.53460 79.53460 57.08500 60.00141 65.27222 
61 "Y2" 79.06920 79.06920 79.06920 56.35157 59.22984 64.43172 
62 "AK14" 78.60533 78.60533 78.60533 55.62377 58.46419 63.59768 
63 "AH10" 78.13993 78.13993 78.13993 54.90158 57.70445 62.77006 
64 "AX14" 77.67453 77.67453 77.67453 54.18499 56.95060 61.94887 
65 "O10" 77.20912 77.20912 77.20912 53.47399 56.20263 61.13408 
66 "F7" 76.74372 76.74372 76.74372 52.76857 55.46052 60.32567 
67 "BP17" 76.27832 76.27832 76.27832 52.06871 54.72427 59.52365 
68 "AS16" 75.81445 75.81445 75.81445 51.37439 53.99385 58.72798 
69 "BH9" 75.34905 75.34905 75.34905 50.68562 53.26926 57.93866 
70 "E14" 74.88365 74.88365 74.88365 50.00237 52.55048 57.15567 
71 "C3" 74.41825 74.41825 74.41825 49.32464 51.83751 56.37900 
72 "B14" 73.95285 73.95285 73.95285 48.65240 51.13031 55.60863 
73 "L14" 73.48898 73.48898 73.48898 47.98565 50.42889 54.84455 
74 "X12" 73.02358 73.02358 73.02358 47.32438 49.73323 54.08675 
75 "AK6" 72.55818 72.55818 72.55818 46.66856 49.04331 53.33520 
76 "AI12" 72.09277 72.09277 72.09277 46.01819 48.35913 52.58989 
77 "I14" 71.62737 71.62737 71.62737 45.37326 47.68066 51.85081 
78 "AG4" 71.16350 71.16350 71.16350 44.73375 47.00790 51.11795 
79 "AJ10" 70.69810 70.69810 70.69810 44.09965 46.34082 50.39128 
80 "S17" 70.23270 70.23270 70.23270 43.47095 45.67943 49.67080 
81 "BL14" 69.76730 69.76730 69.76730 42.84763 45.02369 48.95649 
82 "L12" 69.30190 69.30190 69.30190 42.22967 44.37361 48.24833 
83 "AU2" 68.83650 68.83650 68.83650 41.61708 43.72915 47.54630 
84 "A12" 68.37263 68.37263 68.37263 41.00982 43.09032 46.85040 
85 "BO5" 67.90723 67.90723 67.90723 40.40790 42.45710 46.16061 
86 "BO7" 67.44182 67.44182 67.44182 39.81129 41.82947 45.47691 
87 "M8" 66.97642 66.97642 66.97642 39.21998 41.20741 44.79928 
88 "AW12" 66.51102 66.51102 66.51102 38.63396 40.59092 44.12772 
89 "BN9" 66.04715 66.04715 66.04715 38.05322 39.97998 43.46220 
90 "BL6" 65.58175 65.58175 65.58175 37.47774 39.37457 42.80271 
91 "I12" 65.11635 65.11635 65.11635 36.90751 38.77469 42.14924 
92 "S6" 64.65095 64.65095 64.65095 36.34251 38.18031 41.50176 
93 "F13" 64.18555 64.18555 64.18555 35.78273 37.59142 40.86026 
94 "AX9" 63.72168 63.72168 63.72168 35.22815 37.00801 40.22474 
95 "AD13" 63.25628 63.25628 63.25628 34.67877 36.43006 39.59516 
96 "B6" 62.79088 62.79088 62.79088 34.13457 35.85756 38.97151 
97 "AE6" 62.32547 62.32547 62.32547 33.59554 35.29049 38.35379 
98 "AP11" 61.86007 61.86007 61.86007 33.06165 34.72885 37.74196 
99 "F15" 61.39467 61.39467 61.39467 32.53290 34.17260 37.13603 
100 "M10" 60.93080 60.93080 60.93080 32.00927 33.62174 36.53596 
101 "BO13" 60.46540 60.46540 60.46540 31.49075 33.07626 35.94174 
102 "X2" 60.00000 60.00000 60.00000 30.97732 32.53613 35.35337 
103 "AQ8" 59.53460 59.53460 59.53460 30.46897 32.00135 34.77081 
104 "S10" 59.06920 59.06920 59.06920 29.96568 31.47189 34.19406 
105 "BO15" 58.60533 58.60533 58.60533 29.46745 30.94775 33.62309 
106 "BM9" 58.13993 58.13993 58.13993 28.97425 30.42890 33.05789 
107 "AL5" 57.67453 57.67453 57.67453 28.48607 29.91534 32.49845 
108 "BB14" 57.20912 57.20912 57.20912 28.00290 29.40704 31.94475 
109 "N7" 56.74372 56.74372 56.74372 27.52472 28.90400 31.39676 
110 "V9" 56.27832 56.27832 56.27832 27.05151 28.40618 30.85448 
111 "BF5" 55.81445 55.81445 55.81445 26.58327 27.91359 30.31788 
112 "AM4" 55.34905 55.34905 55.34905 26.11997 27.42620 29.78695 
113 "U3" 54.88365 54.88365 54.88365 25.66161 26.94400 29.26167 
114 "C11" 54.41825 54.41825 54.41825 25.20816 26.46697 28.74203 
115 "A6" 53.95285 53.95285 53.95285 24.75961 25.99510 28.22800 
116 "AA17" 53.48898 53.48898 53.48898 24.31595 25.52837 27.71958 
117 "AO10" 53.02358 53.02358 53.02358 23.87715 25.06676 27.21673 
118 "AQ12" 52.55818 52.55818 52.55818 23.44322 24.61026 26.71945 
119 "AW10" 52.09277 52.09277 52.09277 23.01412 24.15885 26.22771 
120 "AQ14" 51.62737 51.62737 51.62737 22.58985 23.71252 25.74151 
121 "AS10" 51.16350 51.16350 51.16350 22.17039 23.27124 25.26081 
122 "BL12" 50.69810 50.69810 50.69810 21.75571 22.83501 24.78561 
123 "A4" 50.23270 50.23270 50.23270 21.34582 22.40380 24.31588 
124 "BL10" 49.76730 49.76730 49.76730 20.94069 21.97760 23.85160 
125 "AK16" 49.30190 49.30190 49.30190 20.54030 21.55639 23.39277 
126 "Z9" 48.83650 48.83650 48.83650 20.14464 21.14016 22.93935 
127 "BO9" 48.37263 48.37263 48.37263 19.75370 20.72888 22.49134 
128 "AL3" 47.90723 47.90723 47.90723 19.36745 20.32255 22.04870 
129 "AJ17" 47.44182 47.44182 47.44182 18.98588 19.92114 21.61144 
130 "AS14" 46.97642 46.97642 46.97642 18.60898 19.52464 21.17951 
131 "BO17" 46.51102 46.51102 46.51102 18.23672 19.13303 20.75292 
132 "BO11" 46.04715 46.04715 46.04715 17.86910 18.74629 20.33163 
133 "D10" 45.58175 45.58175 45.58175 17.50609 18.36440 19.91563 
134 "BC12" 45.11635 45.11635 45.11635 17.14768 17.98736 19.50490 
135 "S3" 44.65095 44.65095 44.65095 16.79385 17.61513 19.09942 
136 "M14" 44.18555 44.18555 44.18555 16.44459 17.24770 18.69917 
137 "S8" 43.72168 43.72168 43.72168 16.09987 16.88506 18.30413 
138 "AR17" 43.25628 43.25628 43.25628 15.75968 16.52718 17.91428 
139 "BJ5" 42.79088 42.79088 42.79088 15.42401 16.17405 17.52961 
140 "AI8" 42.32547 42.32547 42.32547 15.09283 15.82566 17.15008 
141 "C15" 41.86007 41.86007 41.86007 14.76613 15.48197 16.77569 
142 "M12" 41.39467 41.39467 41.39467 14.44389 15.14297 16.40642 
143 "BA15" 40.93080 40.93080 40.93080 14.12610 14.80865 16.04223 
144 "AS8" 40.46540 40.46540 40.46540 13.81273 14.47899 15.68312 
145 "AJ14" 40.00000 40.00000 40.00000 13.50377 14.15396 15.32905 
146 "V14" 39.53460 39.53460 39.53460 13.19920 13.83356 14.98002 
147 "AN10" 39.06920 39.06920 39.06920 12.89900 13.51775 14.63600 
148 "BA9" 38.60533 38.60533 38.60533 12.60316 13.20652 14.29697 
149 "BM16" 38.13993 38.13993 38.13993 12.31165 12.89985 13.96291 
150 "AA8" 37.67453 37.67453 37.67453 12.02446 12.59773 13.63379 
151 "AM14" 37.20912 37.20912 37.20912 11.74157 12.30012 13.30961 
152 "BA17" 36.74372 36.74372 36.74372 11.46295 12.00703 12.99032 
153 "BM5" 36.27832 36.27832 36.27832 11.18860 11.71841 12.67592 
154 "AD7" 35.81445 35.81445 35.81445 10.91850 11.43426 12.36639 
155 "AW15" 35.34905 35.34905 35.34905 10.65261 11.15455 12.06169 
156 "AG2" 34.88365 34.88365 34.88365 10.39094 10.87926 11.76181 
157 "K1" 34.41825 34.41825 34.41825 10.13344 10.60838 11.46673 
158 "C1" 33.95285 33.95285 33.95285 9.880116 10.34188 11.17642 
159 "E16" 33.48898 33.48898 33.48898 9.630936 10.07974 10.89087 
160 "E10" 33.02358 33.02358 33.02358 9.385883 9.821947 10.61004 
161 "S1" 32.55818 32.55818 32.55818 9.144938 9.568473 10.33393 
162 "H1" 32.09277 32.09277 32.09277 8.908080 9.319298 10.06249 
163 "BA1" 31.62737 31.62737 31.62737 8.675290 9.074403 9.795718 
164 "BJ1" 31.16350 31.16350 31.16350 8.446546 8.833765 9.533583 
165 "AK1" 30.69810 30.69810 30.69810 8.221830 8.597363 9.276063 
166 "S15" 30.23270 30.23270 30.23270 8.001120 8.365176 9.023134 
167 "BH11" 29.76730 29.76730 29.76730 7.784395 8.137182 8.774772 
168 "I6" 29.30190 29.30190 29.30190 7.571636 7.913359 8.530955 
169 "BA3" 28.83650 28.83650 28.83650 7.362820 7.693685 8.291656 
170 "BL1" 28.37263 28.37263 28.37263 7.157927 7.478138 8.056853 
171 "E12" 27.90723 27.90723 27.90723 6.956935 7.266694 7.826521 
172 "AA1" 27.44182 27.44182 27.44182 6.759823 7.059333 7.600634 
173 "P18" 26.97642 26.97642 26.97642 6.566569 6.856029 7.379170 
174 "R1" 26.51102 26.51102 26.51102 6.377152 6.656762 7.162101 
175 "X18" 26.04715 26.04715 26.04715 6.191548 6.461507 6.949403 
176 "AN17" 25.58175 25.58175 25.58175 6.009736 6.270241 6.741051 
177 "AR1" 25.11635 25.11635 25.11635 5.831694 6.082941 6.537018 
178 "BD1" 24.65095 24.65095 24.65095 5.657399 5.899582 6.337279 
179 "BP4" 24.18555 24.18555 24.18555 5.486827 5.720141 6.141808 
180 "AM2" 23.72168 23.72168 23.72168 5.319956 5.544593 5.950578 
181 "T9" 23.25628 23.25628 23.25628 5.156763 5.372914 5.763562 
182 "Y18" 22.79088 22.79088 22.79088 4.997224 5.205078 5.580733 
183 "D18" 22.32547 22.32547 22.32547 4.841314 5.041062 5.402064 
184 "BF18" 21.86007 21.86007 21.86007 4.689011 4.880839 5.227528 
185 "D5" 21.39467 21.39467 21.39467 4.540290 4.724385 5.057097 
186 "H13" 20.93080 20.93080 20.93080 4.395127 4.571673 4.890743 
187 "Z15" 20.46540 20.46540 20.46540 4.253496 4.422677 4.728437 
188 "BO3" 20.00000 20.00000 20.00000 4.115373 4.277372 4.570151 
189 "AM18" 19.53460 19.53460 19.53460 3.980733 4.135730 4.415856 
190 "AU18" 19.06920 19.06920 19.06920 3.849549 3.997725 4.265523 
191 "BI7" 18.60533 18.60533 18.60533 3.721797 3.863330 4.119121 
192 "O17" 18.13993 18.13993 18.13993 3.597449 3.732516 3.976621 
193 "AF16" 17.67453 17.67453 17.67453 3.476480 3.605257 3.837994 
194 "BO1" 17.20912 17.20912 17.20912 3.358863 3.481524 3.703207 
195 "BH13" 16.74372 16.74372 16.74372 3.244571 3.361288 3.572230 
196 "BH15" 16.27832 16.27832 16.27832 3.133576 3.244521 3.445032 
197 "J16" 15.81445 15.81445 15.81445 3.025850 3.131194 3.321581 
198 "BD17" 15.34905 15.34905 15.34905 2.921366 3.021276 3.201844 
199 "AI18" 14.88365 14.88365 14.88365 2.820095 2.914739 3.085790 
200 "J18" 14.41825 14.41825 14.41825 2.722008 2.811551 2.973384 
201 "BG16" 13.95285 13.95285 13.95285 2.627075 2.711683 2.864593 
202 "AJ6" 13.48898 13.48898 13.48898 2.535268 2.615102 2.759384 
203 "O8" 13.02358 13.02358 13.02358 2.446556 2.521776 2.657722 
204 "R5" 12.55818 12.55818 12.55818 2.360908 2.431675 2.559572 
205 "AO8" 12.09277 12.09277 12.09277 2.278294 2.344765 2.464898 
206 "T7" 11.62737 11.62737 11.62737 2.198682 2.261013 2.373664 
207 "BF8" 11.16350 11.16350 11.16350 2.122040 2.180385 2.285834 
208 "BN18" 10.69810 10.69810 10.69810 2.048335 2.102848 2.201369 
209 "A14" 10.23270 10.23270 10.23270 1.977534 2.028366 2.120234 
210 "AB8" 9.767300 9.767300 9.767300 1.909605 1.956904 2.042388 
211 "AO2" 9.301900 9.301900 9.301900 1.844511 1.888426 1.967792 
212 "R3" 8.836500 8.836500 8.836500 1.782220 1.822895 1.896407 
213 "AL17" 8.372625 8.372625 8.372625 1.722694 1.760274 1.828192 
214 "AD5" 7.907225 7.907225 7.907225 1.665898 1.700525 1.763105 
215 "H17" 7.441825 7.441825 7.441825 1.611795 1.643608 1.701104 
216 "L16" 6.976425 6.976425 6.976425 1.560347 1.589484 1.642145 
217 "X4" 6.511025 6.511025 6.511025 1.511515 1.538113 1.586185 
218 "AO18" 6.047150 6.047150 6.047150 1.465260 1.489453 1.533178 
219 "AT8" 5.581750 5.581750 5.581750 1.421541 1.443462 1.483078 
220 "G6" 5.116350 5.116350 5.116350 1.380318 1.400095 1.435837 
221 "BC3" 4.650950 4.650950 4.650950 1.341548 1.359308 1.391407 
222 "AZ1" 4.185550 4.185550 4.185550 1.305187 1.321056 1.349737 
223 "E1" 3.721675 3.721675 3.721675 1.271025 1.285118 1.310588 
224 "AS18" 3.256275 3.256275 3.256275 1.237146 1.249478 1.271765 
225 "AX4" 2.790875 2.790875 2.790875 1.203268 1.213838 1.232941 
226 "N1" 2.325475 2.325475 2.325475 1.169390 1.178199 1.194118 
227 "Q18" 1.860075 1.860075 1.860075 1.135512 1.142559 1.155294 
228 "R13" 1.394675 1.394675 1.394675 1.101634 1.106919 1.116471 
229 "AE4" 0.930800 0.930800 0.930800 1.067756 1.071279 1.077647 
230 "AX7" 0.465400 0.465400 0.465400 1.033878 1.035640 1.038824 
231 "P13" 0.00000 0.00000 100.0000 18.87111 8.147314 95.12896 
232 "BM15" 0.00000 100.0000 0.00000 36.40521 71.80052 12.80184 
233 "F10" 0.00000 100.0000 83.23186 48.20117 76.51816 74.93237 
234 "AW11" 100.0000 0.00000 0.00000 41.83017 22.05217 2.913230 
235 "AV3" 100.0000 33.95132 75.36278 54.61034 32.50772 53.74581 
236 "L15" 0.00000 33.77127 67.44793 11.67599 10.55540 40.93044 
237 "AY12" 98.70603 100.0000 58.66331 81.46176 94.40515 43.19607 
238 "BP13" 88.15595 51.57244 51.62737 43.88322 34.66300 26.73381 
239 "W4" 44.16724 64.11078 40.85603 23.23016 31.54557 18.74312 
240 "B11" 100.0000 68.66865 35.79461 58.90947 53.19615 17.88882 
241 "BO2" 38.90440 0.00000 26.80247 7.160239 4.055542 6.735947 
242 "BF14" 47.56237 41.02998 0.00000 13.81013 14.97172 3.022262 
243 "X5" 39.20043 12.08820 0.00000 6.679557 4.641735 1.403829 
244 "W8" 2.604715 0.00000 24.54261 1.959176 1.393129 5.622463 
245 "AB6" 0.00000 65.95254 84.62654 27.14241 33.68640 70.13365 
246 "Z14" 66.41947 34.91112 0.00000 20.81680 16.46964 2.942376 
247 "AY13" 63.74914 94.41672 94.41825 62.62384 77.07556 94.67124 
248 "Q10" 0.00000 28.05676 86.52171 16.13829 10.67822 69.55885 
249 "AR18" 0.00000 72.80537 21.38705 18.98413 35.88851 10.30919 
250 "Q2" 0.00000 48.81209 45.82895 11.36562 16.65531 20.10060 
251 "P11" 46.17685 0.00000 56.38819 13.33202 6.783756 27.51384 
252 "E11" 67.48302 100.0000 65.64889 60.21004 83.27128 50.16203 
253 "BG9" 55.66339 43.95209 60.84077 23.64988 20.52618 34.34922 
254 "AI6" 54.74022 33.70413 39.07073 17.18907 13.96922 14.49760 
255 "AL6" 100.0000 0.00000 42.36973 44.51238 23.12488 17.04072 
256 "AG5" 78.34440 20.87587 22.70390 26.54842 15.97212 6.494630 
257 "AN18" 56.08453 0.00000 22.27512 12.94402 7.074366 5.351201 
258 "L5" 69.31716 0.00000 45.67941 22.04576 11.48703 18.42483 
259 "L2" 76.31037 100.0000 0.00000 58.58332 83.23562 13.84106 
260 "AM15" 58.06973 67.81720 8.502327 28.02834 36.85874 7.234034 
261 "AF17" 0.00000 62.67796 100.0000 31.28780 32.97722 99.26789 
262 "BJ14" 0.00000 85.09804 96.75441 42.14696 56.75800 96.51763 
263 "BK12" 0.00000 91.52514 88.83650 43.62233 64.37358 82.62168 
264 "G13" 56.94362 64.55177 80.93385 36.92511 37.90927 64.30033 
265 "Q5" 33.89181 72.05158 60.61341 27.57480 39.13239 37.48057 
266 "BE6" 47.51507 65.10872 65.11635 29.15466 34.77255 41.78504 
267 "AK2" 85.32692 56.90700 100.0000 57.41605 42.92516 99.81200 
268 "AL9" 73.78805 65.41390 49.84054 39.01674 40.41486 26.52207 
269 "T13" 67.82025 86.89250 41.38857 46.35232 62.30561 23.82446 
270 "BF10" 60.48219 42.25528 33.48745 21.15923 19.04557 12.01409 
271 "Q1" 59.31334 26.30808 25.70687 16.63411 11.90668 7.318069 
272 "AV6" 39.18364 47.56847 37.89425 15.11922 18.13514 14.67390 
273 "B5" 54.32059 0.00000 0.00000 11.46232 6.394404 1.490246 
274 "Q15" 0.00000 27.77447 40.32502 5.635316 6.405132 14.46241 
275 "AV17" 76.60487 65.49630 24.38087 37.91999 40.24555 11.16854 
276 "AG13" 61.00099 62.70848 100.0000 44.78943 39.95845 99.90437 
277 "AE7" 71.15892 26.76280 100.0000 39.90454 22.05140 96.70506 
278 "R17" 100.0000 82.36820 98.55192 81.94564 74.61520 101.5790 
279 "AE16" 56.32563 40.70802 90.72557 31.53539 22.33181 78.63583 
280 "R6" 0.00000 40.32197 20.91707 6.428566 10.82542 5.986681 
281 "BK10" 31.31914 74.88212 74.88365 32.00472 43.26955 56.31209 
282 "S11" 0.00000 0.00000 46.54917 4.279010 2.311397 18.27088 
283 "Q9" 79.27977 60.82399 67.63409 44.19704 39.66254 45.07214 
284 "B9" 71.51598 52.26368 27.86297 29.65409 28.02313 10.61910 
285 "AY3" 79.95270 44.86915 64.70893 38.35055 28.39099 39.57685 
286 "L13" 100.0000 52.09125 35.34905 51.94501 39.34645 15.32895 
287 "AG8" 100.0000 0.00000 28.06592 42.97434 22.50977 8.939716 
288 "M18" 36.52705 32.06378 18.95018 8.988171 9.464161 5.017206 
289 "AT6" 25.73434 7.177844 11.62890 3.646092 2.663150 2.375105 
290 "Q16" 43.84833 26.68040 2.865644 9.680327 8.511431 2.200599 
291 "G14" 65.24453 68.65797 40.26856 34.24764 40.41162 19.48165 
292 "C12" 69.86648 0.00000 61.64797 25.25626 12.80766 33.68134 
293 "AW1" 28.58930 26.47288 40.32654 8.145832 7.398703 14.52301 
294 "AJ11" 0.00000 69.96719 42.68864 19.57029 33.77543 20.63633 
295 "AB9" 29.06081 43.18914 0.00000 9.338446 13.51332 2.976265 
296 "S14" 40.92622 0.00000 77.69284 16.79928 7.977318 54.49234 
297 "BG14" 44.65705 48.77852 73.78195 24.04108 22.50058 51.13358 
298 "D3" 0.115969 24.14282 18.63432 3.204255 4.573188 4.291241 
299 "I9" 7.492180 46.70176 68.64576 15.47538 17.28562 43.56902 
300 "AC15" 84.19928 66.57511 61.39010 48.83630 46.02937 38.56061 
301 "BJ3" 64.39155 53.09224 52.70924 29.11847 27.81216 27.17881 
302 "BK7" 68.96010 45.60616 45.58175 28.04484 23.80911 20.41156 
303 "E9" 100.0000 46.43168 62.26139 54.46675 37.44182 37.59549 
304 "BG8" 100.0000 87.74243 0.00000 68.15308 74.69062 11.68761 
305 "T10" 72.30945 33.96811 21.57168 24.68999 18.09821 6.632973 
306 "K9" 46.51560 87.34417 13.94369 34.84293 57.08155 11.66101 
307 "AL8" 44.69062 0.00000 40.94911 10.36059 5.537738 14.46422 
308 "AV5" 68.28260 33.94369 75.36278 31.08693 20.37622 52.64302 
309 "AG1" 24.32746 100.0000 65.64431 45.31642 75.59220 49.45868 
310 "AX15" 0.00000 97.04585 41.38552 36.62387 68.15545 25.46472 
311 "AP7" 52.65278 52.91829 35.34905 21.17894 23.91127 13.96969 
312 "BD7" 100.0000 88.89143 65.19722 75.77635 78.99629 47.96401 
313 "J14" 47.23278 76.45228 100.0000 45.91198 50.74991 101.9283 
314 "AO16" 44.80964 29.03029 97.94461 27.37757 16.22947 91.92019 
315 "AC12" 57.81949 78.90898 87.90723 47.06428 53.97283 78.75228 
316 "AH16" 0.00000 8.975357 18.58091 1.816793 1.808376 3.816529 
317 "M13" 13.06783 9.449912 67.05272 9.233155 4.886336 39.46422 
318 "X6" 0.00000 57.01228 64.18555 17.68771 23.80380 39.15137 
319 "AB5" 84.96223 95.46654 82.03098 72.50775 83.83700 73.07585 
320 "BL11" 98.82811 0.00000 92.87556 55.86021 27.53837 82.44918 
321 "AK5" 100.0000 42.66880 41.62203 49.80676 33.87119 18.31511 
322 "AV11" 75.22850 20.91554 32.55818 25.30295 15.24507 10.57872 
323 "AJ15" 95.50011 35.27276 0.00000 41.38957 27.19048 3.928280 
324 "AG9" 59.57733 55.61151 63.52483 29.81068 29.27964 38.78683 
325 "BC2" 34.37400 8.822766 8.836500 5.394185 3.684174 2.065452 
326 "W15" 42.80461 0.00000 12.26368 7.510914 4.328314 2.601955 
327 "BE14" 12.42695 23.43633 0.00000 3.167749 4.473819 1.556377 
328 "R11" 57.12215 98.60990 88.83803 60.63766 81.06827 84.95239 
329 "R8" 28.37415 40.82551 20.74311 9.217571 12.45322 6.100958 
330 "AX3" 72.85878 46.78874 73.78347 36.56895 28.04604 51.54548 
331 "Y16" 83.25933 86.94285 97.94919 70.80330 73.28559 100.6555 
332 "J10" 49.06691 86.93065 64.92409 41.94209 59.58159 45.66817 
333 "AF1" 15.19188 0.00000 14.78904 2.160428 1.558782 2.838802 
334 "BK8" 43.45159 81.29244 45.25216 32.71452 49.88724 24.94626 
335 "AV16" 72.01038 85.87015 60.14649 51.27702 63.47030 40.41573 
336 "AZ16" 0.00000 42.11795 91.12840 20.72149 17.28143 78.98755 
337 "AN3" 0.106813 22.31479 64.22827 9.062141 6.534493 36.32322 
338 "BB16" 85.20790 100.0000 95.44671 80.89420 92.87975 98.80638 
339 "T8" 42.16373 29.50790 59.84588 15.23354 11.40585 31.93626 
340 "AG11" 91.18181 83.46227 74.88823 66.93560 68.81980 59.41007 
341 "C7" 13.60342 36.71321 40.52338 8.045780 10.18230 15.19612 
342 "AR13" 100.0000 39.15007 92.12634 61.16197 36.97669 82.55233 
343 "AG18" 62.42313 38.25284 20.93996 20.11849 17.13816 6.491385 
344 "AB12" 49.01656 74.50370 15.19646 27.95798 41.90971 9.356424 
345 "T6" 44.46479 5.082780 22.94194 8.702120 5.093032 5.414972 
346 "D9" 90.92546 100.0000 37.73404 71.40807 89.60516 25.40680 
347 "BJ17" 70.81254 33.70413 46.30198 26.29959 18.55309 20.05088 
348 "F16" 100.0000 77.52346 25.63973 62.70791 62.27291 14.58769 
349 "AK3" 87.93469 30.64317 57.65011 39.42849 24.22858 30.79894 
350 "AJ4" 16.47059 33.59274 21.57168 5.896337 8.295700 5.730641 
351 "AF14" 36.57435 22.68559 32.44068 8.521747 6.912622 9.794476 
352 "AE18" 68.97993 29.18441 59.79248 26.80570 17.29156 32.40474 
353 "AY11" 46.03647 38.66941 44.11078 15.61879 14.70096 18.19494 
354 "BD10" 46.17227 35.46197 33.47524 13.65546 12.76140 11.18935 
355 "F17" 43.41802 59.60937 69.13863 26.36134 29.67511 46.03241 
356 "A13" 21.62661 58.73503 21.81430 14.02805 23.60919 8.335790 
357 "BD9" 0.00000 79.58953 60.77363 27.98889 45.60258 38.88643 
358 "BN15" 0.00000 71.75555 66.04562 24.79729 37.33128 43.64823 
359 "N14" 77.57992 48.88380 56.34546 36.19090 29.28282 30.60934 
360 "BB1" 61.27565 34.92332 50.22812 22.02710 16.65072 23.16619 
361 "AA2" 86.46830 82.58030 31.38476 54.76489 62.63023 17.58658 
