Pre-made_Targets/Patch Width 8-11mm - Expert (Use rig-guide-ruler)/Generated Targets/CM-Expert-A4-1224p-4pages-w11.0mm-17x18/CM-Expert-A4-1224p-4pages.ti1
CTI1   

DESCRIPTOR "Argyll Calibration Target chart information 1"
ORIGINATOR "Argyll targen"
CREATED "Mon Feb  9 15:53:29 2026"
APPROX_WHITE_POINT "95.106486 100.000000 108.844025"
COLOR_REP "iRGB"
TOTAL_INK_LIMIT "300.0"
WHITE_COLOR_PATCHES "8"
BLACK_COLOR_PATCHES "8"
COMP_GREY_STEPS "216"
IFP_PATCHES "994"

NUMBER_OF_FIELDS 7
BEGIN_DATA_FORMAT
SAMPLE_ID RGB_R RGB_G RGB_B XYZ_X XYZ_Y XYZ_Z 
END_DATA_FORMAT

NUMBER_OF_SETS 1224
BEGIN_DATA
1 100.0000 100.0000 100.0000 95.10649 100.0000 108.8440 
2 100.0000 100.0000 100.0000 95.10649 100.0000 108.8440 
3 100.0000 100.0000 100.0000 95.10649 100.0000 108.8440 
4 100.0000 100.0000 100.0000 95.10649 100.0000 108.8440 
5 100.0000 100.0000 100.0000 95.10649 100.0000 108.8440 
6 100.0000 100.0000 100.0000 95.10649 100.0000 108.8440 
7 100.0000 100.0000 100.0000 95.10649 100.0000 108.8440 
8 100.0000 100.0000 100.0000 95.10649 100.0000 108.8440 
9 0.00000 0.00000 0.00000 1.000000 1.000000 1.000000 
10 0.00000 0.00000 0.00000 1.000000 1.000000 1.000000 
11 0.00000 0.00000 0.00000 1.000000 1.000000 1.000000 
12 0.00000 0.00000 0.00000 1.000000 1.000000 1.000000 
13 0.00000 0.00000 0.00000 1.000000 1.000000 1.000000 
14 0.00000 0.00000 0.00000 1.000000 1.000000 1.000000 
15 0.00000 0.00000 0.00000 1.000000 1.000000 1.000000 
16 0.00000 0.00000 0.00000 1.000000 1.000000 1.000000 
17 99.53488 99.53488 99.53488 94.11383 98.95573 107.7065 
18 99.06977 99.06977 99.06977 93.12731 97.91791 106.5759 
19 98.60465 98.60465 98.60465 92.14692 96.88653 105.4524 
20 98.13953 98.13953 98.13953 91.17263 95.86159 104.3359 
21 97.67442 97.67442 97.67442 90.20445 94.84306 103.2264 
22 97.20930 97.20930 97.20930 89.24236 93.83094 102.1239 
23 96.74419 96.74419 96.74419 88.28635 92.82522 101.0283 
24 96.27907 96.27907 96.27907 87.33641 91.82588 99.93969 
25 95.81395 95.81395 95.81395 86.39253 90.83292 98.85802 
26 95.34884 95.34884 95.34884 85.45470 89.84632 97.78328 
27 94.88372 94.88372 94.88372 84.52290 88.86607 96.71546 
28 94.41860 94.41860 94.41860 83.59712 87.89215 95.65454 
29 93.95349 93.95349 93.95349 82.67736 86.92456 94.60051 
30 93.48837 93.48837 93.48837 81.76360 85.96329 93.55337 
31 93.02326 93.02326 93.02326 80.85584 85.00832 92.51309 
32 92.55814 92.55814 92.55814 79.95405 84.05964 91.47966 
33 92.09302 92.09302 92.09302 79.05823 83.11724 90.45307 
34 91.62791 91.62791 91.62791 78.16837 82.18111 89.43331 
35 91.16279 91.16279 91.16279 77.28445 81.25123 88.42036 
36 90.69767 90.69767 90.69767 76.40647 80.32759 87.41421 
37 90.23256 90.23256 90.23256 75.53442 79.41019 86.41485 
38 89.76744 89.76744 89.76744 74.66827 78.49900 85.42226 
39 89.30233 89.30233 89.30233 73.80802 77.59402 84.43644 
40 88.83721 88.83721 88.83721 72.95366 76.69524 83.45736 
41 88.37209 88.37209 88.37209 72.10518 75.80263 82.48502 
42 87.90698 87.90698 87.90698 71.26257 74.91620 81.51940 
43 87.44186 87.44186 87.44186 70.42580 74.03593 80.56049 
44 86.97674 86.97674 86.97674 69.59488 73.16180 79.60827 
45 86.51163 86.51163 86.51163 68.76979 72.29381 78.66274 
46 86.04651 86.04651 86.04651 67.95052 71.43193 77.72387 
47 85.58140 85.58140 85.58140 67.13706 70.57617 76.79166 
48 85.11628 85.11628 85.11628 66.32939 69.72650 75.86609 
49 84.65116 84.65116 84.65116 65.52750 68.88292 74.94714 
50 84.18605 84.18605 84.18605 64.73139 68.04540 74.03481 
51 83.72093 83.72093 83.72093 63.94103 67.21395 73.12908 
52 83.25581 83.25581 83.25581 63.15642 66.38854 72.22993 
53 82.79070 82.79070 82.79070 62.37755 65.56916 71.33736 
54 82.32558 82.32558 82.32558 61.60440 64.75581 70.45135 
55 81.86047 81.86047 81.86047 60.83696 63.94846 69.57188 
56 81.39535 81.39535 81.39535 60.07522 63.14711 68.69894 
57 80.93023 80.93023 80.93023 59.31916 62.35175 67.83252 
58 80.46512 80.46512 80.46512 58.56879 61.56235 66.97260 
59 80.00000 80.00000 80.00000 57.82407 60.77891 66.11917 
60 79.53488 79.53488 79.53488 57.08500 60.00141 65.27222 
61 79.06977 79.06977 79.06977 56.35157 59.22984 64.43172 
62 78.60465 78.60465 78.60465 55.62377 58.46419 63.59768 
63 78.13953 78.13953 78.13953 54.90158 57.70445 62.77006 
64 77.67442 77.67442 77.67442 54.18499 56.95060 61.94887 
65 77.20930 77.20930 77.20930 53.47399 56.20263 61.13408 
66 76.74419 76.74419 76.74419 52.76857 55.46052 60.32567 
67 76.27907 76.27907 76.27907 52.06871 54.72427 59.52365 
68 75.81395 75.81395 75.81395 51.37439 53.99385 58.72798 
69 75.34884 75.34884 75.34884 50.68562 53.26926 57.93866 
70 74.88372 74.88372 74.88372 50.00237 52.55048 57.15567 
71 74.41860 74.41860 74.41860 49.32464 51.83751 56.37900 
72 73.95349 73.95349 73.95349 48.65240 51.13031 55.60863 
73 73.48837 73.48837 73.48837 47.98565 50.42889 54.84455 
74 73.02326 73.02326 73.02326 47.32438 49.73323 54.08675 
75 72.55814 72.55814 72.55814 46.66856 49.04331 53.33520 
76 72.09302 72.09302 72.09302 46.01819 48.35913 52.58989 
77 71.62791 71.62791 71.62791 45.37326 47.68066 51.85081 
78 71.16279 71.16279 71.16279 44.73375 47.00790 51.11795 
79 70.69767 70.69767 70.69767 44.09965 46.34082 50.39128 
80 70.23256 70.23256 70.23256 43.47095 45.67943 49.67080 
81 69.76744 69.76744 69.76744 42.84763 45.02369 48.95649 
82 69.30233 69.30233 69.30233 42.22967 44.37361 48.24833 
83 68.83721 68.83721 68.83721 41.61708 43.72915 47.54630 
84 68.37209 68.37209 68.37209 41.00982 43.09032 46.85040 
85 67.90698 67.90698 67.90698 40.40790 42.45710 46.16061 
86 67.44186 67.44186 67.44186 39.81129 41.82947 45.47691 
87 66.97674 66.97674 66.97674 39.21998 41.20741 44.79928 
88 66.51163 66.51163 66.51163 38.63396 40.59092 44.12772 
89 66.04651 66.04651 66.04651 38.05322 39.97998 43.46220 
90 65.58140 65.58140 65.58140 37.47774 39.37457 42.80271 
91 65.11628 65.11628 65.11628 36.90751 38.77469 42.14924 
92 64.65116 64.65116 64.65116 36.34251 38.18031 41.50176 
93 64.18605 64.18605 64.18605 35.78273 37.59142 40.86026 
94 63.72093 63.72093 63.72093 35.22815 37.00801 40.22474 
95 63.25581 63.25581 63.25581 34.67877 36.43006 39.59516 
96 62.79070 62.79070 62.79070 34.13457 35.85756 38.97151 
97 62.32558 62.32558 62.32558 33.59554 35.29049 38.35379 
98 61.86047 61.86047 61.86047 33.06165 34.72885 37.74196 
99 61.39535 61.39535 61.39535 32.53290 34.17260 37.13603 
100 60.93023 60.93023 60.93023 32.00927 33.62174 36.53596 
101 60.46512 60.46512 60.46512 31.49075 33.07626 35.94174 
102 60.00000 60.00000 60.00000 30.97732 32.53613 35.35337 
103 59.53488 59.53488 59.53488 30.46897 32.00135 34.77081 
104 59.06977 59.06977 59.06977 29.96568 31.47189 34.19406 
105 58.60465 58.60465 58.60465 29.46745 30.94775 33.62309 
106 58.13953 58.13953 58.13953 28.97425 30.42890 33.05789 
107 57.67442 57.67442 57.67442 28.48607 29.91534 32.49845 
108 57.20930 57.20930 57.20930 28.00290 29.40704 31.94475 
109 56.74419 56.74419 56.74419 27.52472 28.90400 31.39676 
110 56.27907 56.27907 56.27907 27.05151 28.40618 30.85448 
111 55.81395 55.81395 55.81395 26.58327 27.91359 30.31788 
112 55.34884 55.34884 55.34884 26.11997 27.42620 29.78695 
113 54.88372 54.88372 54.88372 25.66161 26.94400 29.26167 
114 54.41860 54.41860 54.41860 25.20816 26.46697 28.74203 
115 53.95349 53.95349 53.95349 24.75961 25.99510 28.22800 
116 53.48837 53.48837 53.48837 24.31595 25.52837 27.71958 
117 53.02326 53.02326 53.02326 23.87715 25.06676 27.21673 
118 52.55814 52.55814 52.55814 23.44322 24.61026 26.71945 
119 52.09302 52.09302 52.09302 23.01412 24.15885 26.22771 
120 51.62791 51.62791 51.62791 22.58985 23.71252 25.74151 
121 51.16279 51.16279 51.16279 22.17039 23.27124 25.26081 
122 50.69767 50.69767 50.69767 21.75571 22.83501 24.78561 
123 50.23256 50.23256 50.23256 21.34582 22.40380 24.31588 
124 49.76744 49.76744 49.76744 20.94069 21.97760 23.85160 
125 49.30233 49.30233 49.30233 20.54030 21.55639 23.39277 
126 48.83721 48.83721 48.83721 20.14464 21.14016 22.93935 
127 48.37209 48.37209 48.37209 19.75370 20.72888 22.49134 
128 47.90698 47.90698 47.90698 19.36745 20.32255 22.04870 
129 47.44186 47.44186 47.44186 18.98588 19.92114 21.61144 
130 46.97674 46.97674 46.97674 18.60898 19.52464 21.17951 
131 46.51163 46.51163 46.51163 18.23672 19.13303 20.75292 
132 46.04651 46.04651 46.04651 17.86910 18.74629 20.33163 
133 45.58140 45.58140 45.58140 17.50609 18.36440 19.91563 
134 45.11628 45.11628 45.11628 17.14768 17.98736 19.50490 
135 44.65116 44.65116 44.65116 16.79385 17.61513 19.09942 
136 44.18605 44.18605 44.18605 16.44459 17.24770 18.69917 
137 43.72093 43.72093 43.72093 16.09987 16.88506 18.30413 
138 43.25581 43.25581 43.25581 15.75968 16.52718 17.91428 
139 42.79070 42.79070 42.79070 15.42401 16.17405 17.52961 
140 42.32558 42.32558 42.32558 15.09283 15.82566 17.15008 
141 41.86047 41.86047 41.86047 14.76613 15.48197 16.77569 
142 41.39535 41.39535 41.39535 14.44389 15.14297 16.40642 
143 40.93023 40.93023 40.93023 14.12610 14.80865 16.04223 
144 40.46512 40.46512 40.46512 13.81273 14.47899 15.68312 
145 40.00000 40.00000 40.00000 13.50377 14.15396 15.32905 
146 39.53488 39.53488 39.53488 13.19920 13.83356 14.98002 
147 39.06977 39.06977 39.06977 12.89900 13.51775 14.63600 
148 38.60465 38.60465 38.60465 12.60316 13.20652 14.29697 
149 38.13953 38.13953 38.13953 12.31165 12.89985 13.96291 
150 37.67442 37.67442 37.67442 12.02446 12.59773 13.63379 
151 37.20930 37.20930 37.20930 11.74157 12.30012 13.30961 
152 36.74419 36.74419 36.74419 11.46295 12.00703 12.99032 
153 36.27907 36.27907 36.27907 11.18860 11.71841 12.67592 
154 35.81395 35.81395 35.81395 10.91850 11.43426 12.36639 
155 35.34884 35.34884 35.34884 10.65261 11.15455 12.06169 
156 34.88372 34.88372 34.88372 10.39094 10.87926 11.76181 
157 34.41860 34.41860 34.41860 10.13344 10.60838 11.46673 
158 33.95349 33.95349 33.95349 9.880116 10.34188 11.17642 
159 33.48837 33.48837 33.48837 9.630936 10.07974 10.89087 
160 33.02326 33.02326 33.02326 9.385883 9.821947 10.61004 
161 32.55814 32.55814 32.55814 9.144938 9.568473 10.33393 
162 32.09302 32.09302 32.09302 8.908080 9.319298 10.06249 
163 31.62791 31.62791 31.62791 8.675290 9.074403 9.795718 
164 31.16279 31.16279 31.16279 8.446546 8.833765 9.533583 
165 30.69767 30.69767 30.69767 8.221830 8.597363 9.276063 
166 30.23256 30.23256 30.23256 8.001120 8.365176 9.023134 
167 29.76744 29.76744 29.76744 7.784395 8.137182 8.774772 
168 29.30233 29.30233 29.30233 7.571636 7.913359 8.530955 
169 28.83721 28.83721 28.83721 7.362820 7.693685 8.291656 
170 28.37209 28.37209 28.37209 7.157927 7.478138 8.056853 
171 27.90698 27.90698 27.90698 6.956935 7.266694 7.826521 
172 27.44186 27.44186 27.44186 6.759823 7.059333 7.600634 
173 26.97674 26.97674 26.97674 6.566569 6.856029 7.379170 
174 26.51163 26.51163 26.51163 6.377152 6.656762 7.162101 
175 26.04651 26.04651 26.04651 6.191548 6.461507 6.949403 
176 25.58140 25.58140 25.58140 6.009736 6.270241 6.741051 
177 25.11628 25.11628 25.11628 5.831694 6.082941 6.537018 
178 24.65116 24.65116 24.65116 5.657399 5.899582 6.337279 
179 24.18605 24.18605 24.18605 5.486827 5.720141 6.141808 
180 23.72093 23.72093 23.72093 5.319956 5.544593 5.950578 
181 23.25581 23.25581 23.25581 5.156763 5.372914 5.763562 
182 22.79070 22.79070 22.79070 4.997224 5.205078 5.580733 
183 22.32558 22.32558 22.32558 4.841314 5.041062 5.402064 
184 21.86047 21.86047 21.86047 4.689011 4.880839 5.227528 
185 21.39535 21.39535 21.39535 4.540290 4.724385 5.057097 
186 20.93023 20.93023 20.93023 4.395127 4.571673 4.890743 
187 20.46512 20.46512 20.46512 4.253496 4.422677 4.728437 
188 20.00000 20.00000 20.00000 4.115373 4.277372 4.570151 
189 19.53488 19.53488 19.53488 3.980733 4.135730 4.415856 
190 19.06977 19.06977 19.06977 3.849549 3.997725 4.265523 
191 18.60465 18.60465 18.60465 3.721797 3.863330 4.119121 
192 18.13953 18.13953 18.13953 3.597449 3.732516 3.976621 
193 17.67442 17.67442 17.67442 3.476480 3.605257 3.837994 
194 17.20930 17.20930 17.20930 3.358863 3.481524 3.703207 
195 16.74419 16.74419 16.74419 3.244571 3.361288 3.572230 
196 16.27907 16.27907 16.27907 3.133576 3.244521 3.445032 
197 15.81395 15.81395 15.81395 3.025850 3.131194 3.321581 
198 15.34884 15.34884 15.34884 2.921366 3.021276 3.201844 
199 14.88372 14.88372 14.88372 2.820095 2.914739 3.085790 
200 14.41860 14.41860 14.41860 2.722008 2.811551 2.973384 
201 13.95349 13.95349 13.95349 2.627075 2.711683 2.864593 
202 13.48837 13.48837 13.48837 2.535268 2.615102 2.759384 
203 13.02326 13.02326 13.02326 2.446556 2.521776 2.657722 
204 12.55814 12.55814 12.55814 2.360908 2.431675 2.559572 
205 12.09302 12.09302 12.09302 2.278294 2.344765 2.464898 
206 11.62791 11.62791 11.62791 2.198682 2.261013 2.373664 
207 11.16279 11.16279 11.16279 2.122040 2.180385 2.285834 
208 10.69767 10.69767 10.69767 2.048335 2.102848 2.201369 
209 10.23256 10.23256 10.23256 1.977534 2.028366 2.120234 
210 9.767442 9.767442 9.767442 1.909605 1.956904 2.042388 
211 9.302326 9.302326 9.302326 1.844511 1.888426 1.967792 
212 8.837209 8.837209 8.837209 1.782220 1.822895 1.896407 
213 8.372093 8.372093 8.372093 1.722694 1.760274 1.828192 
214 7.906977 7.906977 7.906977 1.665898 1.700525 1.763105 
215 7.441860 7.441860 7.441860 1.611795 1.643608 1.701104 
216 6.976744 6.976744 6.976744 1.560347 1.589484 1.642145 
217 6.511628 6.511628 6.511628 1.511515 1.538113 1.586185 
218 6.046512 6.046512 6.046512 1.465260 1.489453 1.533178 
219 5.581395 5.581395 5.581395 1.421541 1.443462 1.483078 
220 5.116279 5.116279 5.116279 1.380318 1.400095 1.435837 
221 4.651163 4.651163 4.651163 1.341548 1.359308 1.391407 
222 4.186047 4.186047 4.186047 1.305187 1.321056 1.349737 
223 3.720930 3.720930 3.720930 1.271025 1.285118 1.310588 
224 3.255814 3.255814 3.255814 1.237146 1.249478 1.271765 
225 2.790698 2.790698 2.790698 1.203268 1.213838 1.232941 
226 2.325581 2.325581 2.325581 1.169390 1.178199 1.194118 
227 1.860465 1.860465 1.860465 1.135512 1.142559 1.155294 
228 1.395349 1.395349 1.395349 1.101634 1.106919 1.116471 
229 0.930233 0.930233 0.930233 1.067756 1.071279 1.077647 
230 0.465116 0.465116 0.465116 1.033878 1.035640 1.038824 
231 0.00000 0.00000 100.0000 18.87111 8.147314 95.12896 
232 0.00000 100.0000 0.00000 36.40521 71.80052 12.80184 
233 0.00000 100.0000 83.23158 48.20117 76.51816 74.93237 
234 100.0000 0.00000 0.00000 41.83017 22.05217 2.913230 
235 100.0000 33.95207 75.36344 54.61034 32.50772 53.74581 
236 0.00000 33.77119 67.44855 11.67599 10.55540 40.93044 
237 98.70606 100.0000 58.66333 81.46176 94.40515 43.19607 
238 88.15523 51.57169 51.62794 43.88322 34.66300 26.73381 
239 44.16752 64.11047 40.85565 23.23016 31.54557 18.74312 
240 100.0000 68.66817 35.79438 58.90947 53.19615 17.88882 
241 38.90424 0.00000 26.80180 7.160239 4.055542 6.735947 
242 47.56272 41.02949 0.00000 13.81013 14.97172 3.022262 
243 39.19995 12.08878 0.00000 6.679557 4.641735 1.403829 
244 2.604171 0.00000 24.54328 1.959176 1.393129 5.622463 
245 0.00000 65.95225 84.62706 27.14241 33.68640 70.13365 
246 66.41901 34.91097 0.00000 20.81680 16.46964 2.942376 
247 63.74903 94.41617 94.41860 62.62384 77.07556 94.67124 
248 0.00000 28.05603 86.52169 16.13829 10.67822 69.55885 
249 0.00000 72.80498 21.38658 18.98413 35.88851 10.30919 
250 0.00000 48.81160 45.82854 11.36562 16.65531 20.10060 
251 46.17727 0.00000 56.38865 13.33202 6.783756 27.51384 
252 67.48261 100.0000 65.64924 60.21004 83.27128 50.16203 
253 55.66370 43.95266 60.84122 23.64988 20.52618 34.34922 
254 54.73974 33.70421 39.07040 17.18907 13.96922 14.49760 
255 100.0000 0.00000 42.36979 44.51238 23.12488 17.04072 
256 78.34405 20.87621 22.70344 26.54842 15.97212 6.494630 
257 56.08435 0.00000 22.27521 12.94402 7.074366 5.351201 
258 69.31685 0.00000 45.67948 22.04576 11.48703 18.42483 
259 76.31109 100.0000 0.00000 58.58332 83.23562 13.84106 
260 58.06993 67.81684 8.502066 28.02834 36.85874 7.234034 
261 0.00000 62.67789 100.0000 31.28780 32.97722 99.26789 
262 0.00000 85.09847 96.75462 42.14696 56.75800 96.51763 
263 0.00000 91.52446 88.83607 43.62233 64.37358 82.62168 
264 56.94363 64.55242 80.93425 36.92511 37.90927 64.30033 
265 33.89190 72.05087 60.61298 27.57480 39.13239 37.48057 
266 47.51539 65.10932 65.11628 29.15466 34.77255 41.78504 
267 85.32648 56.90771 100.0000 57.41605 42.92516 99.81200 
268 73.78747 65.41380 49.84111 39.01674 40.41486 26.52207 
269 67.82037 86.89241 41.38781 46.35232 62.30561 23.82446 
270 60.48152 42.25480 33.48786 21.15923 19.04557 12.01409 
271 59.31273 26.30813 25.70720 16.63411 11.90668 7.318069 
272 39.18386 47.56841 37.89362 15.11922 18.13514 14.67390 
273 54.32121 0.00000 0.00000 11.46232 6.394404 1.490246 
274 0.00000 27.77440 40.32532 5.635316 6.405132 14.46241 
275 76.60505 65.49672 24.38042 37.91999 40.24555 11.16854 
276 61.00070 62.70832 100.0000 44.78943 39.95845 99.90437 
277 71.15823 26.76254 100.0000 39.90454 22.05140 96.70506 
278 100.0000 82.36860 98.55124 81.94564 74.61520 101.5790 
279 56.32573 40.70791 90.72608 31.53539 22.33181 78.63583 
280 0.00000 40.32232 20.91681 6.428566 10.82542 5.986681 
281 31.31891 74.88215 74.88372 32.00472 43.26955 56.31209 
282 0.00000 0.00000 46.54937 4.279010 2.311397 18.27088 
283 79.27903 60.82383 67.63382 44.19704 39.66254 45.07214 
284 71.51563 52.26365 27.86328 29.65409 28.02313 10.61910 
285 79.95228 44.86875 64.70967 38.35055 28.39099 39.57685 
286 100.0000 52.09150 35.34919 51.94501 39.34645 15.32895 
287 100.0000 0.00000 28.06561 42.97434 22.50977 8.939716 
288 36.52655 32.06367 18.95080 8.988171 9.464161 5.017206 
289 25.73447 7.178339 11.62821 3.646092 2.663150 2.375105 
290 43.84791 26.67989 2.866278 9.680327 8.511431 2.200599 
291 65.24378 68.65738 40.26791 34.24764 40.41162 19.48165 
292 69.86577 0.00000 61.64871 25.25626 12.80766 33.68134 
293 28.58912 26.47296 40.32689 8.145832 7.398703 14.52301 
294 0.00000 69.96791 42.68899 19.57029 33.77543 20.63633 
295 29.06006 43.18857 0.00000 9.338446 13.51332 2.976265 
296 40.92668 0.00000 77.69255 16.79928 7.977318 54.49234 
297 44.65726 48.77826 73.78233 24.04108 22.50058 51.13358 
298 0.115602 24.14330 18.63368 3.204255 4.573188 4.291241 
299 7.492888 46.70119 68.64556 15.47538 17.28562 43.56902 
300 84.19879 66.57435 61.39051 48.83630 46.02937 38.56061 
301 64.39126 53.09291 52.70966 29.11847 27.81216 27.17881 
302 68.96068 45.60654 45.58140 28.04484 23.80911 20.41156 
303 100.0000 46.43092 62.26082 54.46675 37.44182 37.59549 
304 100.0000 87.74243 0.00000 68.15308 74.69062 11.68761 
305 72.30969 33.96756 21.57128 24.68999 18.09821 6.632973 
306 46.51566 87.34489 13.94444 34.84293 57.08155 11.66101 
307 44.69038 0.00000 40.94980 10.36059 5.537738 14.46422 
308 68.28241 33.94296 75.36344 31.08693 20.37622 52.64302 
309 24.32811 100.0000 65.64477 45.31642 75.59220 49.45868 
310 0.00000 97.04553 41.38590 36.62387 68.15545 25.46472 
311 52.65330 52.91857 35.34881 21.17894 23.91127 13.96969 
312 100.0000 88.89204 65.19686 75.77635 78.99629 47.96401 
313 47.23210 76.45258 100.0000 45.91198 50.74991 101.9283 
314 44.80898 29.03019 97.94477 27.37757 16.22947 91.92019 
315 57.81958 78.90890 87.90758 47.06428 53.97283 78.75228 
316 0.00000 8.974703 18.58144 1.816793 1.808376 3.816529 
317 13.06756 9.450403 67.05336 9.233155 4.886336 39.46422 
318 0.00000 57.01160 64.18562 17.68771 23.80380 39.15137 
319 84.96154 95.46600 82.03107 72.50775 83.83700 73.07585 
320 98.82807 0.00000 92.87490 55.86021 27.53837 82.44918 
321 100.0000 42.66853 41.62247 49.80676 33.87119 18.31511 
322 75.22882 20.91624 32.55825 25.30295 15.24507 10.57872 
323 95.49978 35.27243 0.00000 41.38957 27.19048 3.928280 
324 59.57783 55.61096 63.52466 29.81068 29.27964 38.78683 
325 34.37374 8.822676 8.837208 5.394185 3.684174 2.065452 
326 42.80455 0.00000 12.26333 7.510914 4.328314 2.601955 
327 12.42662 23.43644 0.00000 3.167749 4.473819 1.556377 
328 57.12249 98.61016 88.83844 60.63766 81.06827 84.95239 
329 28.37361 40.82557 20.74306 9.217571 12.45322 6.100958 
330 72.85875 46.78885 73.78322 36.56895 28.04604 51.54548 
331 83.25933 86.94249 97.94908 70.80330 73.28559 100.6555 
332 49.06722 86.93100 64.92477 41.94209 59.58159 45.66817 
333 15.19141 0.00000 14.78971 2.160428 1.558782 2.838802 
334 43.45101 81.29291 45.25198 32.71452 49.88724 24.94626 
335 72.00994 85.86942 60.14638 51.27702 63.47030 40.41573 
336 0.00000 42.11801 91.12893 20.72149 17.28143 78.98755 
337 0.106503 22.31430 64.22839 9.062141 6.534493 36.32322 
338 85.20752 100.0000 95.44741 80.89420 92.87975 98.80638 
339 42.16388 29.50858 59.84653 15.23354 11.40585 31.93626 
340 91.18185 83.46209 74.88770 66.93560 68.81980 59.41007 
341 13.60275 36.71298 40.52310 8.045780 10.18230 15.19612 
342 100.0000 39.15076 92.12607 61.16197 36.97669 82.55233 
343 62.42278 38.25235 20.94021 20.11849 17.13816 6.491385 
344 49.01609 74.50360 15.19643 27.95798 41.90971 9.356424 
345 44.46409 5.082137 22.94119 8.702120 5.093032 5.414972 
346 90.92477 100.0000 37.73329 71.40807 89.60516 25.40680 
347 70.81234 33.70432 46.30212 26.29959 18.55309 20.05088 
348 100.0000 77.52273 25.64022 62.70791 62.27291 14.58769 
349 87.93432 30.64344 57.64990 39.42849 24.22858 30.79894 
350 16.47103 33.59247 21.57131 5.896337 8.295700 5.730641 
351 36.57448 22.68521 32.44131 8.521747 6.912622 9.794476 
352 68.97944 29.18424 59.79316 26.80570 17.29156 32.40474 
353 46.03710 38.66901 44.11040 15.61879 14.70096 18.19494 
354 46.17237 35.46223 33.47476 13.65546 12.76140 11.18935 
355 43.41824 59.60938 69.13925 26.36134 29.67511 46.03241 
356 21.62724 58.73461 21.81389 14.02805 23.60919 8.335790 
357 0.00000 79.58983 60.77404 27.98889 45.60258 38.88643 
358 0.00000 71.75598 66.04582 24.79729 37.33128 43.64823 
359 77.58068 48.88451 56.34551 36.19090 29.28282 30.60934 
360 61.27564 34.92338 50.22879 22.02710 16.65072 23.16619 
361 86.46864 82.57989 31.38483 54.76489 62.63023 17.58658 
362 27.32981 37.18959 34.41866 9.249917 11.04410 11.59740 
363 100.0000 37.00522 26.50751 46.84605 30.44942 9.621701 
364 66.01972 0.00000 76.12484 26.71617 13.14267 52.60264 
365 48.43260 51.83596 0.713980 17.36235 21.59592 4.165613 
366 26.67249 15.37462 2.784938 4.124765 3.682687 1.555213 
367 92.12598 49.95091 0.00000 42.45683 33.59831 5.108967 
368 49.52474 100.0000 39.19844 47.24136 77.12449 25.18745 
369 100.0000 70.26893 100.0000 75.69833 61.18912 102.3746 
370 92.64896 31.19552 40.32870 40.55561 25.28235 16.26931 
371 67.53803 97.07753 38.28997 53.15525 76.76049 24.23211 
372 77.54995 18.33998 0.00000 24.98992 14.84929 2.409810 
373 86.31384 88.42177 1.734532 57.06148 69.65558 11.42565 
374 43.41435 82.58317 31.38483 31.85038 50.81847 16.51343 
375 47.21684 100.0000 77.77678 54.25926 79.83444 66.51873 
376 46.13229 97.66264 97.67442 58.84024 78.65793 101.7541 
377 49.66210 64.99936 56.25303 28.01012 34.32466 31.92020 
378 12.89282 47.82112 79.68639 19.19704 19.36141 59.66207 
379 0.00000 61.28872 60.76174 18.67110 26.97377 35.76761 
380 37.47434 66.13177 61.49831 25.72076 33.79924 37.53883 
381 82.85169 95.15696 99.49597 76.97012 85.06822 105.8463 
382 67.45854 27.85880 50.23409 23.94576 15.69860 22.88598 
383 89.32765 61.35516 46.06616 47.66241 42.26981 23.31856 
384 76.81467 37.19975 34.41865 29.28070 21.37547 12.53666 
385 93.43128 26.49328 26.51161 39.03395 23.49059 8.691538 
386 63.84056 10.38575 35.55533 18.14412 10.18362 11.59671 
387 48.36864 12.49122 11.26256 9.859072 6.295903 2.688873 
388 68.38243 0.00000 1.916190 18.39148 9.964036 1.953297 
389 83.76189 42.63047 18.74174 34.24597 26.07095 6.835321 
390 49.50466 100.0000 0.00000 44.95852 76.21063 13.20263 
391 92.98210 50.20158 84.55026 55.47796 39.02063 69.53971 
392 74.09222 66.96553 40.32984 38.55179 41.41503 19.48968 
393 36.67706 21.28333 41.36932 9.390598 6.988374 15.08067 
394 54.57716 23.00923 0.00000 13.10195 9.513306 2.005928 
395 86.31384 74.25691 1.583910 48.36664 52.27165 8.517067 
396 0.00000 41.30842 31.67627 7.497578 11.65426 10.37965 
397 59.55005 47.83551 80.24718 31.54713 25.71613 61.12831 
398 25.67283 63.38692 1.576105 15.93962 27.59151 5.460387 
399 12.30785 0.00000 0.00000 1.571009 1.294414 1.026756 
400 28.68608 52.24588 93.04005 27.23776 25.14378 83.81399 
401 47.19835 49.42085 63.41339 22.53840 22.32870 37.69731 
402 0.00000 64.90272 92.85805 29.51537 33.85977 85.02437 
