Pre-made_Targets/Patch Width 12-15mm - Intermediate (Easy with ruler)/Generated Targets/CM-Interm-A4-728p-4pages-w14.0mm-13x14/CM-Interm-A4-728p-4pages.ti2
CTI2   

DESCRIPTOR "Argyll Calibration Target chart information 2"
ORIGINATOR "Argyll printtarg"
CREATED "Mon Feb  9 15:36:28 2026"
TARGET_INSTRUMENT "X-Rite ColorMunki"
COMP_GREY_STEPS "108"
APPROX_WHITE_POINT "95.106486 100.000000 108.844025"
TOTAL_INK_LIMIT "300.0"
COLOR_REP "iRGB"
PAPER_SIZE "210.0x297.0"
RANDOM_START "364"
STEPS_IN_PASS "14"
PASSES_IN_STRIPS2 "13,13,13,13"
STRIP_INDEX_PATTERN "A-Z, A-Z"
PATCH_INDEX_PATTERN "0-9,@-9,@-9;1-999"
INDEX_ORDER "STRIP_THEN_PATCH"

NUMBER_OF_FIELDS 8
BEGIN_DATA_FORMAT
SAMPLE_ID SAMPLE_LOC RGB_R RGB_G RGB_B XYZ_X XYZ_Y XYZ_Z 
END_DATA_FORMAT

NUMBER_OF_SETS 728
BEGIN_DATA
1 "C12" 100.0000 100.0000 100.0000 95.10649 100.0000 108.8440 
2 "E8" 100.0000 100.0000 100.0000 95.10649 100.0000 108.8440 
3 "AY3" 100.0000 100.0000 100.0000 95.10649 100.0000 108.8440 
4 "M11" 100.0000 100.0000 100.0000 95.10649 100.0000 108.8440 
5 "J13" 100.0000 100.0000 100.0000 95.10649 100.0000 108.8440 
6 "AE6" 0.00000 0.00000 0.00000 1.000000 1.000000 1.000000 
7 "O9" 0.00000 0.00000 0.00000 1.000000 1.000000 1.000000 
8 "AN12" 0.00000 0.00000 0.00000 1.000000 1.000000 1.000000 
9 "O13" 0.00000 0.00000 0.00000 1.000000 1.000000 1.000000 
10 "AV2" 0.00000 0.00000 0.00000 1.000000 1.000000 1.000000 
11 "M13" 99.06615 99.06615 99.06615 93.11812 97.90824 106.5654 
12 "AV4" 98.13077 98.13077 98.13077 91.15448 95.84249 104.3151 
13 "Q3" 97.19692 97.19692 97.19692 89.21548 93.80266 102.0931 
14 "L3" 96.26154 96.26154 96.26154 87.30102 91.78865 99.89913 
15 "D2" 95.32769 95.32769 95.32769 85.41102 89.80037 97.73323 
16 "Z2" 94.39231 94.39231 94.39231 83.54539 87.83773 95.59525 
17 "O11" 93.45846 93.45846 93.45846 81.70403 85.90062 93.48510 
18 "AK4" 92.52308 92.52308 92.52308 79.88687 83.98896 91.40267 
19 "A4" 91.58923 91.58923 91.58923 78.09379 82.10265 89.34784 
20 "AI11" 90.65385 90.65385 90.65385 76.32472 80.24159 87.32052 
21 "V8" 89.72000 89.72000 89.72000 74.57956 78.40568 85.32061 
22 "N12" 88.78462 88.78462 88.78462 72.85821 76.59482 83.34798 
23 "A6" 87.85077 87.85077 87.85077 71.16059 74.80893 81.40254 
24 "K8" 86.91539 86.91539 86.91539 69.48660 73.04788 79.48418 
25 "AF8" 85.98154 85.98154 85.98154 67.83614 71.31160 77.59279 
26 "U7" 85.04616 85.04616 85.04616 66.20911 69.59997 75.72825 
27 "D10" 84.11231 84.11231 84.11231 64.60543 67.91290 73.89047 
28 "AM7" 83.17693 83.17693 83.17693 63.02499 66.25028 72.07932 
29 "AH8" 82.24308 82.24308 82.24308 61.46771 64.61201 70.29470 
30 "AT12" 81.30770 81.30770 81.30770 59.93347 62.99799 68.53650 
31 "T11" 80.37385 80.37385 80.37385 58.42218 61.40812 66.80459 
32 "AP7" 79.43999 79.43999 79.43999 56.93374 59.84229 65.09888 
33 "Z4" 78.50462 78.50462 78.50462 55.46806 58.30039 63.41924 
34 "D6" 77.57076 77.57076 77.57076 54.02503 56.78232 61.76555 
35 "AB7" 76.63539 76.63539 76.63539 52.60455 55.28797 60.13771 
36 "AR7" 75.70153 75.70153 75.70153 51.20652 53.81725 58.53560 
37 "AW8" 74.76616 74.76616 74.76616 49.83084 52.37003 56.95910 
38 "AW10" 73.83230 73.83230 73.83230 48.47739 50.94621 55.40808 
39 "AC6" 72.89693 72.89693 72.89693 47.14609 49.54568 53.88244 
40 "AP12" 71.96307 71.96307 71.96307 45.83682 48.16833 52.38204 
41 "F8" 71.02770 71.02770 71.02770 44.54949 46.81405 50.90678 
42 "AW12" 70.09384 70.09384 70.09384 43.28397 45.48273 49.45653 
43 "O5" 69.15846 69.15846 69.15846 42.04017 44.17425 48.03116 
44 "K4" 68.22461 68.22461 68.22461 40.81798 42.88850 46.63056 
45 "D4" 67.28923 67.28923 67.28923 39.61729 41.62538 45.25459 
46 "AR5" 66.35538 66.35538 66.35538 38.43799 40.38475 43.90313 
47 "AX7" 65.42000 65.42000 65.42000 37.27996 39.16651 42.57606 
48 "AC4" 64.48615 64.48615 64.48615 36.14311 37.97054 41.27325 
49 "X4" 63.55077 63.55077 63.55077 35.02731 36.79672 39.99457 
50 "X12" 62.61692 62.61692 62.61692 33.93246 35.64494 38.73990 
51 "AX9" 61.68154 61.68154 61.68154 32.85844 34.51507 37.50909 
52 "Q8" 60.74769 60.74769 60.74769 31.80513 33.40699 36.30202 
53 "P2" 59.81384 59.81384 59.81384 30.77242 32.32058 35.11856 
54 "AA2" 58.87846 58.87846 58.87846 29.76019 31.25571 33.95857 
55 "AU8" 57.94461 57.94461 57.94461 28.76833 30.21228 32.82191 
56 "X6" 57.00923 57.00923 57.00923 27.79671 29.19014 31.70846 
57 "AN8" 56.07538 56.07538 56.07538 26.84522 28.18917 30.61808 
58 "I5" 55.14000 55.14000 55.14000 25.91374 27.20925 29.55061 
59 "AT2" 54.20615 54.20615 54.20615 25.00214 26.25024 28.50594 
60 "X8" 53.27077 53.27077 53.27077 24.11030 25.31203 27.48391 
61 "AL12" 52.33692 52.33692 52.33692 23.23809 24.39447 26.48438 
62 "AS2" 51.40154 51.40154 51.40154 22.38540 23.49743 25.50721 
63 "T3" 50.46769 50.46769 50.46769 21.55209 22.62079 24.55225 
64 "T5" 49.53231 49.53231 49.53231 20.73803 21.76440 23.61936 
65 "AS4" 48.59846 48.59846 48.59846 19.94310 20.92814 22.70839 
66 "T7" 47.66308 47.66308 47.66308 19.16717 20.11186 21.81919 
67 "I7" 46.72923 46.72923 46.72923 18.41010 19.31542 20.95160 
68 "AJ12" 45.79385 45.79385 45.79385 17.67176 18.53869 20.10548 
69 "V6" 44.86000 44.86000 44.86000 16.95201 17.78151 19.28067 
70 "AX11" 43.92462 43.92462 43.92462 16.25073 17.04376 18.47701 
71 "J3" 42.99077 42.99077 42.99077 15.56777 16.32529 17.69435 
72 "AG9" 42.05539 42.05539 42.05539 14.90299 15.62594 16.93252 
73 "F2" 41.12154 41.12154 41.12154 14.25625 14.94557 16.19137 
74 "AZ2" 40.18616 40.18616 40.18616 13.62740 14.28403 15.47074 
75 "J5" 39.25231 39.25231 39.25231 13.01632 13.64116 14.77044 
76 "Z6" 38.31846 38.31846 38.31846 12.42284 13.01682 14.09033 
77 "I9" 37.38308 37.38308 37.38308 11.84682 12.41085 13.43022 
78 "AA4" 36.44923 36.44923 36.44923 11.28811 11.82309 12.78995 
79 "L13" 35.51385 35.51385 35.51385 10.74656 11.25338 12.16935 
80 "U12" 34.58000 34.58000 34.58000 10.22201 10.70155 11.56823 
81 "B3" 33.64462 33.64462 33.64462 9.714311 10.16745 10.98641 
82 "AT7" 32.71077 32.71077 32.71077 9.223301 9.650911 10.42373 
83 "R1" 31.77539 31.77539 31.77539 8.748821 9.151758 9.879983 
84 "M1" 30.84154 30.84154 30.84154 8.290707 8.669822 9.354995 
85 "AM13" 29.90616 29.90616 29.90616 7.848794 8.204929 8.848572 
86 "AS14" 28.97230 28.97230 28.97230 7.422914 7.756903 8.360522 
87 "B1" 28.03693 28.03693 28.03693 7.012896 7.325565 7.890650 
88 "D14" 27.10307 27.10307 27.10307 6.618567 6.910731 7.438757 
89 "H14" 26.16770 26.16770 26.16770 6.239750 6.512216 7.004642 
90 "AI1" 25.23384 25.23384 25.23384 5.876266 6.129831 6.588097 
91 "Z14" 24.29847 24.29847 24.29847 5.527933 5.763384 6.188915 
92 "K12" 23.36461 23.36461 23.36461 5.194564 5.412680 5.806881 
93 "O1" 22.42924 22.42924 22.42924 4.875970 5.077520 5.441779 
94 "T1" 21.49538 21.49538 21.49538 4.571957 4.757698 5.093387 
95 "AO7" 20.56001 20.56001 20.56001 4.282329 4.453010 4.761479 
96 "P14" 19.62615 19.62615 19.62615 4.006884 4.163241 4.445825 
97 "N4" 18.69230 18.69230 18.69230 3.745416 3.888177 4.146188 
98 "G14" 17.75692 17.75692 17.75692 3.497715 3.627596 3.862328 
99 "Y10" 16.82307 16.82307 16.82307 3.263566 3.381271 3.593998 
100 "V14" 15.88769 15.88769 15.88769 3.042748 3.148970 3.340946 
101 "AV10" 14.95384 14.95384 14.95384 2.835035 2.930456 3.102911 
102 "AN14" 14.01846 14.01846 14.01846 2.640194 2.725484 2.879628 
103 "J1" 13.08461 13.08461 13.08461 2.457988 2.533803 2.670823 
104 "AO5" 12.14923 12.14923 12.14923 2.288171 2.355155 2.476216 
105 "Z10" 11.21538 11.21538 11.21538 2.130488 2.189273 2.295515 
106 "AU14" 10.28000 10.28000 10.28000 1.984680 2.035883 2.128422 
107 "AC14" 9.346151 9.346151 9.346151 1.850476 1.894700 1.974627 
108 "G2" 8.410773 8.410773 8.410773 1.727595 1.765430 1.833809 
109 "AF1" 7.476921 7.476921 7.476921 1.615748 1.647766 1.705634 
110 "B13" 6.541543 6.541543 6.541543 1.514630 1.541391 1.589755 
111 "AT5" 5.607691 5.607691 5.607691 1.423927 1.445971 1.485811 
112 "AZ8" 4.672313 4.672313 4.672313 1.343306 1.361157 1.393421 
113 "W11" 3.738460 3.738460 3.738460 1.272291 1.286450 1.312040 
114 "AK10" 2.803082 2.803082 2.803082 1.204218 1.214838 1.234030 
115 "E10" 1.869230 1.869230 1.869230 1.136145 1.143225 1.156020 
116 "AQ11" 0.933852 0.933852 0.933852 1.068073 1.071613 1.078010 
117 "AT1" 0.00000 0.00000 100.0000 18.87111 8.147314 95.12896 
118 "AW1" 0.00000 100.0000 0.00000 36.40521 71.80052 12.80184 
119 "B2" 0.00000 93.80941 76.63844 41.42281 66.15507 62.82951 
120 "T6" 100.0000 0.00000 0.00000 41.83017 22.05217 2.913230 
121 "AT11" 100.0000 92.79469 44.82795 74.73176 83.00714 28.80413 
122 "AC9" 77.06569 0.00000 52.24384 27.87902 14.37233 24.21980 
123 "AJ2" 47.69818 10.35477 12.21637 9.516059 5.918459 2.794918 
124 "AX14" 14.46250 43.26848 0.00000 7.307343 12.49827 2.887304 
125 "AV1" 0.00000 57.39834 99.43694 28.87577 28.51895 97.33789 
126 "AG4" 0.00000 85.28878 100.0000 43.56221 57.52262 103.3594 
127 "AW2" 39.53765 68.74189 65.42000 28.41744 36.94916 42.61464 
128 "L4" 96.37140 64.94545 49.51247 55.71714 48.71206 26.96183 
129 "Z9" 0.00000 0.00000 35.73510 2.874938 1.749857 10.87549 
130 "Z3" 76.84596 58.88762 17.76761 34.82618 34.45020 8.164711 
131 "AJ7" 65.94034 30.22965 0.00000 19.65293 14.52606 2.628508 
132 "F3" 77.84848 47.33806 100.0000 48.79801 33.57331 98.46072 
133 "AD12" 17.59365 33.76211 89.61013 19.30172 13.72531 75.54375 
134 "Y12" 0.00000 56.60792 76.63233 20.72556 24.76966 55.92020 
135 "U5" 91.75708 78.60380 100.0000 73.00961 66.56056 103.5530 
136 "AS11" 65.99527 94.42130 56.13031 53.04527 73.38835 38.01906 
137 "Q9" 91.20165 0.00000 34.34806 35.85723 18.77273 11.64920 
138 "AM4" 74.04440 13.06630 13.08461 22.55593 12.89450 3.612218 
139 "P11" 54.99046 65.96323 0.00000 25.64675 34.33934 6.137365 
140 "AY6" 40.62257 20.27771 34.34958 9.535199 6.986217 10.76156 
141 "AH11" 74.63951 100.0000 100.0000 75.38279 89.83040 107.9198 
142 "G12" 0.00000 89.51705 89.67422 42.49805 61.65597 83.69445 
143 "AD14" 47.28923 0.00000 60.99641 14.65241 7.356472 32.45370 
144 "AY12" 69.97177 46.81621 48.59846 29.44888 25.01257 22.99621 
145 "G4" 73.73007 45.47951 69.49722 35.59505 27.09845 45.51973 
146 "AR11" 29.47585 42.83055 31.38628 10.75812 13.93542 10.50567 
147 "A1" 39.34081 31.31304 13.09224 9.344598 9.469510 3.648327 
148 "V10" 64.78981 77.00771 95.45892 52.11437 54.62351 92.96035 
149 "T2" 54.84703 28.08881 100.0000 31.82636 18.19693 96.38650 
150 "AT10" 88.33143 88.51911 70.91936 66.91264 73.88360 54.80734 
151 "AK14" 38.41917 38.59922 59.83520 16.00599 14.55926 32.49124 
152 "N11" 100.0000 49.54604 66.59190 56.42643 39.77678 43.13335 
153 "W1" 91.74640 44.02228 43.92462 43.24002 30.99946 19.74938 
154 "Z7" 77.33272 100.0000 0.00000 59.25422 83.58154 13.87250 
155 "AL1" 27.58831 12.16297 1.158160 4.027211 3.279555 1.364608 
156 "AL14" 0.00000 40.28382 44.77760 8.792603 11.75571 18.48511 
157 "A12" 0.00000 0.00000 16.08759 1.396658 1.158638 3.089237 
158 "N3" 22.09964 72.17060 9.845121 19.78655 35.86243 7.656783 
159 "I4" 52.70161 90.17472 18.84947 39.32618 62.25720 13.58196 
160 "AC12" 68.46723 59.97864 47.36095 33.08509 33.87482 23.49689 
161 "AD10" 0.00000 4.043641 64.61280 7.813665 3.902308 36.34156 
162 "X9" 0.00000 100.0000 58.78386 41.84761 73.97713 41.46754 
163 "AR6" 67.92096 0.00000 33.11666 19.70778 10.46052 10.23858 
164 "F10" 62.77104 42.83055 27.70123 21.91812 19.72604 9.356152 
165 "C7" 100.0000 53.21584 0.00000 50.50536 39.40013 5.804986 
166 "AF14" 100.0000 0.00000 90.27695 56.00024 27.71930 77.54842 
167 "J7" 61.13832 85.77249 69.74136 47.50404 61.17404 51.79417 
168 "AM9" 100.0000 78.46494 83.57061 74.20345 67.74523 72.43787 
169 "N10" 71.52514 86.85588 94.39384 61.59262 68.60882 93.04157 
170 "AR1" 36.56062 41.76699 16.52399 11.06342 13.79092 5.120875 
171 "AA9" 0.00000 61.07729 39.72076 15.06838 25.38988 17.23280 
172 "I10" 80.61494 90.37766 46.74449 57.53409 71.53488 28.98276 
173 "E2" 67.94842 36.63233 30.84154 23.41771 18.20372 10.39876 
174 "AV8" 62.07523 60.59510 29.18593 27.78083 31.77061 12.01955 
175 "AO6" 51.94171 41.26345 0.00000 15.51495 15.94009 3.119397 
176 "AK5" 36.31800 78.59617 100.0000 43.84771 51.51829 102.1854 
177 "AQ13" 0.00000 30.34257 44.63874 6.650983 7.505018 17.67270 
178 "AS5" 0.00000 22.81529 94.38773 18.18053 10.28186 84.05690 
179 "Y2" 15.05150 20.09461 4.730297 3.053885 3.806283 1.779908 
180 "X1" 52.56428 47.56085 86.00595 30.24417 24.70608 70.62025 
181 "W2" 0.00000 62.28275 70.75151 21.44343 28.76484 48.26550 
182 "D9" 87.28923 27.94690 54.20615 37.80884 22.78735 27.16291 
183 "D12" 66.14633 61.75937 72.78248 37.88154 36.84357 51.75641 
184 "AC5" 65.72976 8.337530 59.77417 22.82182 11.99946 31.57222 
185 "AF2" 35.57183 18.83726 45.61990 9.431221 6.539048 18.08773 
186 "AB2" 81.93637 68.73426 65.42000 49.13506 47.62507 43.58424 
187 "AD13" 36.83833 50.41581 48.60151 16.87709 20.22006 22.73662 
188 "AC13" 33.79263 22.54673 64.62959 12.99483 8.594763 36.99449 
189 "AY9" 38.03464 52.43915 4.710460 14.34752 20.34412 4.375760 
190 "C14" 17.79049 2.178988 11.45953 2.369500 1.768997 2.241744 
191 "AL4" 85.91592 95.88159 87.85077 75.45045 85.60197 83.26075 
192 "AB6" 37.50210 80.47913 50.66911 31.34119 48.34485 29.17957 
193 "AC11" 100.0000 54.70512 95.13848 67.00085 46.85692 90.03728 
194 "AV13" 47.81567 63.40276 41.11086 24.18855 31.56662 18.86941 
195 "AN11" 45.81216 12.82673 24.30152 9.630070 6.137572 6.045803 
196 "R5" 58.10330 19.99695 46.07767 17.50029 10.87562 18.85620 
197 "AF13" 45.43526 57.39986 65.04158 25.14781 27.85181 40.57026 
198 "L8" 56.13642 62.01266 89.68490 38.32931 36.63162 79.10274 
199 "AO8" 85.51308 90.18997 18.84947 58.18431 71.99545 14.46849 
200 "X7" 78.65721 0.00000 95.68475 40.90232 19.70381 87.26452 
201 "Y4" 42.16373 54.71733 72.44221 24.92353 26.01486 49.87267 
202 "AM1" 18.37186 0.00000 0.00000 2.153707 1.594855 1.054061 
203 "U2" 50.87816 81.25429 85.04921 44.59763 54.90344 74.03262 
204 "K11" 0.00000 32.61463 69.21645 11.88357 10.27259 43.15194 
205 "H3" 86.47288 59.32250 72.05158 49.91208 41.55750 51.01384 
206 "T8" 100.0000 76.78798 0.00000 61.33135 61.04907 9.413678 
207 "AO14" 66.52934 5.044633 21.49538 18.15704 9.976712 5.385151 
208 "AY4" 56.40803 18.31083 5.590906 13.43429 8.877496 2.286204 
209 "AD5" 50.67826 40.74617 47.95605 18.38498 16.81875 21.46490 
210 "AS6" 0.00000 42.38041 69.50027 14.19599 14.78308 44.27345 
211 "V1" 55.41772 35.99756 66.79637 22.91488 17.06212 40.77004 
212 "AU2" 84.45411 27.72717 4.759289 31.12910 19.81038 3.392962 
213 "AG10" 100.0000 20.38300 27.96826 44.18122 24.93594 9.302635 
214 "M5" 0.00000 23.23033 19.75738 3.138882 4.352109 4.565862 
215 "N13" 60.00610 75.16442 39.90082 34.96198 45.82861 20.24797 
216 "F5" 38.46952 0.00000 78.69230 16.39625 7.735544 56.00657 
217 "E13" 0.00000 61.51980 51.96307 17.07447 26.49251 26.87288 
218 "AG3" 80.61189 54.87602 48.36652 38.91583 33.90349 24.02028 
219 "AE11" 45.32845 32.68940 30.04196 12.47907 11.35260 9.274786 
220 "N2" 36.38514 14.66239 16.37446 6.523983 4.790786 3.587281 
221 "AG8" 48.38636 74.61967 12.99153 27.70645 41.88465 8.919612 
222 "F13" 53.30587 86.85893 100.0000 54.64076 64.77389 104.1756 
223 "E4" 62.25834 49.53689 66.59190 29.70221 25.99339 41.88026 
224 "O12" 0.00000 63.06706 94.40452 29.26767 32.44248 87.78516 
225 "AJ6" 0.00000 64.04974 65.42153 20.91456 29.80139 41.63079 
226 "S11" 88.44434 81.71817 89.86343 68.35462 67.38625 83.78634 
227 "V9" 96.28901 78.59464 53.21736 63.39223 63.15469 32.67004 
228 "AB9" 33.22499 5.676356 0.00000 4.846062 3.223249 1.226587 
229 "AD3" 41.32906 43.36614 52.72602 16.68830 16.87871 25.73888 
230 "AP2" 56.46143 68.22004 68.22461 34.92371 39.84657 46.35382 
231 "AH7" 86.31418 45.45968 30.64622 37.79395 28.97699 11.62803 
232 "L10" 98.47868 66.88487 33.24636 56.38129 50.64345 16.13152 
233 "U1" 64.57160 22.17136 21.07881 18.37157 11.99767 5.633722 
234 "M10" 54.04135 4.628061 4.672313 11.53830 6.615678 1.870744 
235 "AV9" 39.16381 0.00000 35.72595 8.062504 4.424707 11.11294 
236 "Y13" 79.58038 93.55001 69.25460 63.61308 77.54172 53.46188 
237 "AW14" 27.44793 23.24865 31.66400 6.524043 5.998888 9.333446 
238 "AM8" 79.72839 61.01472 94.65476 52.94386 43.32556 89.13210 
239 "Y6" 71.17418 73.68429 65.03700 44.56504 49.06729 43.63563 
240 "AY11" 18.01785 61.50607 24.45716 14.89427 25.73955 9.608982 
241 "AZ4" 47.72717 45.45815 37.43191 17.14465 18.24839 14.30786 
242 "Q12" 43.63928 22.90532 0.00000 9.043841 7.401186 1.811961 
243 "M12" 55.54131 95.37804 86.91234 56.78232 75.44628 80.61049 
244 "Z11" 49.96414 99.60784 72.73976 53.53736 79.15762 59.04116 
245 "AE2" 89.74746 55.13085 61.15816 48.25414 38.58345 36.89299 
246 "W3" 76.99550 58.27115 35.95789 36.10282 34.57697 15.59038 
247 "J6" 87.84619 35.46044 89.03944 48.82731 29.49627 75.98518 
248 "M14" 63.50500 40.33875 7.431144 20.64476 18.22258 3.897612 
249 "AQ3" 84.23590 88.58015 100.0000 73.45318 76.20389 105.3911 
250 "AC3" 100.0000 0.00000 72.63600 50.52339 25.52891 48.70132 
251 "U9" 37.54940 59.55138 47.36095 20.24660 26.99419 22.84449 
252 "E14" 67.06188 33.15023 45.61685 23.94888 17.18872 19.37689 
253 "Q6" 71.23827 63.40887 41.11086 35.27447 37.28624 19.38959 
254 "B7" 86.70024 35.31548 72.05158 42.71052 26.89770 48.56422 
255 "U13" 83.21813 52.20874 0.00000 36.26325 31.53313 5.036531 
256 "AZ6" 30.84154 54.02762 58.58701 18.53150 22.72089 32.59161 
257 "F9" 28.58167 0.00000 46.06851 6.918409 3.680628 18.01777 
258 "B6" 46.38743 87.85077 87.85077 48.15590 62.94778 80.32461 
259 "S13" 50.33494 44.38239 71.96307 24.24712 20.70697 48.21829 
260 "G8" 95.01946 58.48173 56.53468 53.01313 43.06234 32.57444 
261 "B12" 82.07828 76.99092 40.24414 49.13923 54.65620 21.43116 
262 "M6" 18.60227 0.00000 24.46937 3.052370 1.957375 5.646965 
263 "AN10" 6.033417 44.59297 39.66888 9.460070 13.88634 15.27413 
264 "T12" 45.24758 57.39986 100.0000 36.15457 32.24659 98.87053 
265 "G7" 79.01122 89.70016 89.67422 66.60157 74.27374 84.85900 
266 "T14" 68.25360 86.90013 18.91508 44.58103 61.63356 13.20281 
267 "AV12" 78.65568 78.60227 100.0000 63.15508 61.47843 103.0911 
268 "AT13" 86.04410 54.58457 30.44785 40.56388 34.85040 12.52158 
269 "AI10" 34.78294 78.85710 65.98306 32.77110 47.28925 45.07305 
270 "J9" 56.06012 78.59312 53.21736 37.13083 49.61260 31.43918 
271 "AL3" 70.37766 99.31182 72.73976 63.08707 83.73063 59.42122 
272 "K7" 37.87137 93.95743 40.24414 38.97290 65.91024 24.13939 
273 "AR10" 38.95628 0.00000 92.82368 21.22249 9.681222 80.72799 
274 "A2" 29.20882 27.03288 56.40040 10.90639 8.653905 28.01392 
275 "G5" 60.38911 74.95689 67.48302 40.04901 47.70058 46.65007 
276 "T9" 65.14382 54.97063 57.28847 31.04825 29.71616 31.92564 
277 "O14" 77.21370 32.11872 40.18311 29.14759 19.65839 15.68827 
278 "Q7" 87.35332 0.00000 24.46937 31.92513 16.84427 6.999894 
279 "AU11" 0.268559 42.02487 21.39620 6.903442 11.71693 6.282805 
280 "F7" 68.90364 54.25956 99.43542 45.35305 35.25922 97.76827 
281 "B11" 62.48569 28.78767 79.13329 28.13880 17.31549 57.92572 
282 "AA1" 100.0000 89.03487 0.00000 69.03713 76.45849 11.98229 
283 "A5" 100.0000 70.51957 100.0000 75.82570 61.44382 102.4170 
284 "J8" 86.85283 71.92035 85.07515 59.90520 54.94043 73.27953 
285 "K6" 30.15183 39.86877 44.01770 11.60226 13.06341 18.02232 
286 "E1" 0.00000 28.19257 53.20516 7.664153 7.324454 24.81568 
287 "V11" 100.0000 83.87579 72.73365 74.32874 73.09071 56.76679 
288 "AC10" 46.23331 54.27481 40.24720 19.84389 23.87712 17.03447 
289 "W12" 37.84543 0.00000 24.44495 6.698815 3.837701 5.808509 
290 "X3" 83.27306 40.69886 0.00000 32.85986 24.66907 3.890818 
291 "AM3" 30.29221 26.94285 19.61395 6.708944 6.977833 4.843109 
292 "AP4" 52.18585 72.03326 84.08484 39.56402 44.57721 70.65970 
293 "AY10" 65.27047 43.89563 56.21576 27.32563 22.50615 29.63703 
294 "AI14" 73.86282 39.90845 77.97360 36.48763 25.06689 57.18438 
295 "X14" 26.21195 32.13855 26.79637 7.307999 8.560329 7.595441 
296 "AC8" 48.10864 44.58839 25.87167 15.93903 17.38258 8.475885 
297 "AM11" 96.46906 94.39078 100.0000 87.55293 89.64897 107.2438 
298 "AL11" 59.99542 13.24636 83.29595 26.38084 13.55095 64.03595 
299 "L12" 93.92386 26.06394 18.84947 38.89695 23.38112 6.100708 
300 "AA5" 95.37652 77.24880 35.09117 59.23672 60.15112 18.81583 
301 "G10" 86.85283 64.18250 85.07057 56.14203 47.41761 72.01749 
302 "AZ3" 51.82574 38.16129 89.86496 28.73036 19.99953 76.72951 
303 "Q13" 0.00000 16.66285 22.78477 2.595713 2.977264 5.275035 
304 "AV6" 100.0000 75.51995 72.74281 69.34016 63.11111 55.11571 
305 "H4" 46.22873 79.09819 36.13947 31.14258 47.25130 18.40297 
306 "AY8" 54.12222 28.60914 28.90517 14.94859 11.54793 8.666040 
307 "O8" 79.80621 33.38521 26.79637 29.79008 20.51238 8.718244 
308 "AU5" 45.40475 100.0000 100.0000 61.37843 82.60970 107.2636 
309 "AU13" 7.905699 27.64630 0.00000 3.488234 5.547067 1.746666 
310 "A8" 0.00000 49.42092 61.30312 14.35798 18.16415 34.89918 
311 "AR12" 73.96963 34.41825 57.01228 30.21064 20.57227 29.92030 
312 "AJ5" 76.52247 41.10933 41.63729 30.88475 23.50675 17.32105 
313 "AF11" 23.30510 25.38796 41.44961 7.227659 6.670482 15.18795 
314 "AP11" 52.11872 54.80125 1.074235 19.82430 24.42933 4.608961 
315 "S8" 72.19959 42.29496 22.24460 26.61462 21.97998 7.498393 
316 "P5" 0.00000 77.54788 33.52407 22.57883 41.52382 16.29723 
317 "AQ8" 80.54475 74.43961 9.842069 44.39973 50.35620 9.157684 
318 "AN13" 73.29976 41.26192 0.00000 26.29284 21.49656 3.624305 
319 "AE3" 76.07385 80.47608 53.32570 49.08784 57.43923 32.42065 
320 "R11" 64.45869 40.77974 47.95605 24.62914 20.05128 21.76001 
321 "G9" 0.00000 72.89540 89.86343 32.38367 41.32387 80.65039 
322 "AH10" 100.0000 95.50927 87.49676 86.92883 91.11483 83.08709 
323 "AL10" 53.58511 58.47562 52.72602 26.10622 29.26669 27.63407 
324 "I3" 26.07309 30.71946 38.15061 8.127361 8.464310 13.33397 
325 "F11" 33.83841 46.28367 78.52598 21.59254 19.94379 57.83183 
326 "V4" 27.64935 44.66163 56.97108 14.56319 16.22834 29.86470 
327 "B9" 0.00000 100.0000 33.47372 38.04280 72.45545 21.42719 
328 "AP14" 36.90089 29.46365 32.64210 9.635005 8.982512 10.23768 
329 "K9" 0.00000 82.89616 75.70306 33.69314 51.12300 58.94189 
330 "AX3" 79.60479 74.53117 59.77722 49.27103 52.30939 37.96434 
331 "AY13" 72.33845 97.59670 43.92920 57.07781 79.29722 28.34606 
332 "AW7" 87.74853 28.03540 36.36988 35.56780 21.95519 13.42051 
333 "AZ12" 19.18975 12.88319 7.472343 2.902220 2.760431 1.852178 
334 "AH4" 7.803464 92.79469 44.82795 34.18555 62.10190 26.90430 
335 "S3" 19.33318 11.65789 13.08461 2.998076 2.670237 2.668943 
336 "H10" 80.10376 12.10498 1.158160 26.22347 14.71829 2.403580 
337 "AH5" 49.81918 27.90570 49.43923 15.64503 11.44503 21.81591 
338 "AS1" 77.25795 91.76318 4.676890 52.99381 71.03216 12.12196 
339 "O4" 69.47280 76.78950 0.00000 38.48805 49.27229 8.343531 
340 "AJ1" 5.558862 26.95506 29.71084 4.556423 5.788554 8.465288 
341 "A11" 38.68009 61.50301 24.45716 18.83503 27.76984 9.793335 
342 "Z5" 94.14969 0.00000 46.07614 39.81388 20.64152 19.56453 
343 "H1" 56.91920 23.02892 56.40192 19.09139 12.03013 28.23708 
344 "AS7" 47.34722 27.88586 19.61242 11.57849 9.709605 5.113863 
345 "AL8" 93.10597 100.0000 97.47005 87.98141 96.44327 103.2307 
346 "AO10" 100.0000 51.09941 78.52598 60.12351 42.07614 60.07504 
347 "AV14" 52.69093 0.00000 45.97848 13.98425 7.325360 18.27837 
348 "E3" 61.11086 8.117800 98.06210 31.89539 15.33864 91.75306 
349 "X5" 36.68116 23.86969 82.18051 18.63182 11.20673 62.13883 
350 "AR9" 45.58022 63.06859 66.35386 27.85841 32.70816 42.97693 
351 "D7" 95.59777 43.08385 52.97780 47.70204 32.75004 27.40263 
352 "K3" 94.77379 34.63188 34.58000 42.37493 27.29596 13.07799 
353 "AK13" 56.07233 41.61440 18.68162 17.84801 17.21763 5.973498 
354 "AD9" 60.68666 45.67178 39.35760 22.86771 21.26548 15.79124 
355 "AI4" 30.98497 30.22965 0.00000 6.826578 7.912405 2.027420 
356 "AY7" 28.72663 56.91310 31.81353 15.25877 23.08812 12.24581 
357 "AE14" 13.97269 53.22042 0.00000 10.38437 18.71586 3.925419 
358 "AO1" 41.28939 31.25048 44.92256 12.65766 10.84116 18.21475 
359 "M8" 31.27947 91.52209 18.78843 33.73842 60.79368 13.57728 
360 "U10" 78.13687 2.449073 78.83268 34.89236 17.36691 57.11203 
361 "V2" 14.59983 22.18204 21.07881 3.844393 4.509331 4.953377 
362 "AA3" 63.29290 12.24994 69.76425 24.06867 12.70423 43.70275 
363 "P9" 2.565042 91.82574 100.0000 48.12662 66.52986 104.8577 
