Pre-made_Targets/Patch Width 12-15mm - Intermediate (Easy with ruler)/Generated Targets/CM-Interm-A4-1880p-9pages-w13.0mm-14x15/CM-Interm-A4-1880p-9pages-w13.0mm-14x15.ti2
CTI2   

DESCRIPTOR "Argyll Calibration Target chart information 2"
ORIGINATOR "Argyll printtarg"
CREATED "Sun Feb 15 16:21:42 2026"
TARGET_INSTRUMENT "X-Rite ColorMunki"
COMP_GREY_STEPS "256"
APPROX_WHITE_POINT "95.106486 100.000000 108.844025"
COLOR_REP "iRGB"
PAPER_SIZE "210.0x297.0"
RANDOM_START "222"
STEPS_IN_PASS "15"
PASSES_IN_STRIPS2 "14,14,14,14,14,14,14,14,14"
STRIP_INDEX_PATTERN "A-Z, A-Z"
PATCH_INDEX_PATTERN "0-9,@-9,@-9;1-999"
INDEX_ORDER "STRIP_THEN_PATCH"

NUMBER_OF_FIELDS 8
BEGIN_DATA_FORMAT
SAMPLE_ID SAMPLE_LOC RGB_R RGB_G RGB_B XYZ_X XYZ_Y XYZ_Z 
END_DATA_FORMAT

NUMBER_OF_SETS 1890
BEGIN_DATA
1 "K9" 100.0000 100.0000 100.0000 95.10649 100.0000 108.8440 
2 "CN11" 100.0000 100.0000 100.0000 95.10649 100.0000 108.8440 
3 "DI7" 100.0000 100.0000 100.0000 95.10649 100.0000 108.8440 
4 "CZ7" 100.0000 100.0000 100.0000 95.10649 100.0000 108.8440 
5 "AS6" 100.0000 100.0000 100.0000 95.10649 100.0000 108.8440 
6 "Y8" 100.0000 100.0000 100.0000 95.10649 100.0000 108.8440 
7 "D2" 100.0000 100.0000 100.0000 95.10649 100.0000 108.8440 
8 "BE5" 100.0000 100.0000 100.0000 95.10649 100.0000 108.8440 
9 "AZ15" 0.00000 0.00000 0.00000 1.000000 1.000000 1.000000 
10 "BI7" 0.00000 0.00000 0.00000 1.000000 1.000000 1.000000 
11 "M7" 0.00000 0.00000 0.00000 1.000000 1.000000 1.000000 
12 "CX6" 0.00000 0.00000 0.00000 1.000000 1.000000 1.000000 
13 "CT4" 0.00000 0.00000 0.00000 1.000000 1.000000 1.000000 
14 "X2" 0.00000 0.00000 0.00000 1.000000 1.000000 1.000000 
15 "W9" 0.00000 0.00000 0.00000 1.000000 1.000000 1.000000 
16 "CD10" 0.00000 0.00000 0.00000 1.000000 1.000000 1.000000 
17 "AX4" 99.60784 99.60784 99.60784 94.26914 99.11911 107.8844 
18 "P9" 99.21569 99.21569 99.21569 93.43615 98.24280 106.9299 
19 "AS4" 98.82353 98.82353 98.82353 92.60752 97.37108 105.9803 
20 "Z6" 98.43137 98.43137 98.43137 91.78323 96.50394 105.0356 
21 "BC8" 98.03922 98.03922 98.03922 90.96329 95.64136 104.0960 
22 "BX8" 97.64706 97.64706 97.64706 90.14769 94.78335 103.1614 
23 "CA8" 97.25490 97.25490 97.25490 89.33642 93.92989 102.2316 
24 "BR5" 96.86275 96.86275 96.86275 88.52946 93.08097 101.3069 
25 "BR3" 96.47059 96.47059 96.47059 87.72683 92.23660 100.3871 
26 "DH13" 96.07843 96.07843 96.07843 86.92851 91.39677 99.47223 
27 "BK13" 95.68627 95.68627 95.68627 86.13448 90.56146 98.56230 
28 "AJ10" 95.29412 95.29412 95.29412 85.34476 89.73067 97.65729 
29 "F10" 94.90196 94.90196 94.90196 84.55932 88.90439 96.75720 
30 "DU9" 94.50980 94.50980 94.50980 83.77817 88.08262 95.86202 
31 "BI10" 94.11765 94.11765 94.11765 83.00130 87.26534 94.97174 
32 "AZ13" 93.72549 93.72549 93.72549 82.22869 86.45256 94.08635 
33 "CH14" 93.33333 93.33333 93.33333 81.46035 85.64427 93.20584 
34 "U3" 92.94118 92.94118 92.94118 80.69626 84.84045 92.33022 
35 "BI2" 92.54902 92.54902 92.54902 79.93643 84.04110 91.45946 
36 "BK10" 92.15686 92.15686 92.15686 79.18083 83.24622 90.59357 
37 "CW6" 91.76471 91.76471 91.76471 78.42948 82.45579 89.73253 
38 "A10" 91.37255 91.37255 91.37255 77.68235 81.66981 88.87633 
39 "AC4" 90.98039 90.98039 90.98039 76.93944 80.88827 88.02498 
40 "AQ14" 90.58824 90.58824 90.58824 76.20075 80.11117 87.17846 
41 "CA10" 90.19608 90.19608 90.19608 75.46627 79.33850 86.33676 
42 "F12" 89.80392 89.80392 89.80392 74.73599 78.57024 85.49987 
43 "BA14" 89.41176 89.41176 89.41176 74.00990 77.80640 84.66779 
44 "AO3" 89.01961 89.01961 89.01961 73.28801 77.04696 83.84051 
45 "V10" 88.62745 88.62745 88.62745 72.57029 76.29193 83.01802 
46 "C2" 88.23529 88.23529 88.23529 71.85675 75.54128 82.20032 
47 "CD8" 87.84314 87.84314 87.84314 71.14737 74.79502 81.38739 
48 "DO6" 87.45098 87.45098 87.45098 70.44216 74.05313 80.57923 
49 "AV10" 87.05882 87.05882 87.05882 69.74109 73.31561 79.77583 
50 "AL11" 86.66667 86.66667 86.66667 69.04418 72.58246 78.97718 
51 "DI3" 86.27451 86.27451 86.27451 68.35140 71.85366 78.18327 
52 "R12" 85.88235 85.88235 85.88235 67.66276 71.12920 77.39410 
53 "AU12" 85.49020 85.49020 85.49020 66.97824 70.40909 76.60965 
54 "CG10" 85.09804 85.09804 85.09804 66.29783 69.69330 75.82992 
55 "BC4" 84.70588 84.70588 84.70588 65.62154 68.98185 75.05491 
56 "BO4" 84.31373 84.31373 84.31373 64.94935 68.27470 74.28460 
57 "CF11" 83.92157 83.92157 83.92157 64.28126 67.57187 73.51898 
58 "CF9" 83.52941 83.52941 83.52941 63.61726 66.87334 72.75804 
59 "BB4" 83.13725 83.13725 83.13725 62.95734 66.17911 72.00179 
60 "DA12" 82.74510 82.74510 82.74510 62.30150 65.48916 71.25021 
61 "DI5" 82.35294 82.35294 82.35294 61.64972 64.80349 70.50328 
62 "CY10" 81.96078 81.96078 81.96078 61.00200 64.12209 69.76101 
63 "I2" 81.56863 81.56863 81.56863 60.35834 63.44496 69.02339 
64 "BS14" 81.17647 81.17647 81.17647 59.71872 62.77208 68.29040 
65 "AX8" 80.78431 80.78431 80.78431 59.08314 62.10345 67.56204 
66 "AX6" 80.39216 80.39216 80.39216 58.45159 61.43906 66.83830 
67 "BF13" 80.00000 80.00000 80.00000 57.82407 60.77891 66.11917 
68 "AE6" 79.60784 79.60784 79.60784 57.20056 60.12298 65.40464 
69 "CX10" 79.21569 79.21569 79.21569 56.58106 59.47127 64.69471 
70 "BU4" 78.82353 78.82353 78.82353 55.96557 58.82376 63.98937 
71 "V3" 78.43137 78.43137 78.43137 55.35407 58.18046 63.28860 
72 "DP12" 78.03922 78.03922 78.03922 54.74655 57.54136 62.59240 
73 "AV2" 77.64706 77.64706 77.64706 54.14302 56.90644 61.90076 
74 "CP6" 77.25490 77.25490 77.25490 53.54345 56.27570 61.21368 
75 "AN3" 76.86275 76.86275 76.86275 52.94785 55.64913 60.53113 
76 "AG11" 76.47059 76.47059 76.47059 52.35621 55.02672 59.85312 
77 "CP8" 76.07843 76.07843 76.07843 51.76852 54.40847 59.17964 
78 "CD12" 75.68627 75.68627 75.68627 51.18477 53.79436 58.51067 
79 "AP3" 75.29412 75.29412 75.29412 50.60495 53.18440 57.84622 
80 "CF14" 74.90196 74.90196 74.90196 50.02906 52.57856 57.18626 
81 "O5" 74.50980 74.50980 74.50980 49.45709 51.97685 56.53079 
82 "AN7" 74.11765 74.11765 74.11765 48.88903 51.37925 55.87981 
83 "W5" 73.72549 73.72549 73.72549 48.32488 50.78576 55.23330 
84 "DR6" 73.33333 73.33333 73.33333 47.76462 50.19637 54.59125 
85 "CR14" 72.94118 72.94118 72.94118 47.20825 49.61106 53.95367 
86 "CZ13" 72.54902 72.54902 72.54902 46.65576 49.02984 53.32052 
87 "BT13" 72.15686 72.15686 72.15686 46.10714 48.45270 52.69182 
88 "AS2" 71.76471 71.76471 71.76471 45.56239 47.87962 52.06754 
89 "CR3" 71.37255 71.37255 71.37255 45.02149 47.31060 51.44769 
90 "CI13" 70.98039 70.98039 70.98039 44.48444 46.74562 50.83224 
91 "CT14" 70.58824 70.58824 70.58824 43.95124 46.18469 50.22120 
92 "AL4" 70.19608 70.19608 70.19608 43.42187 45.62779 49.61455 
93 "AV12" 69.80392 69.80392 69.80392 42.89632 45.07492 49.01229 
94 "CE14" 69.41176 69.41176 69.41176 42.37459 44.52606 48.41440 
95 "CU7" 69.01961 69.01961 69.01961 41.85667 43.98121 47.82088 
96 "AG6" 68.62745 68.62745 68.62745 41.34256 43.44036 47.23171 
97 "AD12" 68.23529 68.23529 68.23529 40.83223 42.90350 46.64689 
98 "BU9" 67.84314 67.84314 67.84314 40.32570 42.37062 46.06641 
99 "AT8" 67.45098 67.45098 67.45098 39.82294 41.84172 45.49026 
100 "L10" 67.05882 67.05882 67.05882 39.32395 41.31678 44.91842 
101 "DT5" 66.66667 66.66667 66.66667 38.82872 40.79580 44.35090 
102 "CT9" 66.27451 66.27451 66.27451 38.33724 40.27877 43.78768 
103 "AO8" 65.88235 65.88235 65.88235 37.84951 39.76568 43.22875 
104 "DA14" 65.49020 65.49020 65.49020 37.36552 39.25651 42.67411 
105 "BP13" 65.09804 65.09804 65.09804 36.88525 38.75128 42.12373 
106 "CZ2" 64.70588 64.70588 64.70588 36.40871 38.24995 41.57762 
107 "CO2" 64.31373 64.31373 64.31373 35.93587 37.75253 41.03577 
108 "CX2" 63.92157 63.92157 63.92157 35.46674 37.25901 40.49815 
109 "CA2" 63.52941 63.52941 63.52941 35.00131 36.76937 39.96478 
110 "S13" 63.13725 63.13725 63.13725 34.53957 36.28361 39.43563 
111 "H4" 62.74510 62.74510 62.74510 34.08150 35.80173 38.91069 
112 "BY14" 62.35294 62.35294 62.35294 33.62710 35.32370 38.38996 
113 "AX11" 61.96078 61.96078 61.96078 33.17637 34.84953 37.87343 
114 "N11" 61.56863 61.56863 61.56863 32.72928 34.37920 37.36108 
115 "S2" 61.17647 61.17647 61.17647 32.28585 33.91270 36.85291 
116 "DM4" 60.78431 60.78431 60.78431 31.84605 33.45003 36.34891 
117 "BM13" 60.39216 60.39216 60.39216 31.40987 32.99118 35.84906 
118 "BS9" 60.00000 60.00000 60.00000 30.97732 32.53613 35.35337 
119 "CS10" 59.60784 59.60784 59.60784 30.54837 32.08488 34.86181 
120 "BB11" 59.21569 59.21569 59.21569 30.12303 31.63742 34.37437 
121 "AB5" 58.82353 58.82353 58.82353 29.70128 31.19374 33.89106 
122 "AI12" 58.43137 58.43137 58.43137 29.28312 30.75384 33.41185 
123 "AR3" 58.03922 58.03922 58.03922 28.86853 30.31769 32.93674 
124 "AH12" 57.64706 57.64706 57.64706 28.45751 29.88529 32.46572 
125 "BW2" 57.25490 57.25490 57.25490 28.05005 29.45664 31.99878 
126 "BZ4" 56.86275 56.86275 56.86275 27.64613 29.03173 31.53590 
127 "CD3" 56.47059 56.47059 56.47059 27.24576 28.61053 31.07708 
128 "CG2" 56.07843 56.07843 56.07843 26.84892 28.19305 30.62231 
129 "CK7" 55.68627 55.68627 55.68627 26.45560 27.77928 30.17157 
130 "DU4" 55.29412 55.29412 55.29412 26.06579 27.36920 29.72486 
131 "DU2" 54.90196 54.90196 54.90196 25.67949 26.96282 29.28217 
132 "G5" 54.50980 54.50980 54.50980 25.29668 26.56010 28.84348 
133 "R5" 54.11765 54.11765 54.11765 24.91736 26.16106 28.40878 
134 "DV6" 53.72549 53.72549 53.72549 24.54152 25.76567 27.97808 
135 "BT6" 53.33333 53.33333 53.33333 24.16914 25.37393 27.55134 
136 "AJ13" 52.94118 52.94118 52.94118 23.80023 24.98583 27.12857 
137 "CL4" 52.54902 52.54902 52.54902 23.43476 24.60136 26.70975 
138 "DF2" 52.15686 52.15686 52.15686 23.07273 24.22051 26.29488 
139 "BD11" 51.76471 51.76471 51.76471 22.71414 23.84326 25.88394 
140 "BL4" 51.37255 51.37255 51.37255 22.35896 23.46962 25.47691 
141 "CB6" 50.98039 50.98039 50.98039 22.00720 23.09957 25.07380 
142 "CC2" 50.58824 50.58824 50.58824 21.65884 22.73309 24.67459 
143 "BW6" 50.19608 50.19608 50.19608 21.31387 22.37019 24.27927 
144 "A14" 49.80392 49.80392 49.80392 20.97229 22.01084 23.88782 
145 "CV9" 49.41176 49.41176 49.41176 20.63408 21.65505 23.50024 
146 "BB13" 49.01961 49.01961 49.01961 20.29924 21.30279 23.11652 
147 "Y10" 48.62745 48.62745 48.62745 19.96775 20.95407 22.73664 
148 "J6" 48.23529 48.23529 48.23529 19.63961 20.60886 22.36059 
149 "BU11" 47.84314 47.84314 47.84314 19.31480 20.26717 21.98837 
150 "AU14" 47.45098 47.45098 47.45098 18.99332 19.92897 21.61996 
151 "CL6" 47.05882 47.05882 47.05882 18.67515 19.59426 21.25535 
152 "AW14" 46.66667 46.66667 46.66667 18.36029 19.26302 20.89453 
153 "AI10" 46.27451 46.27451 46.27451 18.04873 18.93526 20.53748 
154 "AH10" 45.88235 45.88235 45.88235 17.74045 18.61095 20.18420 
155 "R3" 45.49020 45.49020 45.49020 17.43545 18.29009 19.83468 
156 "BT4" 45.09804 45.09804 45.09804 17.13372 17.97267 19.48890 
157 "BS5" 44.70588 44.70588 44.70588 16.83524 17.65867 19.14685 
158 "CS7" 44.31373 44.31373 44.31373 16.54001 17.34809 18.80852 
159 "DM13" 43.92157 43.92157 43.92157 16.24802 17.04091 18.47390 
160 "CU12" 43.52941 43.52941 43.52941 15.95925 16.73712 18.14298 
161 "D6" 43.13725 43.13725 43.13725 15.67369 16.43672 17.81574 
162 "CV4" 42.74510 42.74510 42.74510 15.39134 16.13969 17.49217 
163 "AO10" 42.35294 42.35294 42.35294 15.11219 15.84602 17.17227 
164 "H13" 41.96078 41.96078 41.96078 14.83622 15.55570 16.85601 
165 "E3" 41.56863 41.56863 41.56863 14.56342 15.26872 16.54339 
166 "L7" 41.17647 41.17647 41.17647 14.29379 14.98507 16.23440 
167 "V7" 40.78431 40.78431 40.78431 14.02731 14.70473 15.92902 
168 "BY3" 40.39216 40.39216 40.39216 13.76398 14.42770 15.62724 
169 "DU13" 40.00000 40.00000 40.00000 13.50377 14.15396 15.32905 
170 "CQ2" 39.60784 39.60784 39.60784 13.24669 13.88351 15.03444 
171 "BW11" 39.21569 39.21569 39.21569 12.99271 13.61633 14.74339 
172 "CQ4" 38.82353 38.82353 38.82353 12.74184 13.35241 14.45590 
173 "BZ6" 38.43137 38.43137 38.43137 12.49405 13.09174 14.17194 
174 "DP3" 38.03922 38.03922 38.03922 12.24934 12.83430 13.89151 
175 "AX14" 37.64706 37.64706 37.64706 12.00770 12.58010 13.61459 
176 "DA7" 37.25490 37.25490 37.25490 11.76911 12.32910 13.34117 
177 "I6" 36.86275 36.86275 36.86275 11.53357 12.08131 13.07124 
178 "DN4" 36.47059 36.47059 36.47059 11.30106 11.83671 12.80479 
179 "AL14" 36.07843 36.07843 36.07843 11.07157 11.59529 12.54180 
180 "DG1" 35.68627 35.68627 35.68627 10.84509 11.35703 12.28226 
181 "BV15" 35.29412 35.29412 35.29412 10.62161 11.12193 12.02616 
182 "BX1" 34.90196 34.90196 34.90196 10.40112 10.88997 11.77348 
183 "DP1" 34.50980 34.50980 34.50980 10.18360 10.66115 11.52421 
184 "CV15" 34.11765 34.11765 34.11765 9.969051 10.43544 11.27834 
185 "AB13" 33.72549 33.72549 33.72549 9.757452 10.21284 11.03585 
186 "AW1" 33.33333 33.33333 33.33333 9.548794 9.993329 10.79674 
187 "BM4" 32.94118 32.94118 32.94118 9.343066 9.776903 10.56098 
188 "DF15" 32.54902 32.54902 32.54902 9.140255 9.563546 10.32856 
189 "AC15" 32.15686 32.15686 32.15686 8.940349 9.353245 10.09947 
190 "CT11" 31.76471 31.76471 31.76471 8.743336 9.145988 9.873698 
191 "DO15" 31.37255 31.37255 31.37255 8.549205 8.941762 9.651228 
192 "S9" 30.98039 30.98039 30.98039 8.357944 8.740555 9.432046 
193 "DM15" 30.58824 30.58824 30.58824 8.169539 8.542353 9.216138 
194 "DL7" 30.19608 30.19608 30.19608 7.983978 8.347143 9.003490 
195 "CG15" 29.80392 29.80392 29.80392 7.801250 8.154913 8.794087 
196 "AS10" 29.41176 29.41176 29.41176 7.621341 7.965649 8.587916 
197 "AO14" 29.01961 29.01961 29.01961 7.444240 7.779339 8.384961 
198 "CE1" 28.62745 28.62745 28.62745 7.269933 7.595968 8.185209 
199 "AD3" 28.23529 28.23529 28.23529 7.098408 7.415523 7.988645 
200 "CO15" 27.84314 27.84314 27.84314 6.929651 7.237992 7.795254 
201 "BB15" 27.45098 27.45098 27.45098 6.763651 7.063359 7.605021 
202 "BR1" 27.05882 27.05882 27.05882 6.600394 6.891613 7.417931 
203 "DS1" 26.66667 26.66667 26.66667 6.439866 6.722738 7.233970 
204 "AZ6" 26.27451 26.27451 26.27451 6.282055 6.556721 7.053122 
205 "AI14" 25.88235 25.88235 25.88235 6.126947 6.393547 6.875372 
206 "R7" 25.49020 25.49020 25.49020 5.974530 6.233204 6.700705 
207 "G8" 25.09804 25.09804 25.09804 5.824789 6.075676 6.529105 
208 "CN1" 24.70588 24.70588 24.70588 5.677710 5.920950 6.360556 
209 "F7" 24.31373 24.31373 24.31373 5.533281 5.769011 6.195043 
210 "AW10" 23.92157 23.92157 23.92157 5.391487 5.619844 6.032551 
211 "CC4" 23.52941 23.52941 23.52941 5.252315 5.473434 5.873062 
212 "BE1" 23.13725 23.13725 23.13725 5.115750 5.329768 5.716562 
213 "AX1" 22.74510 22.74510 22.74510 4.981778 5.188830 5.563033 
214 "CZ15" 22.35294 22.35294 22.35294 4.850385 5.050604 5.412460 
215 "BI15" 21.96078 21.96078 21.96078 4.721557 4.915077 5.264825 
216 "BA4" 21.56863 21.56863 21.56863 4.595279 4.782233 5.120113 
217 "BM2" 21.17647 21.17647 21.17647 4.471537 4.652056 4.978307 
218 "BS1" 20.78431 20.78431 20.78431 4.350315 4.524530 4.839389 
219 "AV15" 20.39216 20.39216 20.39216 4.231599 4.399641 4.703343 
220 "BQ15" 20.00000 20.00000 20.00000 4.115373 4.277372 4.570151 
221 "AI1" 19.60784 19.60784 19.60784 4.001624 4.157707 4.439797 
222 "AF5" 19.21569 19.21569 19.21569 3.890334 4.040631 4.312261 
223 "R1" 18.82353 18.82353 18.82353 3.781490 3.926127 4.187528 
224 "AF13" 18.43137 18.43137 18.43137 3.675075 3.814178 4.065579 
225 "V12" 18.03922 18.03922 18.03922 3.571073 3.704768 3.946395 
226 "E1" 17.64706 17.64706 17.64706 3.469469 3.597881 3.829959 
227 "BC1" 17.25490 17.25490 17.25490 3.370247 3.493499 3.716252 
228 "AB7" 16.86275 16.86275 16.86275 3.273390 3.391606 3.605256 
229 "DF8" 16.47059 16.47059 16.47059 3.178882 3.292183 3.496952 
230 "BT11" 16.07843 16.07843 16.07843 3.086706 3.195215 3.391321 
231 "M15" 15.68627 15.68627 15.68627 2.996847 3.100682 3.288343 
232 "CO5" 15.29412 15.29412 15.29412 2.909285 3.008568 3.188000 
233 "AK1" 14.90196 14.90196 14.90196 2.824006 2.918854 3.090272 
234 "DF13" 14.50980 14.50980 14.50980 2.740991 2.831522 2.995138 
235 "BR8" 14.11765 14.11765 14.11765 2.660222 2.746553 2.902579 
236 "DD3" 13.72549 13.72549 13.72549 2.581683 2.663930 2.812575 
237 "CY7" 13.33333 13.33333 13.33333 2.505355 2.583633 2.725105 
238 "BP8" 12.94118 12.94118 12.94118 2.431220 2.505643 2.640147 
239 "BJ13" 12.54902 12.54902 12.54902 2.359259 2.429941 2.557682 
240 "BH12" 12.15686 12.15686 12.15686 2.289455 2.356506 2.477688 
241 "BW15" 11.76471 11.76471 11.76471 2.221788 2.285320 2.400142 
242 "Y5" 11.37255 11.37255 11.37255 2.156238 2.216362 2.325024 
243 "DB1" 10.98039 10.98039 10.98039 2.092788 2.149612 2.252311 
244 "E6" 10.58824 10.58824 10.58824 2.031416 2.085049 2.181981 
245 "BO12" 10.19608 10.19608 10.19608 1.972103 2.022652 2.114010 
246 "L14" 9.803922 9.803922 9.803922 1.914830 1.962401 2.048375 
247 "AT13" 9.411765 9.411765 9.411765 1.859574 1.904272 1.985054 
248 "Z10" 9.019608 9.019608 9.019608 1.806316 1.848244 1.924021 
249 "CP12" 8.627451 8.627451 8.627451 1.755034 1.794296 1.865253 
250 "DC2" 8.235294 8.235294 8.235294 1.705708 1.742404 1.808726 
251 "CK10" 7.843137 7.843137 7.843137 1.658313 1.692546 1.754413 
252 "AQ6" 7.450980 7.450980 7.450980 1.612830 1.644697 1.702290 
253 "BH9" 7.058824 7.058824 7.058824 1.569234 1.598834 1.652331 
254 "DU11" 6.666667 6.666667 6.666667 1.527504 1.554934 1.604508 
255 "DR9" 6.274510 6.274510 6.274510 1.487614 1.512970 1.558796 
256 "AV6" 5.882353 5.882353 5.882353 1.449542 1.472918 1.515166 
257 "DL3" 5.490196 5.490196 5.490196 1.413263 1.434753 1.473591 
258 "CI8" 5.098039 5.098039 5.098039 1.378752 1.398447 1.434042 
259 "AE1" 4.705882 4.705882 4.705882 1.345983 1.363974 1.396489 
260 "BF7" 4.313725 4.313725 4.313725 1.314931 1.331307 1.360904 
261 "CI3" 3.921569 3.921569 3.921569 1.285639 1.300492 1.327336 
262 "DM9" 3.529412 3.529412 3.529412 1.257075 1.270443 1.294602 
263 "DD5" 3.137255 3.137255 3.137255 1.228511 1.240393 1.261869 
264 "AS15" 2.745098 2.745098 2.745098 1.199947 1.210344 1.229135 
265 "CG5" 2.352941 2.352941 2.352941 1.171383 1.180295 1.196401 
266 "AS13" 1.960784 1.960784 1.960784 1.142819 1.150246 1.163668 
267 "BQ8" 1.568627 1.568627 1.568627 1.114255 1.120197 1.130934 
268 "T5" 1.176471 1.176471 1.176471 1.085692 1.090148 1.098201 
269 "W15" 0.784314 0.784314 0.784314 1.057128 1.060098 1.065467 
270 "BO14" 0.392157 0.392157 0.392157 1.028564 1.030049 1.032734 
271 "DE12" 0.00000 0.00000 100.0000 18.87111 8.147314 95.12896 
272 "DP15" 0.00000 100.0000 0.00000 36.40521 71.80052 12.80184 
273 "G12" 0.00000 100.0000 83.23186 48.20148 76.51828 74.93402 
274 "P5" 100.0000 0.00000 0.00000 41.83017 22.05217 2.913230 
275 "AJ5" 100.0000 38.77623 79.21111 56.79015 35.08419 59.96976 
276 "AY2" 0.00000 37.75998 72.53223 13.83314 12.79970 48.03151 
277 "BJ11" 0.00000 65.81216 83.01061 26.55665 33.34777 67.37023 
278 "CU8" 98.25589 100.0000 59.00511 81.12172 94.22178 43.54316 
279 "B7" 89.36751 52.56275 52.54902 45.34706 35.90637 27.73788 
280 "C4" 45.90982 65.50851 43.17235 24.75445 33.24319 20.60739 
281 "AV4" 56.32410 23.19219 39.21416 16.15575 10.85968 14.04381 
282 "CC1" 100.0000 62.76646 0.00000 54.28563 46.95961 7.065087 
283 "T7" 57.53414 47.39147 22.33768 20.34345 20.90876 7.652762 
284 "DO10" 47.37316 8.181888 0.00000 9.042030 5.536823 1.452180 
285 "AS11" 75.60693 38.25284 12.52003 27.26233 20.86685 4.799825 
286 "BR10" 13.54086 0.00000 26.69718 2.705945 1.759824 6.485253 
287 "K11" 83.96887 100.0000 84.44038 76.08140 90.84823 78.27242 
288 "AI11" 69.17983 46.22568 100.0000 43.08908 30.13232 98.09719 
289 "CW7" 63.23033 72.21180 98.40543 49.82820 49.41208 98.09979 
290 "CZ6" 58.13382 90.24491 91.76471 55.88983 69.23120 88.36827 
291 "AI8" 0.00000 27.37469 85.08431 15.55209 10.26980 67.00785 
292 "CB3" 0.00000 83.04723 40.54475 26.69681 48.47759 21.62063 
293 "AS1" 38.48783 48.52216 0.00000 13.10524 17.78314 3.602074 
294 "W12" 0.00000 50.74540 48.13458 12.34839 18.05643 22.16801 
295 "BT5" 76.33173 100.0000 0.00000 58.59688 83.24262 13.84170 
296 "BY15" 66.92302 100.0000 50.07706 56.79614 81.87023 33.79224 
297 "Q12" 60.17090 44.87221 38.35355 22.26650 20.62595 15.06256 
298 "CS14" 65.59548 75.25597 17.00160 35.91332 46.61638 10.26364 
299 "BG7" 100.0000 0.00000 44.45411 44.80117 23.24038 18.56180 
300 "AV1" 81.25124 20.87587 25.09804 28.71617 17.07106 7.445887 
301 "CO8" 34.48539 16.82460 18.18723 6.326117 4.952982 4.081124 
302 "L3" 85.68856 72.42237 32.35523 48.41295 50.66299 16.09485 
303 "AT2" 0.00000 26.37675 8.561837 3.144294 5.061171 2.414279 
304 "DS8" 45.91592 39.17754 54.38468 17.36867 15.59135 27.02327 
305 "K4" 76.58808 74.15885 58.83421 46.85092 50.78330 36.78054 
306 "DB10" 0.00000 100.0000 98.76249 53.77713 78.74819 104.3015 
307 "CJ11" 49.04555 55.62219 98.04990 36.02385 31.25932 94.58269 
308 "BZ3" 29.59945 68.05524 0.00000 18.80814 32.29265 6.102471 
309 "CB8" 25.99680 59.07073 84.68299 26.40658 28.85538 69.33571 
310 "CR10" 0.00000 69.08827 53.72396 20.87581 33.59468 29.68033 
311 "H2" 0.00000 74.68833 72.66499 28.02982 41.13211 52.93952 
312 "DU3" 53.02052 0.00000 56.00671 15.81977 8.074911 27.24864 
313 "DE11" 68.78309 51.18944 58.04837 31.86061 28.13392 32.36793 
314 "CW11" 72.08515 81.45418 51.38933 46.84775 57.20804 30.71512 
315 "K14" 68.83650 37.61044 43.56909 25.60130 19.48897 18.19489 
316 "BN1" 100.0000 50.65843 38.03769 51.76174 38.49528 16.76267 
317 "BD7" 70.34867 0.00000 33.53933 21.13869 11.19339 10.52705 
318 "DJ13" 62.97551 62.57877 29.58724 29.11584 33.71323 12.50572 
319 "CU14" 34.23972 29.81918 18.03311 7.969583 8.338426 4.607626 
320 "BM15" 6.007477 34.53269 44.96529 7.704583 9.239410 18.19877 
321 "CV5" 80.48829 23.68505 8.336004 27.74998 17.18151 3.429623 
322 "R15" 71.74487 44.85847 73.90402 35.35907 26.57699 51.49780 
323 "CU9" 0.00000 40.86061 0.00000 5.920546 10.83972 2.640196 
324 "CR12" 48.85328 68.43671 61.24971 30.35346 37.83250 37.79327 
325 "DG9" 71.45342 87.80041 100.0000 64.38197 70.73795 104.8138 
326 "AF7" 94.98894 0.00000 98.58854 54.63194 26.65146 93.83738 
327 "M8" 0.00000 80.99031 91.72045 37.66598 50.82380 85.69016 
328 "AG13" 35.95789 14.54185 45.66873 9.144469 5.811111 18.00095 
329 "BQ6" 65.71298 68.07507 78.43595 42.12842 43.13734 61.08756 
330 "CW3" 58.65721 72.96559 76.55604 40.54993 46.08124 58.87581 
331 "R4" 35.39788 0.00000 68.17273 12.74909 6.184698 40.95837 
332 "CR15" 79.19280 33.38369 58.42985 33.69659 22.02551 31.49304 
333 "CU10" 73.59579 52.58564 52.02716 34.07533 30.11739 26.73574 
334 "BS4" 78.98528 30.04349 81.35195 38.76372 23.03495 62.00733 
335 "CN4" 84.86152 61.49996 43.42718 43.88783 40.45886 21.17663 
336 "BK15" 70.87968 38.24979 30.03738 25.40092 19.78372 10.22003 
337 "BZ2" 53.40963 14.36942 21.93790 12.43290 7.769149 5.401976 
338 "BP1" 0.00000 7.243458 18.43595 1.730078 1.646846 3.751001 
339 "DN9" 75.03624 50.70268 11.22454 30.38380 27.71745 5.736708 
340 "BA3" 0.00000 4.620432 49.08675 4.803286 2.725143 20.40294 
341 "DV11" 45.91287 35.35821 72.16449 20.47508 15.44324 47.68043 
342 "BY2" 60.09461 83.04112 40.54475 39.74392 55.19827 22.23075 
343 "DC9" 68.01099 59.07836 79.15618 39.59506 35.85965 60.93920 
344 "CX12" 63.22118 20.46998 100.0000 34.69023 18.12117 96.22104 
345 "CE10" 22.38651 34.40909 29.13252 7.343131 9.224538 8.720048 
346 "CL15" 32.02258 15.48180 0.00000 5.149533 4.228830 1.404710 
347 "BM8" 42.93126 41.87991 93.71328 27.90738 20.78374 84.24886 
348 "D7" 33.60342 88.12696 25.96628 32.33565 56.49820 15.19928 
349 "CQ11" 40.30823 71.62432 80.40131 34.11913 41.58756 64.30278 
350 "DG3" 44.04211 49.86801 74.11765 24.28396 23.13635 51.72438 
351 "L4" 37.71725 66.61021 67.05882 27.27752 34.78897 44.29286 
352 "BV4" 100.0000 86.57816 100.0000 85.24239 80.27456 105.5560 
353 "CR7" 82.14237 97.49447 93.35927 75.87326 87.43706 93.89658 
354 "AB6" 76.60334 0.00000 59.41558 28.94032 14.76165 31.39515 
355 "DJ14" 60.40589 39.25841 55.25139 23.47516 18.75004 28.15589 
356 "AA1" 44.05585 33.72396 39.14702 13.22264 11.92898 14.36167 
357 "AB1" 0.00000 46.21653 30.98344 8.794393 14.35079 10.49345 
358 "CW1" 0.00000 61.13680 29.43771 14.01312 25.00734 11.55283 
359 "A6" 3.518730 13.75143 3.590448 1.757819 2.270928 1.465818 
360 "CT6" 64.22980 0.00000 41.54726 18.68735 9.822046 15.26044 
361 "F4" 64.04059 0.00000 0.251774 16.01889 8.743385 1.721936 
