Pre-made_Targets/Patch Width 8-11mm - Expert (Use rig-guide-ruler)/Designed Targets/CM-Expert-A4-882p-2pages-w7.5mm-21x21-SpyderHighQ.TargetPlusGrays-Randomized/ArgyllPlusGrays.ti1
CTI1   

DESCRIPTOR "Argyll Calibration Target chart information 1"
ORIGINATOR "Argyll targen"
CREATED "Sun Mar 30 10:40:38 2025"
APPROX_WHITE_POINT "95.106486 100.000000 108.844025"
COLOR_REP "iRGB"
WHITE_COLOR_PATCHES "4"
BLACK_COLOR_PATCHES "4"
COMP_GREY_STEPS "51"
MULTI_DIM_BCC_STEPS "4"
OFPS_PATCHES "499"

NUMBER_OF_FIELDS 7
BEGIN_DATA_FORMAT
SAMPLE_ID RGB_R RGB_G RGB_B XYZ_X XYZ_Y XYZ_Z 
END_DATA_FORMAT

NUMBER_OF_SETS 882
BEGIN_DATA
1 100 100 100 95.1065 100 108.844 
2 0.00000 31.6002 51.0229 7.87899 8.36247 23.011 
3 0.00000 44.3571 0.00000 6.85877 12.7159 2.95294 
4 100 66.1047 84.7361 68.0794 54.8953 72.2581 
5 22.8492 0.00000 46.2384 5.9751 3.19132 18.106 
6 18.4791 26.1769 0.00000 4.13883 5.546 1.71219 
7 80 80 80 57.8241 60.7789 66.1192 
8 31.772 66.7058 87.0686 31.6693 36.4525 74.6828 
9 54.6014 66.885 43.9842 28.8204 36.2842 21.5725 
10 96 96 96 86.7694 91.2293 99.2899 
11 94 94 94 82.7691 87.021 94.7056 
12 92 92 92 78.8798 82.9295 90.2486 
13 90 90 90 75.1006 78.9538 85.9177 
14 88 88 88 71.4306 75.093 81.712 
15 86 86 86 67.8689 71.3461 77.6304 
16 84 84 84 64.4146 67.7121 73.6717 
17 82 82 82 61.0666 64.19 69.835 
18 0.00000 0.00000 0.00000 1 1 1 
19 78 78 78 54.686 57.4777 62.523 
20 76 76 76 51.6515 54.2853 59.0455 
21 74 74 74 48.7194 51.2008 55.6854 
22 72 72 72 45.8888 48.223 52.4416 
23 70 70 70 43.1586 45.3509 49.3129 
24 68 68 68 40.5279 42.5833 46.2981 
25 66 66 66 37.9954 39.9192 43.396 
26 64 64 64 35.5603 37.3574 40.6053 
27 62 62 62 33.2213 34.8968 37.9249 
28 60 60 60 30.9773 32.5361 35.3534 
29 58 58 58 28.8273 30.2743 32.8895 
30 56 56 56 26.77 28.11 30.5318 
31 54 54 54 24.8042 26.0421 28.2792 
32 52 52 52 22.9289 24.0692 26.13 
33 50 50 50 21.1427 22.1901 24.0831 
34 48 48 48 19.4443 20.4034 22.1368 
35 46 46 46 17.8326 18.7079 20.2898 
36 44 44 44 16.3062 17.1021 18.5405 
37 42 42 42 14.8637 15.5846 16.8875 
38 40 40 40 13.5038 14.154 15.3291 
39 38 38 38 12.225 12.8087 13.8637 
40 36 36 36 11.026 11.5474 12.4896 
41 34 34 34 9.90526 10.3683 11.2052 
42 32 32 32 8.8612 9.26998 10.0088 
43 30 30 30 7.89226 8.25066 8.89838 
44 28 28 28 6.99682 7.30866 7.87223 
45 26 26 26 6.1732 6.4422 6.92837 
46 24 24 24 5.41964 5.64946 6.06481 
47 22 22 22 4.73433 4.92851 5.27946 
48 20 20 20 4.11537 4.27737 4.57015 
49 18 18 18 3.56081 3.69397 3.93463 
50 16 16 16 3.06855 3.17611 3.37051 
51 14 14 14 2.63643 2.72152 2.87531 
52 12 12 12 2.26213 2.32776 2.44638 
53 10 10 10 1.94321 1.99226 2.0809 
54 8 8 8 1.67704 1.71225 1.77587 
55 6 6 6 1.46077 1.48473 1.52804 
56 4 4 4 1.29131 1.30645 1.33383 
57 2 2 2 1.14568 1.15325 1.16694 
58 66.6667 100 100 70.6891 87.4103 107.7 
59 33.3333 100 100 57.9854 80.8602 107.105 
60 0.00000 100 100 54.2763 78.9478 106.931 
61 100 66.6667 100 73.9334 57.6597 101.786 
62 66.6667 66.6667 100 49.516 45.0701 100.642 
63 33.3333 66.6667 100 36.8123 38.52 100.047 
64 0.00000 66.6667 100 33.1032 36.6075 99.873 
65 100 33.3333 100 62.9175 35.6311 98.1143 
66 66.6667 33.3333 100 38.5002 23.0415 96.9701 
67 33.3333 33.3333 100 25.7965 16.4914 96.3749 
68 0.00000 33.3333 100 22.0874 14.579 96.2011 
69 100 0.00000 100 59.7013 29.1995 97.0422 
70 66.6667 0.00000 100 35.2839 16.6098 95.898 
71 33.3333 0.00000 100 22.5802 10.0597 95.3028 
72 0.00000 0.00000 100 18.8711 8.14731 95.129 
73 100 100 66.6667 84.4192 95.7257 52.5528 
74 66.6667 100 66.6667 60.0018 83.1361 51.4087 
75 33.3333 100 66.6667 47.2981 76.586 50.8134 
76 0.00000 100 66.6667 43.589 74.6736 50.6396 
77 100 66.6667 66.6667 63.2461 53.3855 45.4951 
78 66.6667 66.6667 66.6667 38.8287 40.7958 44.3509 
79 33.3333 66.6667 66.6667 26.125 34.2457 43.7556 
80 0.00000 66.6667 66.6667 22.4159 32.3333 43.5818 
81 100 33.3333 66.6667 52.2302 31.3569 41.8231 
82 66.6667 33.3333 66.6667 27.8129 18.7672 40.6789 
83 33.3333 33.3333 66.6667 15.1091 12.2171 40.0837 
84 0.00000 33.3333 66.6667 11.4001 10.3047 39.9098 
85 100 0.00000 66.6667 49.014 24.9252 40.751 
86 66.6667 0.00000 66.6667 24.5966 12.3356 39.6068 
87 33.3333 0.00000 66.6667 11.8929 5.78548 39.0116 
88 0.00000 0.00000 66.6667 8.18379 3.87306 38.8378 
89 100 100 33.3333 78.8588 93.502 23.2659 
90 66.6667 100 33.3333 54.4415 80.9123 22.1217 
91 33.3333 100 33.3333 41.7377 74.3622 21.5265 
92 0.00000 100 33.3333 38.0287 72.4498 21.3527 
93 100 66.6667 33.3333 57.6857 51.1617 16.2081 
94 66.6667 66.6667 33.3333 33.2684 38.572 15.064 
95 33.3333 66.6667 33.3333 20.5646 32.0219 14.4687 
96 0.00000 66.6667 33.3333 16.8555 30.1095 14.2949 
97 100 33.3333 33.3333 46.6699 29.1331 12.5362 
98 66.6667 33.3333 33.3333 22.2525 16.5434 11.392 
99 33.3333 33.3333 33.3333 9.54879 9.99333 10.7967 
100 0.00000 33.3333 33.3333 5.83971 8.08091 10.6229 
101 100 0.00000 33.3333 43.4536 22.7014 11.4641 
102 66.6667 0.00000 33.3333 19.0363 10.1118 10.3199 
103 33.3333 0.00000 33.3333 6.33252 3.56169 9.72464 
104 0.00000 0.00000 33.3333 2.62344 1.64927 9.55084 
105 100 100 0.00000 77.2354 92.8527 14.7151 
106 66.6667 100 0.00000 52.818 80.263 13.5709 
107 33.3333 100 0.00000 40.1143 73.7129 12.9756 
108 0.00000 100 0.00000 36.4052 71.8005 12.8018 
109 100 66.6667 0.00000 56.0623 50.5124 7.65731 
110 66.6667 66.6667 0.00000 31.6449 37.9227 6.51315 
111 33.3333 66.6667 0.00000 18.9412 31.3726 5.91788 
112 0.00000 66.6667 0.00000 15.2321 29.4602 5.74408 
113 100 33.3333 0.00000 45.0464 28.4838 3.98533 
114 66.6667 33.3333 0.00000 20.6291 15.8941 2.84118 
115 33.3333 33.3333 0.00000 7.92535 9.34406 2.2459 
116 0.00000 33.3333 0.00000 4.21627 7.43164 2.0721 
117 100 0.00000 0.00000 41.8302 22.0522 2.91323 
118 66.6667 0.00000 0.00000 17.4128 9.4625 1.76908 
119 33.3333 0.00000 0.00000 4.70908 2.91242 1.1738 
120 83.3333 83.3333 83.3333 63.2868 66.5257 72.3793 
121 50 83.3333 83.3333 45.0016 57.0978 71.5225 
122 16.6667 83.3333 83.3333 37.228 53.0897 71.1583 
123 83.3333 50 83.3333 47.4311 34.8188 67.0941 
124 50 50 83.3333 29.146 25.3909 66.2373 
125 16.6667 50 83.3333 21.3724 21.3828 65.873 
126 83.3333 16.6667 83.3333 40.6904 21.3392 64.8471 
127 50 16.6667 83.3333 22.4052 11.9113 63.9903 
128 16.6667 16.6667 83.3333 14.6316 7.90317 63.6261 
129 83.3333 83.3333 50 55.2835 63.3249 30.2251 
130 50 83.3333 50 36.9983 53.897 29.3683 
131 16.6667 83.3333 50 29.2247 49.8889 29.0041 
132 83.3333 50 50 39.4278 31.618 24.9399 
133 16.6667 50 50 13.3691 18.182 23.7188 
134 83.3333 16.6667 50 32.6871 18.1383 22.6929 
135 50 16.6667 50 14.4019 8.71045 21.8361 
136 16.6667 16.6667 50 6.6283 4.70235 21.4719 
137 83.3333 83.3333 16.6667 51.881 61.9641 12.304 
138 50 83.3333 16.6667 33.5959 52.5362 11.4472 
139 16.6667 83.3333 16.6667 25.8223 48.5281 11.083 
140 83.3333 50 16.6667 36.0254 30.2572 7.01877 
141 50 50 16.6667 17.7402 20.8293 6.16196 
142 16.6667 50 16.6667 9.9666 16.8212 5.79771 
143 83.3333 16.6667 16.6667 29.2846 16.7776 4.77184 
144 50 16.6667 16.6667 10.9994 7.34968 3.91503 
145 16.6667 16.6667 16.6667 3.22584 3.34159 3.55077 
146 17.1084 0.00000 100 19.8837 8.6694 95.1764 
147 100 0.00000 55.7836 46.6827 23.9929 28.4722 
148 100 77.7218 0.00000 61.8671 62.1204 9.59226 
149 77.7914 0.00000 0.00000 24.1534 12.938 2.08493 
150 0.00000 0.00000 55.481 5.79527 2.9178 26.2572 
151 100 11.3544 100 60.1352 30.0671 97.1868 
152 16.8873 100 100 55.2653 79.4577 106.977 
153 50.1504 100 0.00000 45.2015 76.3359 13.214 
154 100 44.507 0.00000 47.7313 33.8528 4.88029 
155 100 100 11.3776 77.4551 92.9406 15.8724 
156 100 0.00000 15.7511 42.2122 22.2049 4.92525 
157 44.784 100 100 61.1725 82.5035 107.254 
158 100 77.9429 100 79.8661 69.5236 103.764 
159 0.00000 55.4215 0.00000 10.4779 19.9531 4.15932 
160 0.00000 22.9487 100 20.3952 11.1951 95.637 
161 44.555 0.00000 100 25.6921 11.6642 95.4486 
162 0.00000 100 50.5586 40.3234 73.3676 33.4394 
163 71.4033 0.00000 17.7527 20.5922 11.047 4.39304 
164 100 100 22.4541 77.973 93.1477 18.6 
165 53.9781 0.00000 43.8251 14.201 7.47309 16.6638 
166 0.00000 84.3034 80.9474 36.1329 53.53 67.3785 
167 100 22.57 100 61.1771 32.1508 97.5341 
168 48.2773 21.403 0.00000 10.4353 7.84296 1.82395 
169 0.00000 0.00000 17.269 1.45079 1.18029 3.37434 
170 0.00000 36.3542 83.2609 16.6551 13.4198 64.4631 
171 55.9985 100 100 65.4565 84.7124 107.455 
172 55.7865 0.00000 100 29.959 13.8643 95.6485 
173 35.5608 49.7671 0.00000 12.7424 18.1884 3.69941 
174 0.00000 0.00000 82.8101 12.6619 5.66404 62.4247 
175 84.2838 20.5188 100 47.8249 24.9016 96.8381 
176 0.00000 100 16.607 36.8252 71.9685 15.0138 
177 0.00000 84.3531 28.9364 26.3014 49.6492 15.4369 
178 100 0.00000 44.7851 44.8487 23.2594 18.8123 
179 17.8538 0.00000 73.11 10.915 5.09199 47.5097 
180 100 16.0105 0.00000 42.6093 23.6103 3.17295 
181 100 20.7744 14.2631 43.4104 24.6988 5.02333 
182 0.00000 44.4106 100 24.745 19.8934 97.0869 
183 100 100 50.6943 81.1764 94.4288 35.4727 
184 51.0664 100 30.5829 46.914 77.0615 20.3992 
185 69.4683 0.00000 82.5814 30.5734 14.9076 62.8862 
186 76.0162 25.3548 0.00000 24.8387 16.0399 2.64759 
187 100 0.00000 82.6764 53.4498 26.6993 64.1148 
188 64.6406 50.3388 100 41.8894 31.428 98.4105 
189 50.0949 72.9552 0.00000 27.1674 40.304 7.20862 
190 0.00000 16.9645 65.043 8.66665 5.44946 37.115 
191 0.00000 77.788 100 38.9463 48.292 101.821 
192 83.8687 100 0.00000 63.8222 85.9368 14.0865 
193 83.5461 0.00000 100 46.0512 22.1615 96.4026 
194 0.00000 100 82.9209 48.1023 76.4786 74.4116 
195 21.8759 85.5255 0.00000 27.4485 51.511 9.35709 
196 85.5003 100 25.9909 66.0207 86.9568 19.3144 
197 0.00000 83.8046 0.00000 24.7333 48.46 8.91118 
198 0.00000 0.00000 44.4747 3.97404 2.18943 16.6646 
199 100 50.5253 100 67.4527 44.7002 99.626 
200 49.9002 0.00000 0.00000 9.70167 5.48661 1.40775 
201 0.00000 43.3375 15.8658 6.96229 12.3038 4.89665 
202 100 88.6031 0.00000 68.74 75.8642 11.8832 
203 0.00000 11.5857 100 19.3194 9.04381 95.2784 
204 100 55.586 0.00000 51.3696 41.1283 6.09306 
205 88.9147 0.00000 0.00000 32.2803 17.1282 2.46574 
206 0.00000 15.9391 0.00000 1.77296 2.54571 1.25766 
207 100 89.0858 100 86.9435 83.6764 106.123 
208 100 100 83.4594 89.1042 97.5994 77.2291 
209 54.167 83.0945 100 52.5518 60.0678 103.377 
210 17.3298 0.00000 0.00000 2.03653 1.53444 1.04857 
211 0.00000 73.8902 51.8172 23.0264 38.4353 28.7318 
212 82.4692 100 100 80.6742 92.5586 108.168 
213 16.5433 100 0.00000 37.3581 72.2918 12.8465 
214 100 100 100 95.1065 100 108.844 
215 20.379 85.8876 100 45.3552 59.0297 103.556 
216 0.00000 49.9906 56.4706 13.5592 18.1414 29.7771 
217 100 85.1825 66.2953 73.5472 74.1263 48.4927 
218 83.1484 70.6505 100 61.9519 54.3894 101.786 
219 56.8761 100 84.3833 60.1389 82.6304 77.4274 
220 71.5885 100 84.6576 67.89 86.6165 78.2568 
221 13.3943 0.00000 15.7313 2.03937 1.49181 3.03837 
222 0.00000 0.00000 0.00000 1 1 1 
223 100 82.6344 82.4745 76.3798 72.6549 71.4437 
224 0.00000 43.5494 43.3754 9.45299 13.3931 17.7281 
225 100 49.7481 63.7035 55.8222 39.6399 39.6275 
226 0.00000 18.4424 32.454 3.54415 3.62934 9.42932 
227 47.4009 50.5776 100 34.429 27.6989 98.0836 
228 0.00000 28.4387 16.846 3.75866 5.82713 4.04576 
229 100 84.5317 35.9775 67.9314 71.2053 20.9952 
230 100 100 100 95.1065 100 108.844 
231 100 63.5487 49.7991 58.4229 49.1666 27.153 
232 73.7299 100 48.5795 60.5353 83.8263 32.6961 
233 65.9775 50.3719 0.00000 24.7398 24.6689 4.31846 
234 82.1535 54.5824 100 54.2097 39.9738 99.4112 
235 27.5644 100 82.166 50.3854 77.6834 73.2748 
236 100 51.4236 32.2283 51.3981 38.762 13.5761 
237 0.00000 69.6584 81.8551 28.051 36.9184 66.0723 
238 100 31.9148 51.3747 48.8281 29.5566 25.2597 
239 100 16.5256 42.8373 45.4004 24.7993 17.649 
240 51.0091 37.9753 0.00000 14.3429 14.1387 2.83341 
241 56.8807 0.00000 17.1761 13.0154 7.14355 3.89326 
242 41.598 100 45.4139 45.4088 76.0831 29.4584 
243 0.00000 0.00000 0.00000 1 1 1 
244 100 18.5097 71.5336 51.2464 27.4408 47.5051 
245 70.9088 0.00000 50.597 23.749 12.2755 22.5536 
246 100 71.1327 19.2889 58.8212 55.1451 11.3043 
247 58.8903 100 47.4439 52.3048 79.6033 31.3786 
248 61.785 84.5356 0.00000 39.0756 56.5509 9.71756 
249 0.00000 18.1224 82.0759 13.4061 7.5223 61.5313 
250 48.4156 0.00000 70.2169 17.2138 8.42748 43.842 
251 100 51.3568 80.4206 60.7795 42.4777 63.1011 
252 52.9207 18.6654 100 29.7854 15.3037 95.9355 
253 18.2809 71.9433 100 36.8729 42.4493 100.802 
254 16.0018 100 63.7599 43.8117 74.8665 47.1265 
255 27.2923 100 14.8168 39.22 73.2122 14.7239 
256 86.1826 100 86.5345 78.4342 91.9813 81.9942 
257 17.3278 40.5843 0.00000 6.88682 11.234 2.66541 
258 85.1681 72.9302 0.00000 46.7623 50.3875 8.123 
259 15.568 0.00000 33.0564 3.4506 2.07896 9.44525 
260 38.7871 0.00000 50.5718 10.0048 5.18946 21.8875 
261 48.8 100 72.2952 53.3006 79.5168 58.5015 
262 20.627 13.798 100 20.9044 10.0869 95.3963 
263 27.9061 0.00000 17.2764 4.03552 2.51294 3.4973 
264 83.4578 0.00000 66.1475 35.1758 17.8045 39.4583 
265 14.4791 100 41.8401 39.7693 73.233 26.5923 
266 0.00000 84.2168 65.0431 31.799 51.7077 44.8259 
267 83.1077 42.2606 0.00000 33.1448 25.4172 4.02023 
268 84.8137 0.00000 46.5261 32.3934 16.8077 19.5699 
269 16.1757 0.00000 58.5466 7.3095 3.62926 29.4552 
270 88.6366 27.6652 0.00000 34.262 21.4186 3.18954 
271 0.00000 49.8147 30.1284 9.83782 16.5611 10.4598 
272 34.0149 0.00000 83.4984 16.7485 7.74573 63.7611 
273 15.9067 71.1732 0.00000 18.3473 34.3715 6.52803 
274 82.6608 57.5564 0.00000 37.8307 35.2685 5.67501 
275 0.00000 88.8879 100 45.9768 62.3512 104.164 
276 17.0667 56.5905 100 29.7994 28.5048 98.483 
277 82.5477 38.3254 100 49.6249 30.3848 97.8017 
278 100 37.629 17.9116 46.4493 30.5182 6.83066 
279 61.84 15.445 0.00000 15.6314 9.62872 1.89499 
280 0.00000 54.8705 82.4197 21.812 24.159 64.8661 
281 83.7063 100 72.7004 72.4134 89.3589 59.9605 
282 0.00000 55.3088 100 28.3069 27.0163 98.2743 
283 53.9158 0.00000 84.1073 23.3703 11.1372 65.0947 
284 31.8272 49.5178 100 29.6654 24.7267 97.7607 
285 100 55.3012 16.6938 51.6871 41.0851 8.2905 
286 16.1321 26.7457 100 21.8406 12.7337 95.8579 
287 49.1726 35.759 100 31.0207 19.9321 96.7639 
288 13.4046 100 83.3347 48.8932 76.8712 75.1368 
289 43.1863 100 16.7822 43.2151 75.2622 15.3552 
290 0.00000 61.5903 17.9606 13.431 25.0836 7.53337 
291 50.2343 66.2715 100 41.745 40.7868 100.225 
292 83.809 0.00000 32.1125 29.8767 15.715 10.2025 
293 100 16.9599 28.252 43.8539 24.2441 9.30842 
294 0.00000 86.1072 45.2795 29.3188 52.6859 25.6864 
295 0.00000 15.8003 47.3844 5.1677 3.88426 19.1971 
296 51.0229 56.2599 0.00000 19.9248 25.293 4.69253 
297 80.6466 13.3211 0.00000 26.6697 15.0746 2.36483 
298 70.0223 84.0341 100 61.0555 65.3383 103.947 
299 100 80.3166 51.284 67.4403 66.8006 31.3873 
300 84.9995 0.00000 82.6487 40.8679 20.213 63.4796 
301 26.8028 100 52.3734 43.019 74.7214 35.191 
302 39.8099 84.9495 0.00000 30.8409 52.7025 9.40843 
303 0.00000 14.145 17.8147 2.10386 2.44407 3.72212 
304 85.9218 0.00000 17.6947 30.4243 16.1168 4.83895 
305 100 16.7196 57.2106 47.8006 25.7873 30.2047 
306 54.9183 0.00000 57.217 16.8441 8.57598 28.5193 
307 30.9526 55.1435 63.3224 19.9715 23.953 38.0393 
308 35.1185 14.6737 0.00000 5.7995 4.46597 1.41625 
309 11.7989 38.6431 46.4143 9.16578 11.3257 19.6467 
310 47.3398 0.00000 31.368 10.2007 5.57814 8.91273 
311 54.4394 71.1448 84.4047 40.1302 44.173 71.0943 
312 100 36.5365 84.1024 57.796 34.6609 67.814 
313 54.5404 59.3379 33.5197 24.2033 29.1087 13.8131 
314 79.5764 75.3868 60.9137 49.9615 53.3378 39.3778 
315 66.131 63.4535 48.0589 33.3923 36.2303 24.5058 
316 39.1768 41.5956 25.4452 12.2437 14.2721 7.90501 
317 58.0179 41.3851 50.8066 22.0969 18.9222 24.1086 
318 82.0562 48.5714 70.6696 42.3973 31.9633 47.6677 
319 45.2157 59.365 41.3935 21.6095 27.6824 18.4482 
320 42.9748 70.1771 74.4809 32.4603 39.8301 55.0395 
321 25.116 43.7102 26.4143 9.78796 13.8406 8.33017 
322 50.7064 16.6917 38.3531 13.0218 8.19328 13.1497 
323 72.9375 89.0663 62.7227 54.5523 68.2964 44.079 
324 25.6915 64.5319 75.6101 25.9435 32.4146 55.6008 
325 18.8705 79.1289 64.9455 29.8514 46.0498 43.718 
326 86.6377 61.7173 24.9849 43.4093 40.5722 11.1659 
327 63.0914 28.5818 43.6103 20.732 14.3336 17.4867 
328 69.8304 40.6007 10.1035 24.2296 20.1611 4.42936 
329 23.5496 44.3206 67.142 15.9944 16.5669 41.4747 
330 86.5566 100 41.1562 68.365 87.9874 27.4644 
331 23.6821 30.5584 44.535 8.543 8.53947 17.6948 
332 45.3371 58.6224 64.1417 25.3922 28.7195 39.6421 
333 14.4913 47.9844 37.2927 10.7375 16.075 14.1414 
334 25.6432 27.712 90.7282 19.7247 12.2766 77.321 
335 80.4166 30.966 31.2917 30.1354 19.9619 10.602 
336 100 18.9826 85.5526 55.4433 29.1971 69.3703 
337 65.9243 80.124 33.8735 40.1418 52.8265 17.7404 
338 55.6471 25.8744 72.0117 22.4828 13.9512 47.0751 
339 71.635 39.6806 90.6223 39.175 25.8945 78.7269 
340 59.1926 77.9095 44.453 36.7413 48.983 23.955 
341 37.7013 82.2608 100 46.422 56.132 102.94 
342 43.8492 21.985 72.4135 17.6296 10.658 47.2532 
343 43.1029 75.9418 32.8049 27.9503 42.9473 15.9133 
344 62.0417 10.2858 57.7205 20.6002 11.0514 29.3205 
345 54.6026 88.9237 65.2611 45.5637 63.4492 46.6325 
346 11.9298 60.0585 19.9355 13.4328 24.1165 7.89014 
347 85.2534 38.4498 63.086 40.1342 26.8667 37.2634 
348 88.236 8.30897 58.1769 37.3321 19.5168 30.5506 
349 10.1851 75.1259 37.0781 22.0154 39.1607 17.8747 
350 39.4698 72.1176 44.8352 26.2502 38.8247 22.8343 
351 41.9081 74.0225 13.5359 25.2459 40.1301 8.81394 
352 87.8544 27.8981 75.8871 43.2704 25.0099 53.6684 
353 10.8747 20.6501 60.544 8.51886 6.05294 32.0225 
354 0.00000 79.0434 14.5356 22.1407 42.745 9.68322 
355 36.7736 18.3597 100 24.4175 12.49 95.6751 
356 48.5317 100 57.9982 49.884 78.139 41.0179 
357 90.1388 75.3365 27.1565 53.0197 55.43 14.3826 
358 100 47.2398 47.0294 51.8871 36.8007 22.8038 
359 75.5408 8.21962 33.0956 24.5447 13.3476 10.5299 
360 64.1538 72.9886 18.16 33.9787 43.7851 10.1132 
361 77.7154 100 13.8866 59.8144 83.8349 15.4985 
362 37.682 19.0807 26.5353 7.88138 6.02252 6.96995 
363 75.2618 76.52 25.501 42.7965 51.1579 13.4373 
364 23.6324 91.4507 30.8627 33.1529 60.3172 18.0253 
365 0.00000 47.4603 69.0074 15.5281 17.6447 44.1078 
366 26.1672 53.1248 75.7796 21.4726 23.2774 54.3228 
367 26.1233 47.9284 8.29215 10.3179 16.0542 4.12474 
368 64.535 45.414 64.5602 29.1253 23.8717 39.0105 
369 36.8445 79.264 80.9708 37.5926 49.6617 66.5927 
370 16.0258 0.00000 86.5562 14.7847 6.61713 68.907 
371 84.3454 100 58.5215 69.5638 88.2738 42.4888 
372 65.7337 64.4753 78.0512 40.3352 39.7158 59.929 
373 74.8613 57.3361 31.7475 33.9239 32.9564 13.135 
374 8.88727 31.3927 90.7272 18.5166 12.5948 77.4441 
375 70.8659 17.2574 79.3727 31.293 16.7167 58.0202 
376 31.7361 85.6583 22.6661 30.0373 52.8881 13.4242 
377 10.1044 68.4355 59.5625 22.1015 33.618 35.5535 
378 59.3789 25.7143 19.1874 16.1638 11.5813 5.11349 
379 90.9335 74.7524 91.3162 66.8152 60.5065 85.2571 
380 100 100 100 95.1065 100 108.844 
381 89.6281 41.7406 23.1232 38.7789 28.0285 8.32027 
382 0.00000 60.1933 47.2235 15.7401 25.0659 22.5987 
383 90.644 62.0489 11.1444 46.029 42.2149 7.69821 
384 52.7983 72.5268 55.7468 32.8452 42.334 32.7048 
385 40.8531 46.7876 72.6279 21.9314 20.5344 49.2326 
386 52.6219 37.4646 38.1418 17.011 15.0909 14.1397 
387 90.0623 73.438 43.816 53.7314 54.0501 23.5658 
388 87.6534 50.3477 31.7491 40.4483 32.5865 12.7208 
389 32.6422 11.1196 46.1999 8.19855 4.96102 18.3002 
390 32.2065 24.6669 79.3574 16.8078 10.5286 57.5645 
391 78.7279 85.519 0.00000 49.6247 62.9388 10.395 
392 14.3028 100 22.5667 37.8867 72.4782 16.759 
393 17.9064 55.5045 0.00000 11.6094 20.5825 4.22123 
394 30.2507 20.5121 37.2234 7.31215 5.84296 12.305 
395 17.8988 41.44 100 25.0402 18.8519 96.8703 
396 74.7011 43.1353 56.587 32.6718 24.9434 30.2014 
397 42.7218 60.0229 91.175 33.0155 32.5834 81.3807 
398 62.2389 52.9645 39.5081 25.9986 26.3648 16.7075 
399 85.614 86.5926 63.457 61.711 69.4778 44.7865 
400 17.2254 73.6108 87.8718 33.0992 42.3412 77.1783 
401 75.494 90.3417 30.4831 52.1207 68.9327 18.5086 
402 61.1285 30.7305 82.1355 28.7229 18.0109 62.8471 
403 19.0807 33.3509 16.9269 5.89213 8.25063 4.42087 
404 36.8999 76.6637 64.2254 31.6251 44.863 42.5299 
405 42.0662 100 85.8327 55.0834 79.9687 79.6763 
406 85.0988 87.1275 100 73.1108 74.5643 105.093 
407 54.3433 29.3268 8.42074 14.0866 11.407 3.04518 
408 24.5808 10.1606 70.4056 11.4828 6.00681 43.9299 
409 88.8306 54.6308 60.339 47.1625 37.767 35.8827 
410 69.0359 28.8857 54.9266 25.8291 16.8242 27.3413 
411 70.7097 88.4585 16.2966 46.9234 64.4215 12.9517 
412 16.997 13.0297 0.00000 2.54532 2.60514 1.22845 
413 74.2881 14.4293 58.3265 27.8832 15.205 30.3734 
414 43.2195 30.3851 58.4501 15.4282 11.7669 30.4963 
415 42.3657 30.3303 87.2824 22.9081 14.712 71.3276 
416 27.384 88.6758 62.7245 36.7259 58.7057 43.1687 
417 62.222 19.7744 87.5845 29.4707 15.8518 71.7412 
418 92.4019 41.6325 73.6361 49.2074 32.4172 51.5137 
419 42.442 44.5074 59.3761 18.615 18.197 32.5589 
420 44.5723 51.7889 31.4753 17.4476 21.4502 11.6474 
421 39.9309 86.7846 40.211 34.4849 56.0973 22.4593 
422 9.28657 75.7767 72.1937 28.8725 42.4754 52.4969 
423 60.5118 89.5421 76.2241 51.4928 66.8148 61.8058 
424 12.1287 65.8825 47.3311 18.8196 30.3702 23.5474 
425 55.0908 46.1933 30.8573 19.5643 19.895 10.9358 
426 74.2168 56.0192 9.68266 31.7129 31.2157 6.10848 
427 27.6045 75.5848 9.48876 22.5182 40.013 8.26374 
428 8.37589 58.2821 34.4746 13.6354 23.0174 13.7083 
429 74.8723 19.7678 41.1092 25.9159 15.2575 15.6291 
430 36.4757 52.4941 49.6871 17.6656 21.6547 23.8925 
431 34.3558 38.0714 79.0174 19.6834 15.7116 57.8808 
432 38.3749 19.5752 60.6917 12.9355 8.14946 32.3583 
433 18.832 31.7832 69.0522 12.8915 10.5617 42.9382 
434 27.5911 60.5845 49.6298 18.8118 26.8473 24.7852 
435 39.734 23.5802 45.1967 11.034 8.20183 17.9994 
436 82.5801 65.6652 80.0954 52.0605 46.5009 63.8182 
437 40.4586 30.4041 20.0917 9.81838 9.43212 5.29165 
438 100 85.3308 18.2587 67.0478 71.6817 13.7824 
439 91.5786 76.7589 67.5596 61.3244 60.1657 48.0331 
440 75.9722 25.6102 70.7934 33.0567 19.3825 45.8986 
441 19.0356 60.6166 88.7828 27.4123 30.1588 76.774 
442 64.0812 79.0172 79.5055 47.4723 54.5905 64.6877 
443 69.2216 15.7298 100 37.4682 18.8565 96.2167 
444 91.0526 23.6018 63.0397 41.9642 23.7757 36.5163 
445 59.6236 11.4396 23.0837 15.0449 8.80338 5.84577 
446 98 98 98 90.8815 95.5554 104.002 
447 15.7048 23.0561 34.648 5.16462 5.22638 10.8155 
448 8.19085 55.9647 72.5997 19.6694 23.9907 49.9794 
449 0.00000 0.00000 0.00000 1 1 1 
450 30.6357 11.3398 21.6509 5.24121 3.74983 4.91297 
451 62.2853 100 17.6541 50.9966 79.2696 15.9354 
452 42.3922 0.00000 17.0127 7.57367 4.33866 3.59818 
453 73.7866 58.1239 82.9792 43.805 37.3259 67.1773 
454 26.3694 9.64932 88.2061 17.09 8.23931 72.0409 
455 57.4543 42.1031 91.1483 32.5505 23.3738 79.577 
456 51.0888 80.1968 71.6147 40.0765 52.0777 52.9603 
457 82.0695 28.5851 55.3982 34.2425 21.0776 28.1824 
458 33.9239 89.9183 10.6493 32.8649 58.6968 11.4951 
459 80.692 63.0242 56.9448 43.7808 41.124 33.1041 
460 89.9244 26.1213 43.2798 37.8597 22.5957 17.9391 
461 73.472 12.2305 21.8994 22.5686 12.7667 5.82059 
462 80.003 35.5487 13.8333 29.6352 21.1823 4.98358 
463 26.7243 24.1205 8.88696 5.19929 5.63987 2.45972 
464 39.908 90.2717 92.0592 49.2791 65.8378 88.6214 
465 32.6963 72.6369 22.4314 22.5242 37.5742 10.7856 
466 90.9468 9.92166 73.1637 43.106 22.2084 49.194 
467 57.2461 67.0876 8.4579 27.3038 35.9652 7.09416 
468 54.2545 38.0536 61.8043 21.7464 17.2802 34.906 
469 86.3431 15.2375 30.011 32.2978 18.0448 9.50867 
470 51.1377 31.1684 26.0537 13.9645 11.7299 7.5598 
471 76.803 48.119 39.2151 32.7532 27.4623 16.3749 
472 39.0811 57.5355 79.3257 27.0402 28.468 60.4387 
473 9.80307 10.2417 26.4669 2.78287 2.34811 6.50179 
474 48.0433 10.4917 61.9565 15.51 8.34237 33.6823 
475 41.2243 8.92349 37.9827 9.21021 5.42998 12.5875 
476 74.6029 25.5089 17.7279 24.4301 15.8075 5.10347 
477 7.92965 8.73597 63.2881 7.98234 4.28891 34.8349 
478 90.7965 90.3864 75.0664 71.304 77.9446 61.2021 
479 54.5209 73.1874 27.1253 30.131 41.8921 12.9621 
480 53.0999 39.0161 78.6833 25.8173 19.2181 57.714 
481 41.1234 65.923 55.6744 25.4665 33.6596 31.347 
482 9.50722 42.6914 24.9793 7.68637 12.3567 7.59887 
483 43.4665 73.5573 90.857 39.5616 45.5095 82.9327 
