Pre-made_Targets/Patch Width 8-11mm - Expert (Use rig-guide-ruler)/Designed Targets/CM-Expert-A4-882p-2pages-w7.5mm-21x21-SpyderHighQ.TargetPlusGrays-Randomized/ArgyllPlusGrays.ti2
CTI2

DESCRIPTOR "Argyll Calibration Target chart information 2"
ORIGINATOR "Argyll printtarg"
CREATED "Sun Mar 30 10:45:00 2025"
TARGET_INSTRUMENT "X-Rite ColorMunki"
COMP_GREY_STEPS "51"
APPROX_WHITE_POINT "95.106486 100.000000 108.844025"
COLOR_REP "iRGB"
PAPER_SIZE "215.9x279.4"
RANDOM_START "576"
STEPS_IN_PASS "21"
PASSES_IN_STRIPS2 "21,21"
STRIP_INDEX_PATTERN "A-Z, A-Z"
PATCH_INDEX_PATTERN "0-9,@-9,@-9;1-999"
INDEX_ORDER "STRIP_THEN_PATCH"

NUMBER_OF_FIELDS 8
BEGIN_DATA_FORMAT
SAMPLE_ID SAMPLE_LOC RGB_R RGB_G RGB_B XYZ_X XYZ_Y XYZ_Z
END_DATA_FORMAT

NUMBER_OF_SETS 882
BEGIN_DATA
1 "X13" 100 100 100 95.1065 100 108.844
2 "AB7" 0.00000 31.7647 50.9804 7.87899 8.36247 23.011
3 "G1" 0.00000 44.3137 0.00000 6.85877 12.7159 2.95294
4 "AC11" 100 66.2745 84.7059 68.0794 54.8953 72.2581
5 "P9" 22.7451 0.00000 46.2745 5.9751 3.19132 18.106
6 "P5" 18.4314 26.2745 0.00000 4.13883 5.546 1.71219
7 "AM11" 80 80 80 57.8241 60.7789 66.1192
8 "P7" 31.7647 66.6667 87.0588 31.6693 36.4525 74.6828
9 "AB6" 54.5098 67.0588 43.9216 28.8204 36.2842 21.5725
10 "N15" 96.0784 96.0784 96.0784 86.7694 91.2293 99.2899
11 "AH16" 94.1176 94.1176 94.1176 82.7691 87.021 94.7056
12 "AP20" 92.1569 92.1569 92.1569 78.8798 82.9295 90.2486
13 "W17" 90.1961 90.1961 90.1961 75.1006 78.9538 85.9177
14 "L17" 87.8431 87.8431 87.8431 71.4306 75.093 81.712
15 "E10" 85.8824 85.8824 85.8824 67.8689 71.3461 77.6304
16 "N17" 83.9216 83.9216 83.9216 64.4146 67.7121 73.6717
17 "S15" 81.9608 81.9608 81.9608 61.0666 64.19 69.835
18 "AE8" 0.00000 0.00000 0.00000 1 1 1
19 "AH19" 78.0392 78.0392 78.0392 54.686 57.4777 62.523
20 "C6" 76.0784 76.0784 76.0784 51.6515 54.2853 59.0455
21 "AB10" 74.1176 74.1176 74.1176 48.7194 51.2008 55.6854
22 "A4" 72.1569 72.1569 72.1569 45.8888 48.223 52.4416
23 "T11" 69.8039 69.8039 69.8039 43.1586 45.3509 49.3129
24 "J14" 67.8431 67.8431 67.8431 40.5279 42.5833 46.2981
25 "W10" 65.8824 65.8824 65.8824 37.9954 39.9192 43.396
26 "S19" 63.9216 63.9216 63.9216 35.5603 37.3574 40.6053
27 "T17" 61.9608 61.9608 61.9608 33.2213 34.8968 37.9249
28 "Q5" 60 60 60 30.9773 32.5361 35.3534
29 "AD4" 58.0392 58.0392 58.0392 28.8273 30.2743 32.8895
30 "Q9" 56.0784 56.0784 56.0784 26.77 28.11 30.5318
31 "AO9" 54.1176 54.1176 54.1176 24.8042 26.0421 28.2792
32 "T9" 52.1569 52.1569 52.1569 22.9289 24.0692 26.13
33 "N19" 50.1961 50.1961 50.1961 21.1427 22.1901 24.0831
34 "AD19" 47.8431 47.8431 47.8431 19.4443 20.4034 22.1368
35 "AG6" 45.8824 45.8824 45.8824 17.8326 18.7079 20.2898
36 "AP6" 43.9216 43.9216 43.9216 16.3062 17.1021 18.5405
37 "AH14" 41.9608 41.9608 41.9608 14.8637 15.5846 16.8875
38 "AK19" 40 40 40 13.5038 14.154 15.3291
39 "AA20" 38.0392 38.0392 38.0392 12.225 12.8087 13.8637
40 "AO14" 36.0784 36.0784 36.0784 11.026 11.5474 12.4896
41 "O17" 34.1176 34.1176 34.1176 9.90526 10.3683 11.2052
42 "T7" 32.1569 32.1569 32.1569 8.8612 9.26998 10.0088
43 "AD12" 29.8039 29.8039 29.8039 7.89226 8.25066 8.89838
44 "AI7" 27.8431 27.8431 27.8431 6.99682 7.30866 7.87223
45 "AL8" 25.8824 25.8824 25.8824 6.1732 6.4422 6.92837
46 "B10" 23.9216 23.9216 23.9216 5.41964 5.64946 6.06481
47 "A21" 21.9608 21.9608 21.9608 4.73433 4.92851 5.27946
48 "A6" 20 20 20 4.11537 4.27737 4.57015
49 "AA14" 18.0392 18.0392 18.0392 3.56081 3.69397 3.93463
50 "AP19" 16.0784 16.0784 16.0784 3.06855 3.17611 3.37051
51 "O15" 14.1176 14.1176 14.1176 2.63643 2.72152 2.87531
52 "N21" 12.1569 12.1569 12.1569 2.26213 2.32776 2.44638
53 "D19" 10.1961 10.1961 10.1961 1.94321 1.99226 2.0809
54 "AF6" 7.84314 7.84314 7.84314 1.67704 1.71225 1.77587
55 "X1" 5.88235 5.88235 5.88235 1.46077 1.48473 1.52804
56 "T2" 3.92157 3.92157 3.92157 1.29131 1.30645 1.33383
57 "AJ7" 1.96078 1.96078 1.96078 1.14568 1.15325 1.16694
58 "U12" 66.6667 100 100 70.6891 87.4103 107.7
59 "J16" 33.3333 100 100 57.9854 80.8602 107.105
60 "AI13" 0.00000 100 100 54.2763 78.9478 106.931
61 "K9" 100 66.6667 100 73.9334 57.6597 101.786
62 "AF3" 66.6667 66.6667 100 49.516 45.0701 100.642
63 "H16" 33.3333 66.6667 100 36.8123 38.52 100.047
64 "I14" 0.00000 66.6667 100 33.1032 36.6075 99.873
65 "C9" 100 33.3333 100 62.9175 35.6311 98.1143
66 "AL3" 66.6667 33.3333 100 38.5002 23.0415 96.9701
67 "Y9" 33.3333 33.3333 100 25.7965 16.4914 96.3749
68 "L21" 0.00000 33.3333 100 22.0874 14.579 96.2011
69 "AK1" 100 0.00000 100 59.7013 29.1995 97.0422
70 "F21" 66.6667 0.00000 100 35.2839 16.6098 95.898
71 "C10" 33.3333 0.00000 100 22.5802 10.0597 95.3028
72 "AC3" 0.00000 0.00000 100 18.8711 8.14731 95.129
73 "H8" 100 100 66.6667 84.4192 95.7257 52.5528
74 "R6" 66.6667 100 66.6667 60.0018 83.1361 51.4087
75 "AL7" 33.3333 100 66.6667 47.2981 76.586 50.8134
76 "AO19" 0.00000 100 66.6667 43.589 74.6736 50.6396
77 "P17" 100 66.6667 66.6667 63.2461 53.3855 45.4951
78 "AH2" 66.6667 66.6667 66.6667 38.8287 40.7958 44.3509
79 "Z10" 33.3333 66.6667 66.6667 26.125 34.2457 43.7556
80 "AJ6" 0.00000 66.6667 66.6667 22.4159 32.3333 43.5818
81 "H10" 100 33.3333 66.6667 52.2302 31.3569 41.8231
82 "K19" 66.6667 33.3333 66.6667 27.8129 18.7672 40.6789
83 "AJ11" 33.3333 33.3333 66.6667 15.1091 12.2171 40.0837
84 "V2" 0.00000 33.3333 66.6667 11.4001 10.3047 39.9098
85 "O10" 100 0.00000 66.6667 49.014 24.9252 40.751
86 "AA8" 66.6667 0.00000 66.6667 24.5966 12.3356 39.6068
87 "AB20" 33.3333 0.00000 66.6667 11.8929 5.78548 39.0116
88 "F14" 0.00000 0.00000 66.6667 8.18379 3.87306 38.8378
89 "Q16" 100 100 33.3333 78.8588 93.502 23.2659
90 "D7" 66.6667 100 33.3333 54.4415 80.9123 22.1217
91 "AE16" 33.3333 100 33.3333 41.7377 74.3622 21.5265
92 "Z11" 0.00000 100 33.3333 38.0287 72.4498 21.3527
93 "G14" 100 66.6667 33.3333 57.6857 51.1617 16.2081
94 "K2" 66.6667 66.6667 33.3333 33.2684 38.572 15.064
95 "AM10" 33.3333 66.6667 33.3333 20.5646 32.0219 14.4687
96 "P21" 0.00000 66.6667 33.3333 16.8555 30.1095 14.2949
97 "M18" 100 33.3333 33.3333 46.6699 29.1331 12.5362
98 "AG20" 66.6667 33.3333 33.3333 22.2525 16.5434 11.392
99 "E1" 33.3333 33.3333 33.3333 9.54879 9.99333 10.7967
100 "V21" 0.00000 33.3333 33.3333 5.83971 8.08091 10.6229
101 "C18" 100 0.00000 33.3333 43.4536 22.7014 11.4641
102 "AB13" 66.6667 0.00000 33.3333 19.0363 10.1118 10.3199
103 "C15" 33.3333 0.00000 33.3333 6.33252 3.56169 9.72464
104 "B5" 0.00000 0.00000 33.3333 2.62344 1.64927 9.55084
105 "AN5" 100 100 0.00000 77.2354 92.8527 14.7151
106 "P16" 66.6667 100 0.00000 52.818 80.263 13.5709
107 "AJ12" 33.3333 100 0.00000 40.1143 73.7129 12.9756
108 "A10" 0.00000 100 0.00000 36.4052 71.8005 12.8018
109 "A1" 100 66.6667 0.00000 56.0623 50.5124 7.65731
110 "P2" 66.6667 66.6667 0.00000 31.6449 37.9227 6.51315
111 "M7" 33.3333 66.6667 0.00000 18.9412 31.3726 5.91788
112 "J18" 0.00000 66.6667 0.00000 15.2321 29.4602 5.74408
113 "AH8" 100 33.3333 0.00000 45.0464 28.4838 3.98533
114 "AB8" 66.6667 33.3333 0.00000 20.6291 15.8941 2.84118
115 "AL4" 33.3333 33.3333 0.00000 7.92535 9.34406 2.2459
116 "U3" 0.00000 33.3333 0.00000 4.21627 7.43164 2.0721
117 "K4" 100 0.00000 0.00000 41.8302 22.0522 2.91323
118 "N6" 66.6667 0.00000 0.00000 17.4128 9.4625 1.76908
119 "K1" 33.3333 0.00000 0.00000 4.70908 2.91242 1.1738
120 "R20" 83.1373 83.1373 83.1373 63.2868 66.5257 72.3793
121 "AP13" 50.1961 83.1373 83.1373 45.0016 57.0978 71.5225
122 "AF8" 16.8627 83.1373 83.1373 37.228 53.0897 71.1583
123 "Y6" 83.1373 50.1961 83.1373 47.4311 34.8188 67.0941
124 "J2" 50.1961 50.1961 83.1373 29.146 25.3909 66.2373
125 "V14" 16.8627 50.1961 83.1373 21.3724 21.3828 65.873
126 "D16" 83.1373 16.8627 83.1373 40.6904 21.3392 64.8471
127 "AL17" 50.1961 16.8627 83.1373 22.4052 11.9113 63.9903
128 "Z15" 16.8627 16.8627 83.1373 14.6316 7.90317 63.6261
129 "O3" 83.1373 83.1373 50.1961 55.2835 63.3249 30.2251
130 "L8" 50.1961 83.1373 50.1961 36.9983 53.897 29.3683
131 "R7" 16.8627 83.1373 50.1961 29.2247 49.8889 29.0041
132 "A12" 83.1373 50.1961 50.1961 39.4278 31.618 24.9399
133 "AF12" 16.8627 50.1961 50.1961 13.3691 18.182 23.7188
134 "R14" 83.1373 16.8627 50.1961 32.6871 18.1383 22.6929
135 "F4" 50.1961 16.8627 50.1961 14.4019 8.71045 21.8361
136 "A8" 16.8627 16.8627 50.1961 6.6283 4.70235 21.4719
137 "J21" 83.1373 83.1373 16.8627 51.881 61.9641 12.304
138 "B12" 50.1961 83.1373 16.8627 33.5959 52.5362 11.4472
139 "M11" 16.8627 83.1373 16.8627 25.8223 48.5281 11.083
140 "B18" 83.1373 50.1961 16.8627 36.0254 30.2572 7.01877
141 "AB15" 50.1961 50.1961 16.8627 17.7402 20.8293 6.16196
142 "W3" 16.8627 50.1961 16.8627 9.9666 16.8212 5.79771
143 "V9" 83.1373 16.8627 16.8627 29.2846 16.7776 4.77184
144 "AL12" 50.1961 16.8627 16.8627 10.9994 7.34968 3.91503
145 "S14" 16.8627 16.8627 16.8627 3.22584 3.34159 3.55077
146 "S8" 17.2549 0.00000 100 19.8837 8.6694 95.1764
147 "AH21" 100 0.00000 55.6863 46.6827 23.9929 28.4722
148 "T6" 100 77.6471 0.00000 61.8671 62.1204 9.59226
149 "A5" 77.6471 0.00000 0.00000 24.1534 12.938 2.08493
150 "AA17" 0.00000 0.00000 55.2941 5.79527 2.9178 26.2572
151 "J4" 100 11.3725 100 60.1352 30.0671 97.1868
152 "B9" 16.8627 100 100 55.2653 79.4577 106.977
153 "Z16" 50.1961 100 0.00000 45.2015 76.3359 13.214
154 "AJ1" 100 44.3137 0.00000 47.7313 33.8528 4.88029
155 "AG19" 100 100 11.3725 77.4551 92.9406 15.8724
156 "T5" 100 0.00000 15.6863 42.2122 22.2049 4.92525
157 "AJ19" 44.7059 100 100 61.1725 82.5035 107.254
158 "AF20" 100 78.0392 100 79.8661 69.5236 103.764
159 "T15" 0.00000 55.2941 0.00000 10.4779 19.9531 4.15932
160 "L10" 0.00000 23.1373 100 20.3952 11.1951 95.637
161 "AL14" 44.7059 0.00000 100 25.6921 11.6642 95.4486
162 "S11" 0.00000 100 50.5882 40.3234 73.3676 33.4394
163 "P10" 71.3725 0.00000 17.6471 20.5922 11.047 4.39304
164 "J12" 100 100 22.3529 77.973 93.1477 18.6
165 "M17" 54.1176 0.00000 43.9216 14.201 7.47309 16.6638
166 "AI6" 0.00000 84.3137 80.7843 36.1329 53.53 67.3785
167 "H20" 100 22.7451 100 61.1771 32.1508 97.5341
168 "AP12" 48.2353 21.5686 0.00000 10.4353 7.84296 1.82395
169 "AI16" 0.00000 0.00000 17.2549 1.45079 1.18029 3.37434
170 "AI21" 0.00000 36.4706 83.1373 16.6551 13.4198 64.4631
171 "O5" 56.0784 100 100 65.4565 84.7124 107.455
172 "L14" 55.6863 0.00000 100 29.959 13.8643 95.6485
173 "V20" 35.6863 49.8039 0.00000 12.7424 18.1884 3.69941
174 "AF10" 0.00000 0.00000 82.7451 12.6619 5.66404 62.4247
175 "D9" 84.3137 20.3922 100 47.8249 24.9016 96.8381
176 "O9" 0.00000 100 16.4706 36.8252 71.9685 15.0138
177 "S13" 0.00000 84.3137 29.0196 26.3014 49.6492 15.4369
178 "AG14" 100 0.00000 44.7059 44.8487 23.2594 18.8123
179 "T10" 18.0392 0.00000 72.9412 10.915 5.09199 47.5097
180 "D12" 100 16.0784 0.00000 42.6093 23.6103 3.17295
181 "AN7" 100 20.7843 14.1176 43.4104 24.6988 5.02333
182 "E17" 0.00000 44.3137 100 24.745 19.8934 97.0869
183 "Y19" 100 100 50.5882 81.1764 94.4288 35.4727
184 "X19" 50.9804 100 30.5882 46.914 77.0615 20.3992
185 "AK11" 69.4118 0.00000 82.7451 30.5734 14.9076 62.8862
186 "AH15" 76.0784 25.4902 0.00000 24.8387 16.0399 2.64759
187 "Q12" 100 0.00000 82.7451 53.4498 26.6993 64.1148
188 "W8" 64.7059 50.1961 100 41.8894 31.428 98.4105
189 "AD5" 50.1961 72.9412 0.00000 27.1674 40.304 7.20862
190 "AP3" 0.00000 16.8627 65.098 8.66665 5.44946 37.115
191 "Z3" 0.00000 77.6471 100 38.9463 48.292 101.821
192 "F12" 83.9216 100 0.00000 63.8222 85.9368 14.0865
193 "AF14" 83.5294 0.00000 100 46.0512 22.1615 96.4026
194 "F18" 0.00000 100 82.7451 48.1023 76.4786 74.4116
195 "F11" 21.9608 85.4902 0.00000 27.4485 51.511 9.35709
196 "E2" 85.4902 100 25.8824 66.0207 86.9568 19.3144
197 "AL11" 0.00000 83.9216 0.00000 24.7333 48.46 8.91118
198 "I6" 0.00000 0.00000 44.3137 3.97404 2.18943 16.6646
199 "V1" 100 50.5882 100 67.4527 44.7002 99.626
200 "B2" 49.8039 0.00000 0.00000 9.70167 5.48661 1.40775
201 "U17" 0.00000 43.5294 15.6863 6.96229 12.3038 4.89665
202 "B1" 100 88.6275 0.00000 68.74 75.8642 11.8832
203 "AN12" 0.00000 11.7647 100 19.3194 9.04381 95.2784
204 "Y21" 100 55.6863 0.00000 51.3696 41.1283 6.09306
205 "AG5" 89.0196 0.00000 0.00000 32.2803 17.1282 2.46574
206 "M5" 0.00000 16.0784 0.00000 1.77296 2.54571 1.25766
207 "R3" 100 89.0196 100 86.9435 83.6764 106.123
208 "L7" 100 100 83.5294 89.1042 97.5994 77.2291
209 "Q20" 54.1176 83.1373 100 52.5518 60.0678 103.377
210 "W19" 17.2549 0.00000 0.00000 2.03653 1.53444 1.04857
211 "R1" 0.00000 73.7255 51.7647 23.0264 38.4353 28.7318
212 "J9" 82.3529 100 100 80.6742 92.5586 108.168
213 "T18" 16.4706 100 0.00000 37.3581 72.2918 12.8465
214 "U6" 100 100 100 95.1065 100 108.844
215 "AP11" 20.3922 85.8824 100 45.3552 59.0297 103.556
216 "AK7" 0.00000 49.8039 56.4706 13.5592 18.1414 29.7771
217 "AK9" 100 85.098 66.2745 73.5472 74.1263 48.4927
218 "O7" 83.1373 70.5882 100 61.9519 54.3894 101.786
219 "AI19" 56.8627 100 84.3137 60.1389 82.6304 77.4274
220 "U2" 71.7647 100 84.7059 67.89 86.6165 78.2568
221 "F1" 13.3333 0.00000 15.6863 2.03937 1.49181 3.03837
222 "E3" 0.00000 0.00000 0.00000 1 1 1
223 "S2" 100 82.7451 82.3529 76.3798 72.6549 71.4437
224 "G6" 0.00000 43.5294 43.5294 9.45299 13.3931 17.7281
225 "AB17" 100 49.8039 63.5294 55.8222 39.6399 39.6275
226 "E20" 0.00000 18.4314 32.549 3.54415 3.62934 9.42932
227 "O2" 47.451 50.5882 100 34.429 27.6989 98.0836
228 "AA9" 0.00000 28.6275 16.8627 3.75866 5.82713 4.04576
229 "C20" 100 84.7059 36.0784 67.9314 71.2053 20.9952
230 "AF13" 100 100 100 95.1065 100 108.844
231 "AJ8" 100 63.5294 49.8039 58.4229 49.1666 27.153
232 "AD7" 73.7255 100 48.6275 60.5353 83.8263 32.6961
233 "S17" 65.8824 50.1961 0.00000 24.7398 24.6689 4.31846
234 "U5" 81.9608 54.5098 100 54.2097 39.9738 99.4112
235 "AK3" 27.451 100 82.3529 50.3854 77.6834 73.2748
236 "AA13" 100 51.3725 32.1569 51.3981 38.762 13.5761
237 "Z13" 0.00000 69.8039 81.9608 28.051 36.9184 66.0723
238 "S21" 100 31.7647 51.3725 48.8281 29.5566 25.2597
239 "AG18" 100 16.4706 42.7451 45.4004 24.7993 17.649
240 "Y16" 50.9804 38.0392 0.00000 14.3429 14.1387 2.83341
241 "AK13" 56.8627 0.00000 17.2549 13.0154 7.14355 3.89326
242 "AA19" 41.5686 100 45.4902 45.4088 76.0831 29.4584
243 "AC19" 0.00000 0.00000 0.00000 1 1 1
244 "AL9" 100 18.4314 71.3725 51.2464 27.4408 47.5051
245 "D5" 70.9804 0.00000 50.5882 23.749 12.2755 22.5536
246 "AC21" 100 70.9804 19.2157 58.8212 55.1451 11.3043
247 "B13" 58.8235 100 47.451 52.3048 79.6033 31.3786
248 "J5" 61.9608 84.7059 0.00000 39.0756 56.5509 9.71756
249 "O21" 0.00000 18.0392 81.9608 13.4061 7.5223 61.5313
250 "AM14" 48.2353 0.00000 70.1961 17.2138 8.42748 43.842
251 "Z5" 100 51.3725 80.3922 60.7795 42.4777 63.1011
252 "Z18" 52.9412 18.8235 100 29.7854 15.3037 95.9355
253 "A7" 18.4314 71.7647 100 36.8729 42.4493 100.802
254 "AI2" 16.0784 100 63.9216 43.8117 74.8665 47.1265
255 "A16" 27.451 100 14.902 39.22 73.2122 14.7239
256 "AG2" 86.2745 100 86.6667 78.4342 91.9813 81.9942
257 "U18" 17.2549 40.3922 0.00000 6.88682 11.234 2.66541
258 "AK12" 85.098 72.9412 0.00000 46.7623 50.3875 8.123
259 "AD8" 15.6863 0.00000 32.9412 3.4506 2.07896 9.44525
260 "N12" 38.8235 0.00000 50.5882 10.0048 5.18946 21.8875
261 "Z8" 48.6275 100 72.1569 53.3006 79.5168 58.5015
262 "AL13" 20.7843 13.7255 100 20.9044 10.0869 95.3963
263 "AP14" 27.8431 0.00000 17.2549 4.03552 2.51294 3.4973
264 "AD1" 83.5294 0.00000 66.2745 35.1758 17.8045 39.4583
265 "G12" 14.5098 100 41.9608 39.7693 73.233 26.5923
266 "G4" 0.00000 84.3137 65.098 31.799 51.7077 44.8259
267 "K14" 83.1373 42.3529 0.00000 33.1448 25.4172 4.02023
268 "C1" 84.7059 0.00000 46.6667 32.3934 16.8077 19.5699
269 "AJ2" 16.0784 0.00000 58.4314 7.3095 3.62926 29.4552
270 "AM13" 88.6275 27.8431 0.00000 34.262 21.4186 3.18954
271 "X4" 0.00000 49.8039 30.1961 9.83782 16.5611 10.4598
272 "M2" 34.1176 0.00000 83.5294 16.7485 7.74573 63.7611
273 "AO2" 16.0784 70.9804 0.00000 18.3473 34.3715 6.52803
274 "E13" 82.7451 57.6471 0.00000 37.8307 35.2685 5.67501
275 "B3" 0.00000 89.0196 100 45.9768 62.3512 104.164
276 "E19" 17.2549 56.4706 100 29.7994 28.5048 98.483
277 "AI11" 82.3529 38.4314 100 49.6249 30.3848 97.8017
278 "AN18" 100 37.6471 18.0392 46.4493 30.5182 6.83066
279 "AN13" 61.9608 15.2941 0.00000 15.6314 9.62872 1.89499
280 "Z7" 0.00000 54.902 82.3529 21.812 24.159 64.8661
281 "AI8" 83.5294 100 72.549 72.4134 89.3589 59.9605
282 "AB16" 0.00000 55.2941 100 28.3069 27.0163 98.2743
283 "Q4" 53.7255 0.00000 83.9216 23.3703 11.1372 65.0947
284 "AE9" 31.7647 49.4118 100 29.6654 24.7267 97.7607
285 "W18" 100 55.2941 16.8627 51.6871 41.0851 8.2905
286 "Y17" 16.0784 26.6667 100 21.8406 12.7337 95.8579
287 "I9" 49.0196 35.6863 100 31.0207 19.9321 96.7639
288 "X6" 13.3333 100 83.5294 48.8932 76.8712 75.1368
289 "AK20" 43.1373 100 16.8627 43.2151 75.2622 15.3552
290 "AI4" 0.00000 61.5686 18.0392 13.431 25.0836 7.53337
291 "AN20" 50.1961 66.2745 100 41.745 40.7868 100.225
292 "K15" 83.9216 0.00000 32.1569 29.8767 15.715 10.2025
293 "T8" 100 16.8627 28.2353 43.8539 24.2441 9.30842
294 "Q8" 0.00000 86.2745 45.098 29.3188 52.6859 25.6864
295 "W16" 0.00000 15.6863 47.451 5.1677 3.88426 19.1971
296 "P8" 50.9804 56.0784 0.00000 19.9248 25.293 4.69253
297 "AD3" 80.7843 13.3333 0.00000 26.6697 15.0746 2.36483
298 "F17" 70.1961 83.9216 100 61.0555 65.3383 103.947
299 "AO7" 100 80.3922 51.3725 67.4403 66.8006 31.3873
300 "AP15" 85.098 0.00000 82.7451 40.8679 20.213 63.4796
301 "V12" 26.6667 100 52.549 43.019 74.7214 35.191
302 "K21" 40 85.098 0.00000 30.8409 52.7025 9.40843
303 "H11" 0.00000 14.1176 17.6471 2.10386 2.44407 3.72212
304 "O11" 85.8824 0.00000 17.6471 30.4243 16.1168 4.83895
305 "AJ15" 100 16.8627 57.2549 47.8006 25.7873 30.2047
306 "W21" 54.902 0.00000 57.2549 16.8441 8.57598 28.5193
307 "M15" 30.9804 55.2941 63.1373 19.9715 23.953 38.0393
308 "AC9" 35.2941 14.5098 0.00000 5.7995 4.46597 1.41625
309 "Y1" 11.7647 38.8235 46.2745 9.16578 11.3257 19.6467
310 "L5" 47.451 0.00000 31.3725 10.2007 5.57814 8.91273
311 "I10" 54.5098 70.9804 84.3137 40.1302 44.173 71.0943
312 "H7" 100 36.4706 83.9216 57.796 34.6609 67.814
313 "B8" 54.5098 59.2157 33.3333 24.2033 29.1087 13.8131
314 "AF16" 79.6078 75.2941 60.7843 49.9615 53.3378 39.3778
315 "K11" 66.2745 63.5294 48.2353 33.3923 36.2303 24.5058
316 "W14" 39.2157 41.5686 25.4902 12.2437 14.2721 7.90501
317 "AI3" 58.0392 41.5686 50.9804 22.0969 18.9222 24.1086
318 "L2" 81.9608 48.6275 70.5882 42.3973 31.9633 47.6677
319 "I8" 45.098 59.2157 41.5686 21.6095 27.6824 18.4482
320 "Y4" 43.1373 70.1961 74.5098 32.4603 39.8301 55.0395
321 "AA11" 25.098 43.5294 26.2745 9.78796 13.8406 8.33017
322 "Y20" 50.5882 16.8627 38.4314 13.0218 8.19328 13.1497
323 "N10" 72.9412 89.0196 62.7451 54.5523 68.2964 44.079
324 "B17" 25.8824 64.7059 75.6863 25.9435 32.4146 55.6008
325 "AP1" 18.8235 79.2157 65.098 29.8514 46.0498 43.718
326 "AF7" 86.6667 61.5686 25.098 43.4093 40.5722 11.1659
327 "AK2" 63.1373 28.6275 43.5294 20.732 14.3336 17.4867
328 "B11" 69.8039 40.7843 10.1961 24.2296 20.1611 4.42936
329 "L11" 23.5294 44.3137 67.0588 15.9944 16.5669 41.4747
330 "A11" 86.6667 100 41.1765 68.365 87.9874 27.4644
331 "O6" 23.5294 30.5882 44.7059 8.543 8.53947 17.6948
332 "D10" 45.4902 58.4314 64.3137 25.3922 28.7195 39.6421
333 "AG9" 14.5098 47.8431 37.2549 10.7375 16.075 14.1414
334 "U10" 25.4902 27.8431 90.5882 19.7247 12.2766 77.321
335 "AN10" 80.3922 30.9804 31.3725 30.1354 19.9619 10.602
336 "F2" 100 18.8235 85.4902 55.4433 29.1971 69.3703
337 "X15" 65.8824 80 33.7255 40.1418 52.8265 17.7404
338 "R11" 55.6863 25.8824 72.1569 22.4828 13.9512 47.0751
339 "X21" 71.7647 39.6078 90.5882 39.175 25.8945 78.7269
340 "AM21" 59.2157 78.0392 44.3137 36.7413 48.983 23.955
341 "AO16" 37.6471 82.3529 100 46.422 56.132 102.94
342 "AK15" 43.9216 21.9608 72.549 17.6296 10.658 47.2532
343 "Q10" 43.1373 76.0784 32.9412 27.9503 42.9473 15.9133
344 "H18" 61.9608 10.1961 57.6471 20.6002 11.0514 29.3205
345 "O16" 54.5098 89.0196 65.098 45.5637 63.4492 46.6325
346 "AE14" 11.7647 60 20 13.4328 24.1165 7.89014
347 "Z2" 85.098 38.4314 63.1373 40.1342 26.8667 37.2634
348 "X8" 88.2353 8.23529 58.0392 37.3321 19.5168 30.5506
349 "AP7" 10.1961 75.2941 37.2549 22.0154 39.1607 17.8747
350 "E6" 39.6078 72.1569 44.7059 26.2502 38.8247 22.8343
351 "AL10" 41.9608 74.1176 13.7255 25.2459 40.1301 8.81394
352 "J7" 87.8431 27.8431 76.0784 43.2704 25.0099 53.6684
353 "J11" 10.9804 20.7843 60.3922 8.51886 6.05294 32.0225
354 "AB2" 0.00000 79.2157 14.5098 22.1407 42.745 9.68322
355 "E21" 36.8627 18.4314 100 24.4175 12.49 95.6751
356 "Y12" 48.6275 100 58.0392 49.884 78.139 41.0179
357 "AJ9" 90.1961 75.2941 27.0588 53.0197 55.43 14.3826
358 "R16" 100 47.0588 47.0588 51.8871 36.8007 22.8038
359 "D2" 75.6863 8.23529 32.9412 24.5447 13.3476 10.5299
360 "AC8" 64.3137 72.9412 18.0392 33.9787 43.7851 10.1132
361 "AM19" 77.6471 100 13.7255 59.8144 83.8349 15.4985
362 "Q11" 37.6471 19.2157 26.6667 7.88138 6.02252 6.96995
363 "V17" 75.2941 76.4706 25.4902 42.7965 51.1579 13.4373
364 "AE7" 23.5294 91.3725 30.9804 33.1529 60.3172 18.0253
365 "P14" 0.00000 47.451 69.0196 15.5281 17.6447 44.1078
366 "H13" 26.2745 52.9412 75.6863 21.4726 23.2774 54.3228
367 "I12" 26.2745 47.8431 8.23529 10.3179 16.0542 4.12474
368 "O13" 64.7059 45.4902 64.7059 29.1253 23.8717 39.0105
369 "AA10" 36.8627 79.2157 80.7843 37.5926 49.6617 66.5927
370 "N3" 16.0784 0.00000 86.6667 14.7847 6.61713 68.907
371 "E15" 84.3137 100 58.4314 69.5638 88.2738 42.4888
372 "AC14" 65.8824 64.3137 78.0392 40.3352 39.7158 59.929
373 "AP8" 74.902 57.2549 31.7647 33.9239 32.9564 13.135
374 "Q13" 9.01961 31.3725 90.5882 18.5166 12.5948 77.4441
375 "AD11" 70.9804 17.2549 79.2157 31.293 16.7167 58.0202
376 "T1" 31.7647 85.4902 22.7451 30.0373 52.8881 13.4242
377 "AN3" 10.1961 68.6275 59.6078 22.1015 33.618 35.5535
378 "C11" 59.2157 25.8824 19.2157 16.1638 11.5813 5.11349
379 "AD14" 90.9804 74.902 91.3725 66.8152 60.5065 85.2571
380 "O20" 100 100 100 95.1065 100 108.844
381 "K12" 89.8039 41.5686 23.1373 38.7789 28.0285 8.32027
382 "AO18" 0.00000 60 47.0588 15.7401 25.0659 22.5987
383 "AG7" 90.5882 61.9608 10.9804 46.029 42.2149 7.69821
384 "AL6" 52.9412 72.549 55.6863 32.8452 42.334 32.7048
385 "AH11" 40.7843 46.6667 72.549 21.9314 20.5344 49.2326
386 "Y8" 52.549 37.6471 38.0392 17.011 15.0909 14.1397
387 "D3" 90.1961 73.3333 43.9216 53.7314 54.0501 23.5658
388 "AE1" 87.8431 50.1961 31.7647 40.4483 32.5865 12.7208
389 "N5" 32.549 10.9804 46.2745 8.19855 4.96102 18.3002
390 "I11" 32.1569 24.7059 79.2157 16.8078 10.5286 57.5645
391 "AN16" 78.8235 85.4902 0.00000 49.6247 62.9388 10.395
392 "O18" 14.1176 100 22.7451 37.8867 72.4782 16.759
393 "AF5" 18.0392 55.6863 0.00000 11.6094 20.5825 4.22123
394 "W5" 30.1961 20.3922 37.2549 7.31215 5.84296 12.305
395 "AO15" 18.0392 41.5686 100 25.0402 18.8519 96.8703
396 "J17" 74.5098 43.1373 56.4706 32.6718 24.9434 30.2014
397 "AP10" 42.7451 60 90.9804 33.0155 32.5834 81.3807
398 "S9" 62.3529 52.9412 39.6078 25.9986 26.3648 16.7075
399 "V4" 85.4902 86.6667 63.5294 61.711 69.4778 44.7865
400 "V5" 17.2549 73.7255 87.8431 33.0992 42.3412 77.1783
401 "H5" 75.6863 90.1961 30.5882 52.1207 68.9327 18.5086
402 "X10" 61.1765 30.5882 81.9608 28.7229 18.0109 62.8471
403 "E11" 19.2157 33.3333 16.8627 5.89213 8.25063 4.42087
404 "K17" 36.8627 76.4706 64.3137 31.6251 44.863 42.5299
405 "T20" 41.9608 100 85.8824 55.0834 79.9687 79.6763
406 "X17" 85.098 87.0588 100 73.1108 74.5643 105.093
407 "G2" 54.5098 29.4118 8.23529 14.0866 11.407 3.04518
408 "R18" 24.7059 10.1961 70.5882 11.4828 6.00681 43.9299
409 "A14" 89.0196 54.5098 60.3922 47.1625 37.767 35.8827
410 "AN15" 69.0196 29.0196 54.902 25.8291 16.8242 27.3413
411 "I15" 70.5882 88.6275 16.4706 46.9234 64.4215 12.9517
412 "AF21" 16.8627 12.9412 0.00000 2.54532 2.60514 1.22845
413 "AM4" 74.1176 14.5098 58.4314 27.8832 15.205 30.3734
414 "AG3" 43.1373 30.1961 58.4314 15.4282 11.7669 30.4963
415 "N1" 42.3529 30.1961 87.451 22.9081 14.712 71.3276
416 "AJ13" 27.451 88.6275 62.7451 36.7259 58.7057 43.1687
417 "D20" 62.3529 19.6078 87.451 29.4707 15.8518 71.7412
418 "F16" 92.549 41.5686 73.7255 49.2074 32.4172 51.5137
419 "AM20" 42.3529 44.3137 59.2157 18.615 18.197 32.5589
420 "T3" 44.7059 51.7647 31.3725 17.4476 21.4502 11.6474
421 "Y7" 40 86.6667 40.3922 34.4849 56.0973 22.4593
422 "G8" 9.41176 75.6863 72.1569 28.8725 42.4754 52.4969
423 "S4" 60.3922 89.4118 76.0784 51.4928 66.8148 61.8058
424 "M4" 12.1569 65.8824 47.451 18.8196 30.3702 23.5474
