Pre-made_Targets/Patch Width 8-11mm - Expert (Use rig-guide-ruler)/Generated Targets/CM-Expert-A4-440p-1page-w9.0mm-20x22/CM-Expert-A4-440p-1page.ti1
CTI1   

DESCRIPTOR "Argyll Calibration Target chart information 1"
ORIGINATOR "Argyll targen"
CREATED "Mon Feb  9 15:41:01 2026"
APPROX_WHITE_POINT "95.106486 100.000000 108.844025"
COLOR_REP "iRGB"
TOTAL_INK_LIMIT "300.0"
WHITE_COLOR_PATCHES "5"
BLACK_COLOR_PATCHES "5"
COMP_GREY_STEPS "66"
IFP_PATCHES "366"

NUMBER_OF_FIELDS 7
BEGIN_DATA_FORMAT
SAMPLE_ID RGB_R RGB_G RGB_B XYZ_X XYZ_Y XYZ_Z 
END_DATA_FORMAT

NUMBER_OF_SETS 440
BEGIN_DATA
1 100.0000 100.0000 100.0000 95.10649 100.0000 108.8440 
2 100.0000 100.0000 100.0000 95.10649 100.0000 108.8440 
3 100.0000 100.0000 100.0000 95.10649 100.0000 108.8440 
4 100.0000 100.0000 100.0000 95.10649 100.0000 108.8440 
5 100.0000 100.0000 100.0000 95.10649 100.0000 108.8440 
6 0.00000 0.00000 0.00000 1.000000 1.000000 1.000000 
7 0.00000 0.00000 0.00000 1.000000 1.000000 1.000000 
8 0.00000 0.00000 0.00000 1.000000 1.000000 1.000000 
9 0.00000 0.00000 0.00000 1.000000 1.000000 1.000000 
10 0.00000 0.00000 0.00000 1.000000 1.000000 1.000000 
11 98.46154 98.46154 98.46154 91.84649 96.57048 105.1081 
12 96.92308 96.92308 96.92308 88.65333 93.21128 101.4488 
13 95.38462 95.38462 95.38462 85.52662 89.92199 97.86571 
14 93.84615 93.84615 93.84615 82.46596 86.70217 94.35826 
15 92.30769 92.30769 92.30769 79.47095 83.55141 90.92603 
16 90.76923 90.76923 90.76923 76.54116 80.46928 87.56856 
17 89.23077 89.23077 89.23077 73.67620 77.45534 84.28537 
18 87.69231 87.69231 87.69231 70.87564 74.50916 81.07600 
19 86.15385 86.15385 86.15385 68.13907 71.63028 77.93994 
20 84.61538 84.61538 84.61538 65.46606 68.81828 74.87673 
21 83.07692 83.07692 83.07692 62.85618 66.07268 71.88586 
22 81.53846 81.53846 81.53846 60.30899 63.39305 68.96684 
23 80.00000 80.00000 80.00000 57.82407 60.77891 66.11917 
24 78.46154 78.46154 78.46154 55.40096 58.22980 63.34234 
25 76.92308 76.92308 76.92308 53.03923 55.74525 60.63584 
26 75.38462 75.38462 75.38462 50.73841 53.32479 57.99915 
27 73.84615 73.84615 73.84615 48.49805 50.96794 55.43175 
28 72.30769 72.30769 72.30769 46.31769 48.67420 52.93310 
29 70.76923 70.76923 70.76923 44.19686 46.44308 50.50267 
30 69.23077 69.23077 69.23077 42.13508 44.27409 48.13992 
31 67.69231 67.69231 67.69231 40.13188 42.16673 45.84430 
32 66.15385 66.15385 66.15385 38.18677 40.12047 43.61525 
33 64.61538 64.61538 64.61538 36.29926 38.13481 41.45220 
34 63.07692 63.07692 63.07692 34.46885 36.20923 39.35459 
35 61.53846 61.53846 61.53846 32.69504 34.34318 37.32184 
36 60.00000 60.00000 60.00000 30.97732 32.53613 35.35337 
37 58.46154 58.46154 58.46154 29.31516 30.78754 33.44857 
38 56.92308 56.92308 56.92308 27.70804 29.09685 31.60685 
39 55.38462 55.38462 55.38462 26.15543 27.46351 29.82759 
40 53.84615 53.84615 53.84615 24.65679 25.88694 28.11018 
41 52.30769 52.30769 52.30769 23.21157 24.36656 26.45398 
42 50.76923 50.76923 50.76923 21.81920 22.90179 24.85836 
43 49.23077 49.23077 49.23077 20.47912 21.49203 23.32266 
44 47.69231 47.69231 47.69231 19.19076 20.13668 21.84622 
45 46.15385 46.15385 46.15385 17.95353 18.83511 20.42838 
46 44.61538 44.61538 44.61538 16.76682 17.58669 19.06844 
47 43.07692 43.07692 43.07692 15.63004 16.39080 17.76572 
48 41.53846 41.53846 41.53846 14.54257 15.24678 16.51950 
49 40.00000 40.00000 40.00000 13.50377 14.15396 15.32905 
50 38.46154 38.46154 38.46154 12.51300 13.11168 14.19365 
51 36.92308 36.92308 36.92308 11.56961 12.11922 13.11254 
52 35.38462 35.38462 35.38462 10.67292 11.17591 12.08496 
53 33.84615 33.84615 33.84615 9.822246 10.28100 11.11011 
54 32.30769 32.30769 32.30769 9.016893 9.433769 10.18719 
55 30.76923 30.76923 30.76923 8.256140 8.633458 9.315382 
56 29.23077 29.23077 29.23077 7.539254 7.879294 8.493846 
57 27.69231 27.69231 27.69231 6.865480 7.170483 7.721714 
58 26.15385 26.15385 26.15385 6.234042 6.506211 6.998101 
59 24.61538 24.61538 24.61538 5.644146 5.885640 6.322092 
60 23.07692 23.07692 23.07692 5.094970 5.307908 5.692749 
61 21.53846 21.53846 21.53846 4.585671 4.772125 5.109102 
62 20.00000 20.00000 20.00000 4.115373 4.277372 4.570151 
63 18.46154 18.46154 18.46154 3.683175 3.822699 4.074861 
64 16.92308 16.92308 16.92308 3.288138 3.407120 3.622157 
65 15.38462 15.38462 15.38462 2.929289 3.029611 3.210924 
66 13.84615 13.84615 13.84615 2.605613 2.689104 2.839998 
67 12.30769 12.30769 12.30769 2.316049 2.384483 2.508164 
68 10.76923 10.76923 10.76923 2.059484 2.114577 2.214146 
69 9.230769 9.230769 9.230769 1.834747 1.878153 1.956602 
70 7.692308 7.692308 7.692308 1.640595 1.673906 1.734108 
71 6.153846 6.153846 6.153846 1.475707 1.500444 1.545151 
72 4.615385 4.615385 4.615385 1.338666 1.356276 1.388104 
73 3.076923 3.076923 3.076923 1.224116 1.235770 1.256833 
74 1.538462 1.538462 1.538462 1.112058 1.117885 1.128416 
75 0.00000 0.00000 100.0000 18.87111 8.147314 95.12896 
76 0.00000 100.0000 0.00000 36.40521 71.80052 12.80184 
77 100.0000 0.00000 0.00000 41.83017 22.05217 2.913230 
78 100.0000 88.10972 35.29135 70.22949 75.92027 21.39313 
79 77.55339 0.00000 52.43656 28.23563 14.55228 24.41343 
80 41.56429 39.69498 0.00000 11.51239 13.29005 2.818669 
81 0.00000 95.49433 78.45687 43.21362 68.89042 66.03481 
82 89.06139 52.33141 52.30770 44.97985 35.60257 27.47637 
83 0.00000 40.17741 75.67608 15.27574 14.30576 52.76443 
84 92.33880 0.00000 100.0000 52.94345 25.71512 96.72553 
85 37.94831 0.00000 0.00000 5.856353 3.503951 1.227560 
86 0.00000 77.11012 97.27833 37.46979 47.07776 95.96768 
87 65.94701 89.03914 52.47276 48.47980 65.37239 33.19032 
88 81.43729 52.70540 24.60960 36.03750 31.57135 9.677288 
89 79.04698 100.0000 0.00000 60.40518 84.17498 13.92643 
90 68.55249 74.84277 100.0000 54.74554 53.97191 102.0850 
91 53.57732 83.51878 83.07735 46.45102 58.02906 71.19794 
92 71.88953 73.37112 56.91523 43.09409 48.25900 34.48732 
93 26.28727 0.00000 35.89525 5.186405 2.939630 11.07527 
94 0.00000 23.64443 5.099950 2.687040 4.258492 1.917372 
95 55.83764 65.66629 0.00000 25.87336 34.25100 6.108376 
96 0.00000 36.01426 34.65914 6.534812 9.253005 11.52669 
97 0.110393 19.25434 72.27578 10.69249 6.622953 46.64790 
98 66.49767 46.15074 67.07880 30.98079 25.08067 42.24902 
99 75.88896 0.00000 28.18919 24.05877 12.75566 8.106282 
100 17.13293 39.63812 52.45720 10.87441 12.44946 24.94092 
101 53.67353 26.57533 35.78375 15.10546 11.07209 12.05864 
102 0.00000 98.04423 96.92325 51.49607 75.34851 99.95816 
103 0.00000 63.73386 5.760292 13.96645 26.79619 5.732620 
104 59.34072 44.08487 35.64640 21.34189 19.85418 13.34685 
105 81.11449 35.02124 22.08823 30.70939 21.52209 7.143134 
106 100.0000 44.64038 0.00000 47.76915 33.92846 4.892906 
107 58.33203 19.26958 70.01092 22.32748 12.69248 44.12056 
108 60.76522 0.00000 0.00000 14.37399 7.895671 1.626682 
109 0.00000 52.48362 78.46543 19.74977 21.96524 58.22593 
110 56.20058 49.27768 100.0000 37.48331 28.64261 98.10488 
111 62.63092 29.07508 27.74080 18.84720 13.68490 8.368627 
112 58.96474 26.23915 100.0000 33.37144 18.56516 96.37620 
113 45.33017 72.74160 56.72087 30.38861 41.21442 33.59845 
114 91.69641 68.04774 78.06597 59.64694 52.16235 61.33714 
115 71.34612 85.99264 96.50671 61.72053 67.73094 97.09992 
116 0.00000 63.76262 70.76865 22.09917 30.06932 48.50513 
117 62.23539 44.61265 46.33672 24.27524 21.42767 20.73964 
118 0.00000 3.163308 19.33977 1.642205 1.395520 3.954877 
119 79.76090 61.64233 0.134470 37.45994 37.56184 6.146972 
120 65.54474 61.29969 72.24410 37.21898 36.22756 50.92131 
121 45.10933 64.30020 78.06816 31.35648 34.96814 59.51152 
122 47.10039 81.33307 0.00000 30.87068 49.33006 8.755876 
123 0.00000 97.41248 53.23620 38.73929 69.45702 35.20199 
124 31.30319 28.14068 47.71720 9.997944 8.621596 20.12800 
125 29.40387 1.621927 21.53841 4.596628 2.841636 4.735869 
126 39.61455 48.15386 36.38125 15.24882 18.49146 13.82912 
127 100.0000 61.30611 0.00000 53.65569 45.69990 6.855103 
128 100.0000 54.45015 100.0000 68.82050 47.43538 100.0820 
129 84.45997 100.0000 88.23691 77.71606 91.54407 84.98365 
130 34.43637 21.03842 18.17290 6.751832 5.822803 4.222740 
131 91.06543 40.56110 59.06000 44.36108 29.91115 33.12414 
132 100.0000 30.32811 35.38471 46.31803 28.08794 13.47216 
133 29.36398 49.17756 16.75677 11.60166 17.26792 5.819498 
134 47.02164 87.45490 97.27154 51.56612 63.90873 98.46016 
135 38.15841 63.72248 5.760285 18.87427 29.31913 5.961135 
136 0.00000 57.42472 50.68930 15.18328 23.05920 25.16765 
137 84.44131 100.0000 100.0000 82.11684 93.30249 108.2354 
138 34.48836 30.72757 17.93067 8.184675 8.688982 4.637265 
139 92.08066 75.07964 66.44958 60.53296 58.39184 46.33299 
140 82.76762 73.30202 42.69226 47.91633 50.96162 22.46316 
141 31.70002 0.00000 11.74407 4.576993 2.817549 2.375348 
142 47.02167 72.67543 97.27811 42.68387 46.14258 95.51209 
143 69.83218 63.86376 56.22066 37.07141 38.23408 32.16500 
144 27.90331 80.37903 50.68241 29.12967 47.11516 29.07055 
145 54.16364 100.0000 43.43126 49.62868 78.29157 28.18002 
146 48.98615 23.81320 0.00000 10.99869 8.585778 1.937663 
147 0.00000 78.11065 71.98277 29.78228 44.92641 52.62970 
148 59.74355 25.04014 49.22877 19.39023 12.73600 21.68814 
149 77.75002 19.39376 23.07188 26.00948 15.44696 6.546625 
150 51.07559 35.51944 0.00000 13.81941 13.05356 2.651514 
151 36.54587 23.62405 5.099898 7.172933 6.567412 2.126792 
152 8.648324 29.07457 33.99453 5.453083 6.712464 10.73109 
153 32.43498 54.44974 100.0000 31.49666 28.19086 98.33298 
154 94.47332 100.0000 57.64380 77.50253 92.38739 41.94394 
155 48.90694 96.21573 0.00000 41.76535 70.15374 12.20165 
156 85.94378 18.99423 76.89492 40.90827 22.01407 54.72118 
157 75.80721 54.33765 90.69586 46.24917 36.14749 80.47110 
158 100.0000 0.00000 48.91388 45.47812 23.51112 22.12735 
159 66.02402 61.58860 16.89571 29.44337 33.34447 8.016723 
160 68.15612 0.00000 35.89524 20.13005 10.64462 11.77550 
161 82.78327 39.42196 100.0000 50.05780 30.99793 97.89725 
162 78.94000 83.11241 0.00000 48.22137 59.91884 9.885989 
163 72.93785 78.71574 41.72867 44.25926 53.60086 22.48905 
164 0.00000 38.28081 100.0000 23.15997 16.72385 96.55859 
165 97.54715 93.94620 71.26523 78.64432 85.66745 56.93413 
166 54.99162 67.71705 62.80921 32.77671 38.52337 39.57907 
167 78.79774 33.61062 41.70950 30.69646 20.86705 16.87154 
168 51.82586 56.97240 33.23167 22.12588 26.64702 13.29560 
169 35.03754 49.65021 52.36114 16.80327 19.73677 25.94691 
170 4.833495 46.25728 28.18898 8.717988 14.35767 9.223394 
171 37.64957 0.00000 73.82003 14.78950 7.067420 48.69568 
172 56.99542 49.18869 30.66126 21.30329 22.16653 11.18899 
173 73.79796 35.52196 0.00000 25.24665 18.94629 3.187129 
174 42.84119 33.76090 41.70979 13.17012 11.87531 16.05915 
175 49.47433 14.13843 0.00000 10.16820 6.656517 1.609000 
176 27.33759 72.16130 72.07800 28.99796 39.63702 51.78187 
177 74.24346 46.84473 58.72718 33.87249 27.09392 32.77737 
178 45.75999 19.43458 21.53741 10.01331 7.216908 5.294821 
179 72.44311 89.92164 35.29091 50.39476 67.55033 20.82190 
180 100.0000 75.25986 51.71298 64.58845 60.97983 30.80009 
181 49.57170 0.00000 31.36060 11.01085 5.995935 8.947102 
182 62.93972 100.0000 76.78968 60.70084 83.18880 65.32870 
183 85.82965 23.83872 0.00000 31.52413 19.17384 2.900430 
184 44.28596 69.10483 39.14582 25.41581 36.20191 18.40404 
185 63.35781 75.33633 62.59075 40.59862 48.42672 40.82595 
186 57.01755 96.92103 87.87608 58.93828 78.27098 82.76055 
187 42.06806 36.03601 70.78356 19.02258 14.95306 45.76946 
188 72.81061 48.74945 44.61333 31.13715 26.84077 20.09634 
189 63.62075 30.83645 18.58778 19.05722 14.32027 5.325378 
190 64.15610 39.37169 17.47293 21.08606 18.05565 5.648741 
191 35.92337 26.91027 89.41038 21.27909 12.94524 74.92239 
192 36.94727 68.04584 78.06597 30.70025 37.23597 59.98049 
193 31.33047 40.57297 59.06000 14.61276 14.57727 31.73104 
194 72.29154 29.24333 49.22823 26.81338 17.53609 22.22327 
195 40.16166 21.38871 41.69968 10.39555 7.520047 15.35760 
196 41.84620 100.0000 67.85844 49.84544 77.86611 52.43630 
197 58.55137 100.0000 100.0000 66.60292 85.30347 107.5084 
198 20.59163 24.04241 32.12912 5.601915 5.674936 9.551308 
199 68.13524 58.60603 62.32265 35.12593 33.77550 37.97738 
200 78.57680 46.67282 32.31511 32.73727 26.88374 12.30999 
201 15.70803 0.00000 4.129094 1.925654 1.470661 1.341666 
202 0.00000 83.45948 24.67549 25.39996 48.37541 13.50553 
203 28.05051 35.20025 13.00065 7.485110 9.654781 3.765014 
204 64.83072 81.31477 0.00000 38.60463 53.30106 9.115060 
205 41.65180 64.38353 66.44212 27.21535 33.24569 43.22454 
206 49.84337 57.77984 78.66763 30.45454 30.39358 59.60264 
207 0.00000 10.95485 0.00000 1.409606 1.819098 1.136537 
208 18.89712 39.19285 17.47287 7.182556 10.82255 4.984798 
209 17.19447 11.72975 0.00000 2.479278 2.441610 1.200362 
210 78.42504 89.34388 67.23138 59.31890 70.91881 49.79751 
211 0.00000 26.68155 66.17988 10.11693 7.923969 38.91106 
212 94.96163 39.97521 74.90425 51.31527 32.83820 53.31138 
213 55.65223 0.00000 50.31633 15.90742 8.237794 21.94101 
214 77.33458 40.11443 75.67608 38.10989 26.05583 53.82990 
215 42.91847 45.17429 53.04469 17.73813 18.16836 26.22849 
216 0.00000 5.863974 46.18875 4.393224 2.626598 18.04125 
217 95.56285 88.05829 100.0000 82.23796 80.20411 105.7006 
218 66.07335 20.69797 0.00000 18.34139 11.79725 2.170844 
219 74.76316 58.94378 34.66937 34.79170 34.31715 14.88221 
220 29.83364 80.98890 65.42077 32.82344 49.22763 44.75313 
221 39.62067 77.80810 33.05164 27.99924 44.54753 16.34753 
222 25.49250 35.36684 34.67718 8.555646 10.08732 11.59125 
223 27.99237 89.08456 93.84800 46.31318 63.00358 91.69146 
224 0.00000 0.00000 67.64004 8.418533 3.966945 40.07417 
225 90.73473 40.64397 41.53909 41.18448 28.64290 17.70259 
226 51.82470 57.42613 18.23791 21.18674 26.55354 7.481249 
227 18.33121 52.32789 52.30770 14.73061 20.00415 26.05859 
228 4.833494 0.00000 28.19042 2.309069 1.541433 7.087655 
229 58.18736 64.97829 70.76836 34.80817 37.43827 49.25779 
230 62.20509 49.14365 6.557226 22.48066 22.89905 4.609714 
231 81.37625 72.91534 0.00000 43.98852 48.94555 7.990762 
232 25.29418 34.61410 41.70888 9.196639 10.08606 15.92242 
233 69.90125 64.06699 43.34013 35.08117 37.58863 21.02319 
234 78.41447 0.00000 4.185621 24.62926 13.17662 2.409738 
235 17.37534 20.71009 0.00000 3.293441 4.040540 1.466121 
236 56.78290 59.37049 0.00000 23.54534 28.97915 5.213370 
237 27.79559 56.65493 90.80697 27.86786 27.95177 80.06546 
238 0.00000 38.69927 64.62804 12.09425 12.45670 37.78564 
239 76.69633 54.94904 38.46982 34.91934 32.04180 16.67280 
240 53.33767 0.125083 20.33967 11.66836 6.435088 4.688932 
241 49.60216 0.00000 100.0000 27.46085 12.57621 95.53146 
242 85.74841 25.87888 35.67752 33.61850 20.46399 12.83574 
243 62.94445 9.801457 19.33846 16.35346 9.362657 4.717581 
244 73.64487 63.70444 5.760139 34.43614 37.33094 6.688017 
245 32.76787 18.34768 24.41226 6.446512 5.189025 6.070873 
246 76.60973 47.74673 52.36131 34.46098 27.94560 26.60161 
247 100.0000 96.98431 87.87610 88.18737 93.42450 84.14516 
248 100.0000 100.0000 0.00000 77.23538 92.85269 14.71507 
249 90.68498 80.99692 65.42076 62.57790 64.57639 46.14876 
250 89.07056 68.45575 90.80462 61.85613 53.11759 83.12869 
251 44.71494 39.08069 33.70497 14.01376 14.16568 11.56375 
252 0.00000 83.26302 59.94887 30.07148 50.04466 38.72484 
253 75.79005 61.68361 58.99032 40.31159 38.42422 34.90607 
254 89.52585 66.02845 30.76618 48.07800 45.79079 14.38903 
255 68.33506 44.92321 0.00000 24.35796 21.97737 3.819023 
256 37.48017 88.93448 20.23279 33.47419 57.94954 13.45256 
257 0.00000 18.18146 16.93466 2.416452 3.136502 3.618654 
258 77.75543 75.75822 91.00522 57.48044 56.53333 84.39535 
259 35.45813 56.87481 46.68246 18.54371 24.54909 21.91779 
260 59.21011 58.04700 90.69408 38.43961 34.21310 80.50568 
261 57.36120 34.85716 85.21239 28.74941 19.10431 68.23949 
262 83.10650 21.98171 88.48573 42.80424 23.06978 74.05512 
263 100.0000 76.39683 0.00000 61.10996 60.60636 9.339882 
264 75.12863 40.64611 41.53909 29.85456 22.80196 17.17185 
265 44.18900 21.77679 35.67811 10.94839 7.957989 11.61604 
266 100.0000 66.12439 54.37419 60.39599 51.83717 31.74308 
267 48.04492 38.54300 38.33263 15.54038 14.70300 14.26088 
268 0.00000 57.04016 73.83020 20.10919 24.78992 51.85100 
269 75.68580 63.67339 49.46813 39.36750 39.43028 25.99291 
270 52.72379 38.39842 21.76015 15.81527 14.96477 6.555788 
271 64.62536 88.16097 72.70742 51.64042 65.59108 56.47650 
272 93.52593 65.68161 0.00000 49.84330 46.62054 7.233604 
273 73.38370 0.00000 100.0000 39.19209 18.62488 96.08117 
274 34.34023 37.11552 84.74177 21.24763 15.98507 67.22352 
275 30.21042 28.77525 0.00000 6.416572 7.330191 1.936630 
276 33.29681 87.38969 45.29775 33.87821 56.30688 26.15919 
277 61.44785 74.22256 50.99581 36.77305 45.80702 28.69302 
278 73.47998 82.89798 100.0000 62.41083 64.96745 103.8037 
279 32.21516 0.00000 53.27631 8.847571 4.538497 24.28284 
280 33.38557 13.16059 0.00000 5.275033 4.026369 1.359019 
281 65.99331 100.0000 0.00000 52.45289 80.07475 13.55380 
282 63.68422 21.77528 34.94015 18.99865 12.11764 11.57889 
283 0.00000 59.68599 29.86624 13.44594 23.81340 11.54806 
284 27.79558 69.25548 90.75107 33.39124 39.02898 81.80795 
285 0.00000 63.09848 45.76031 16.76229 27.46331 21.84963 
286 63.15933 33.93982 38.46335 21.08783 16.05863 14.31202 
287 52.26630 13.16640 12.30722 11.42471 7.168870 2.951870 
288 44.63884 47.72889 74.39609 23.87438 21.90715 51.90946 
289 95.53459 51.84092 29.15366 47.23546 36.85939 11.96248 
290 45.22402 40.52967 54.67133 17.52248 16.16018 27.40200 
291 100.0000 0.00000 61.43267 47.82638 24.45028 34.49591 
292 29.48495 21.77742 33.99942 6.956177 5.920255 10.50164 
293 100.0000 87.57186 90.43215 82.26290 80.14902 86.57493 
294 72.46733 85.86188 80.86744 56.88143 65.73581 68.51295 
295 100.0000 37.41613 52.40057 50.15287 31.92124 26.57867 
296 46.42903 0.649010 65.42532 15.35863 7.632720 37.64950 
297 89.50088 95.08490 88.84657 77.99061 85.97637 85.00067 
298 51.75337 66.03139 30.76618 25.72764 34.26892 13.34212 
299 60.10389 38.15738 72.67251 27.01892 19.73097 48.87202 
300 86.24928 80.47791 74.65930 61.11263 63.08081 58.27693 
301 53.23923 38.71546 100.0000 33.27677 22.09281 97.06213 
302 0.00000 20.24915 38.16191 4.350514 4.259340 12.72820 
303 89.68463 54.82992 76.84460 52.01428 39.90335 57.51357 
304 92.41725 0.00000 67.76607 42.58720 21.58087 41.83561 
305 26.18438 31.40886 23.88088 6.954274 8.199061 6.433607 
306 0.00000 66.26165 100.0000 32.91227 36.22572 99.80939 
307 96.41671 70.41206 70.91860 62.89214 55.80777 51.52810 
308 86.87848 23.94783 46.36611 35.59266 20.91731 20.06823 
309 87.87503 38.01957 11.75518 35.91936 25.25214 5.057008 
310 42.80487 11.98819 49.69380 11.51136 6.686672 21.33320 
311 72.27992 52.52429 0.00000 29.07712 27.99057 4.731195 
312 81.20609 69.92041 78.85943 52.76713 49.96298 62.50337 
313 40.14996 55.24969 0.00000 15.88189 22.64440 4.394198 
314 90.89778 57.42385 18.23790 44.62132 38.63516 8.579096 
315 0.00000 26.48762 19.33963 3.574892 5.260364 4.599075 
316 91.01665 58.90618 90.69419 59.12787 45.38990 81.57372 
317 92.47154 87.90989 50.98289 65.60965 73.08634 32.42846 
318 42.94601 85.87261 80.86745 43.43605 58.81381 67.88496 
319 16.82559 52.51691 0.00000 10.41175 18.36281 3.855830 
320 23.89902 3.067720 0.00000 2.985907 2.148704 1.117139 
321 0.00000 14.47092 88.25793 15.11566 7.688359 72.13207 
322 77.02906 37.53664 63.56491 34.22900 23.49381 37.48467 
323 100.0000 30.83445 23.70483 45.39120 27.86254 8.142427 
324 91.11361 0.00000 20.09128 34.65400 18.28309 5.691961 
325 48.61390 23.86978 17.45770 11.32965 8.714511 4.355642 
326 24.29729 7.035937 27.72007 4.293597 2.885543 7.041780 
327 87.09516 89.49821 96.48897 74.85799 78.03072 98.36009 
328 95.78254 98.32687 37.72639 74.19405 89.06389 25.15137 
329 27.43927 73.26535 0.00000 21.05618 37.39860 6.969669 
330 58.56521 89.92322 35.29092 42.98456 63.73124 20.47499 
331 87.09955 100.0000 67.85645 73.73287 90.18260 53.55308 
332 85.91296 11.57153 50.31572 34.27136 18.37034 22.92916 
333 0.00000 90.25763 6.385703 29.15405 57.14871 10.85205 
334 28.81106 96.97418 87.87610 50.10497 73.77747 82.35844 
335 23.47638 17.01294 45.13124 6.774708 4.912448 17.53879 
336 26.48612 100.0000 43.02105 41.50437 74.10919 27.50412 
337 81.02077 80.65039 30.75608 49.51449 58.16572 16.69726 
338 34.45724 26.48562 19.33964 7.546547 7.307713 4.785094 
339 64.04374 11.53110 48.98045 20.12095 11.09589 21.12257 
340 30.07451 40.36800 0.00000 8.801507 12.14040 2.739531 
341 0.00000 100.0000 73.55376 45.34567 75.37614 59.89214 
342 57.22485 39.22041 47.62298 20.67956 17.44650 21.19193 
343 53.19688 21.53245 82.71637 23.97712 13.50265 63.18609 
344 39.85267 87.44812 35.29221 34.33389 56.74673 19.58312 
345 96.86020 52.08622 0.00000 47.25424 37.13720 5.539405 
346 79.18382 26.24100 100.0000 44.94662 24.53377 96.91867 
347 46.85245 48.14713 88.18398 29.02003 24.25958 74.46493 
348 36.99644 28.21891 0.00000 7.896613 7.957068 1.979685 
349 76.54419 73.35667 78.31968 51.22566 51.83655 62.10881 
350 78.05362 89.97691 51.70773 56.30483 70.39048 33.04815 
351 73.47998 94.01474 100.0000 70.02617 80.19600 106.3422 
352 31.68663 40.10689 51.80653 13.20436 13.83587 24.49099 
353 50.71520 49.38794 38.95363 19.63676 21.30095 15.70957 
354 37.49623 100.0000 0.424104 41.14704 74.24474 13.05465 
355 96.75104 43.56776 35.70884 46.38788 32.55396 14.51481 
356 0.00000 12.65552 34.93033 3.306970 2.752384 10.59210 
357 84.12338 70.27507 72.61685 53.29334 50.70380 53.38891 
358 49.20677 58.90808 88.28908 33.74924 32.40338 75.97769 
359 64.61849 90.24977 6.385716 44.46551 65.03514 11.56794 
360 14.56464 28.67873 56.15795 9.051781 8.095511 27.76007 
361 31.40309 0.00000 4.337043 4.342051 2.716215 1.470589 
362 0.00000 76.50801 89.00105 34.06391 45.16755 79.71881 
363 67.46760 52.80162 63.96960 32.93854 29.36722 39.16497 
364 89.06417 28.79414 26.15387 35.77985 22.35971 8.502174 
365 66.69019 0.00000 82.18566 28.89067 14.05440 62.15702 
366 36.61074 61.05956 56.92046 22.29771 28.78998 31.82988 
367 64.44211 52.51422 78.46542 34.98512 29.83646 58.94288 
368 11.50513 44.00265 35.98288 9.172558 13.54126 12.96224 
369 60.61936 63.86996 56.22065 32.18361 35.71804 31.93676 
370 13.65364 0.00000 13.35118 1.966631 1.465257 2.541011 
371 0.00000 49.81384 58.72700 13.94816 18.20452 32.11065 
372 18.65394 38.11581 25.86889 7.409511 10.50002 7.595237 
373 45.69994 25.65099 66.17955 17.16438 11.32918 39.19678 
374 69.00628 0.00000 67.75750 26.16612 13.11435 41.05523 
375 57.71158 36.22964 33.65957 18.42098 15.46352 11.55797 
376 45.70594 8.580066 24.28998 9.344529 5.621278 5.957173 
377 60.41323 36.50768 52.95575 22.42028 17.30717 25.73263 
378 78.57612 25.30860 65.18397 33.36041 19.63328 38.72350 
379 64.78504 55.12237 0.00000 25.77102 27.67309 4.844039 
380 82.77068 89.57671 41.58647 57.77645 70.91211 25.02053 
381 81.30390 41.10711 88.18457 44.98847 29.52252 74.64087 
382 32.46810 24.99970 26.15564 7.309160 6.811286 7.001075 
383 0.00000 41.81943 88.18438 19.60678 16.70986 73.50412 
384 42.31798 94.65069 73.55566 47.30174 70.21576 58.79571 
385 0.00000 69.64255 29.26791 17.92651 32.85653 12.78482 
386 66.36143 40.64048 31.52745 23.55954 19.68410 11.01025 
387 100.0000 9.366509 39.08144 44.41229 23.59845 14.92957 
388 31.98379 40.17599 75.67608 18.68260 16.06183 52.92396 
389 79.10721 78.41808 52.48657 49.73204 55.97259 31.32266 
390 20.73459 40.88435 47.49866 10.79805 12.96756 20.74657 
391 89.33240 78.19857 97.27235 69.70910 64.63310 97.64609 
392 100.0000 33.39307 0.00000 45.05833 28.50758 3.989292 
393 95.48638 56.96795 66.97750 55.08643 42.98610 44.30791 
394 0.00000 67.19497 56.34039 20.44249 31.94614 31.94770 
395 55.93155 76.87008 29.70783 32.98244 46.35374 14.79718 
396 42.04313 58.93655 39.95339 20.24058 26.73990 17.37311 
397 83.96057 56.66082 0.00000 38.43193 35.06286 5.603652 
398 17.99773 61.05448 58.99142 19.31437 27.20077 33.84669 
399 75.32796 38.39242 32.42217 28.39251 21.35048 11.52511 
400 91.87613 12.72436 30.12279 36.53006 19.94354 9.704250 
401 61.54285 0.00000 70.86309 22.98122 11.38195 44.97938 
402 37.84968 7.841782 88.25841 19.54143 9.370190 72.22449 
403 69.90445 25.56292 19.33965 21.67355 14.38835 5.407822 
