Pre-made_Targets/Patch Width 8-11mm - Expert (Use rig-guide-ruler)/Generated Targets/CM-Expert-A4-440p-1page-w9.0mm-20x22/CM-Expert-A4-440p-1page.ti2
CTI2   

DESCRIPTOR "Argyll Calibration Target chart information 2"
ORIGINATOR "Argyll printtarg"
CREATED "Mon Feb  9 15:41:10 2026"
TARGET_INSTRUMENT "X-Rite ColorMunki"
COMP_GREY_STEPS "66"
APPROX_WHITE_POINT "95.106486 100.000000 108.844025"
TOTAL_INK_LIMIT "300.0"
COLOR_REP "iRGB"
PAPER_SIZE "210.0x297.0"
RANDOM_START "70"
STEPS_IN_PASS "22"
PASSES_IN_STRIPS2 "20"
STRIP_INDEX_PATTERN "A-Z, A-Z"
PATCH_INDEX_PATTERN "0-9,@-9,@-9;1-999"
INDEX_ORDER "STRIP_THEN_PATCH"

NUMBER_OF_FIELDS 8
BEGIN_DATA_FORMAT
SAMPLE_ID SAMPLE_LOC RGB_R RGB_G RGB_B XYZ_X XYZ_Y XYZ_Z 
END_DATA_FORMAT

NUMBER_OF_SETS 440
BEGIN_DATA
1 "R18" 100.0000 100.0000 100.0000 95.10649 100.0000 108.8440 
2 "I9" 100.0000 100.0000 100.0000 95.10649 100.0000 108.8440 
3 "E8" 100.0000 100.0000 100.0000 95.10649 100.0000 108.8440 
4 "G17" 100.0000 100.0000 100.0000 95.10649 100.0000 108.8440 
5 "G19" 100.0000 100.0000 100.0000 95.10649 100.0000 108.8440 
6 "A6" 0.00000 0.00000 0.00000 1.000000 1.000000 1.000000 
7 "O6" 0.00000 0.00000 0.00000 1.000000 1.000000 1.000000 
8 "M11" 0.00000 0.00000 0.00000 1.000000 1.000000 1.000000 
9 "I5" 0.00000 0.00000 0.00000 1.000000 1.000000 1.000000 
10 "I7" 0.00000 0.00000 0.00000 1.000000 1.000000 1.000000 
11 "C2" 98.46189 98.46189 98.46189 91.84649 96.57048 105.1081 
12 "D19" 96.92378 96.92378 96.92378 88.65333 93.21128 101.4488 
13 "P13" 95.38415 95.38415 95.38415 85.52662 89.92199 97.86571 
14 "E4" 93.84604 93.84604 93.84604 82.46596 86.70217 94.35826 
15 "N10" 92.30793 92.30793 92.30793 79.47095 83.55141 90.92603 
16 "B13" 90.76982 90.76982 90.76982 76.54116 80.46928 87.56856 
17 "P15" 89.23018 89.23018 89.23018 73.67620 77.45534 84.28537 
18 "C6" 87.69207 87.69207 87.69207 70.87564 74.50916 81.07600 
19 "E10" 86.15396 86.15396 86.15396 68.13907 71.63028 77.93994 
20 "F14" 84.61585 84.61585 84.61585 65.46606 68.81828 74.87673 
21 "R11" 83.07622 83.07622 83.07622 62.85618 66.07268 71.88586 
22 "O10" 81.53811 81.53811 81.53811 60.30899 63.39305 68.96684 
23 "M7" 80.00000 80.00000 80.00000 57.82407 60.77891 66.11917 
24 "I16" 78.46189 78.46189 78.46189 55.40096 58.22980 63.34234 
25 "L11" 76.92378 76.92378 76.92378 53.03923 55.74525 60.63584 
26 "R2" 75.38415 75.38415 75.38415 50.73841 53.32479 57.99915 
27 "N14" 73.84604 73.84604 73.84604 48.49805 50.96794 55.43175 
28 "B5" 72.30793 72.30793 72.30793 46.31769 48.67420 52.93310 
29 "F19" 70.76982 70.76982 70.76982 44.19686 46.44308 50.50267 
30 "C20" 69.23018 69.23018 69.23018 42.13508 44.27409 48.13992 
31 "G21" 67.69207 67.69207 67.69207 40.13188 42.16673 45.84430 
32 "D10" 66.15396 66.15396 66.15396 38.18677 40.12047 43.61525 
33 "Q9" 64.61585 64.61585 64.61585 36.29926 38.13481 41.45220 
34 "K12" 63.07622 63.07622 63.07622 34.46885 36.20923 39.35459 
35 "J17" 61.53811 61.53811 61.53811 32.69504 34.34318 37.32184 
36 "A16" 60.00000 60.00000 60.00000 30.97732 32.53613 35.35337 
37 "A4" 58.46189 58.46189 58.46189 29.31516 30.78754 33.44857 
38 "T5" 56.92378 56.92378 56.92378 27.70804 29.09685 31.60685 
39 "E14" 55.38415 55.38415 55.38415 26.15543 27.46351 29.82759 
40 "L18" 53.84604 53.84604 53.84604 24.65679 25.88694 28.11018 
41 "D14" 52.30793 52.30793 52.30793 23.21157 24.36656 26.45398 
42 "Q11" 50.76982 50.76982 50.76982 21.81920 22.90179 24.85836 
43 "S14" 49.23018 49.23018 49.23018 20.47912 21.49203 23.32266 
44 "A21" 47.69207 47.69207 47.69207 19.19076 20.13668 21.84622 
45 "O12" 46.15396 46.15396 46.15396 17.95353 18.83511 20.42838 
46 "A18" 44.61585 44.61585 44.61585 16.76682 17.58669 19.06844 
47 "J7" 43.07622 43.07622 43.07622 15.63004 16.39080 17.76572 
48 "Q7" 41.53811 41.53811 41.53811 14.54257 15.24678 16.51950 
49 "E12" 40.00000 40.00000 40.00000 13.50377 14.15396 15.32905 
50 "F21" 38.46189 38.46189 38.46189 12.51300 13.11168 14.19365 
51 "L13" 36.92378 36.92378 36.92378 11.56961 12.11922 13.11254 
52 "A9" 35.38415 35.38415 35.38415 10.67292 11.17591 12.08496 
53 "F1" 33.84604 33.84604 33.84604 9.822246 10.28100 11.11011 
54 "G1" 32.30793 32.30793 32.30793 9.016893 9.433769 10.18719 
55 "R5" 30.76982 30.76982 30.76982 8.256140 8.633458 9.315382 
56 "E22" 29.23018 29.23018 29.23018 7.539254 7.879294 8.493846 
57 "K10" 27.69207 27.69207 27.69207 6.865480 7.170483 7.721714 
58 "H20" 26.15396 26.15396 26.15396 6.234042 6.506211 6.998101 
59 "K1" 24.61585 24.61585 24.61585 5.644146 5.885640 6.322092 
60 "R22" 23.07622 23.07622 23.07622 5.094970 5.307908 5.692749 
61 "A1" 21.53811 21.53811 21.53811 4.585671 4.772125 5.109102 
62 "T17" 20.00000 20.00000 20.00000 4.115373 4.277372 4.570151 
63 "O4" 18.46189 18.46189 18.46189 3.683175 3.822699 4.074861 
64 "N1" 16.92378 16.92378 16.92378 3.288138 3.407120 3.622157 
65 "B10" 15.38415 15.38415 15.38415 2.929289 3.029611 3.210924 
66 "B1" 13.84604 13.84604 13.84604 2.605613 2.689104 2.839998 
67 "D2" 12.30793 12.30793 12.30793 2.316049 2.384483 2.508164 
68 "T14" 10.76982 10.76982 10.76982 2.059484 2.114577 2.214146 
69 "O8" 9.230182 9.230182 9.230182 1.834747 1.878153 1.956602 
70 "H22" 7.692073 7.692073 7.692073 1.640595 1.673906 1.734108 
71 "L22" 6.153964 6.153964 6.153964 1.475707 1.500444 1.545151 
72 "D22" 4.615854 4.615854 4.615854 1.338666 1.356276 1.388104 
73 "P8" 3.076219 3.076219 3.076219 1.224116 1.235770 1.256833 
74 "H14" 1.538109 1.538109 1.538109 1.112058 1.117885 1.128416 
75 "F5" 0.00000 0.00000 100.0000 18.87111 8.147314 95.12896 
76 "P10" 0.00000 100.0000 0.00000 36.40521 71.80052 12.80184 
77 "L5" 100.0000 0.00000 0.00000 41.83017 22.05217 2.913230 
78 "T11" 100.0000 88.11017 35.29107 70.22949 75.92027 21.39313 
79 "N7" 77.55398 0.00000 52.43610 28.23563 14.55228 24.41343 
80 "F9" 41.56405 39.69482 0.00000 11.51239 13.29005 2.818669 
81 "F2" 0.00000 95.49401 78.45731 43.21362 68.89042 66.03481 
82 "R13" 89.06081 52.33082 52.30793 44.97985 35.60257 27.47637 
83 "N11" 0.00000 40.17700 75.67559 15.27574 14.30576 52.76443 
84 "J18" 92.33845 0.00000 100.0000 52.94345 25.71512 96.72553 
85 "Q14" 37.94766 0.00000 0.00000 5.856353 3.503951 1.227560 
86 "N5" 0.00000 77.10994 97.27779 37.46979 47.07776 95.96768 
87 "H15" 65.94644 89.03944 52.47272 48.47980 65.37239 33.19032 
88 "R4" 81.43740 52.70466 24.60975 36.03750 31.57135 9.677288 
89 "A22" 79.04631 100.0000 0.00000 60.40518 84.17498 13.92643 
90 "N3" 68.55268 74.84245 100.0000 54.74554 53.97191 102.0850 
91 "F12" 53.57748 83.51873 83.07774 46.45102 58.02906 71.19794 
92 "Q21" 71.88983 73.37148 56.91463 43.09409 48.25900 34.48732 
93 "Q22" 26.28672 0.00000 35.89532 5.186405 2.939630 11.07527 
94 "P20" 0.00000 23.64385 5.099565 2.687040 4.258492 1.917372 
95 "P14" 55.83734 65.66567 0.00000 25.87336 34.25100 6.108376 
96 "S19" 0.00000 36.01434 34.65934 6.534812 9.253005 11.52669 
97 "D15" 0.109865 19.25383 72.27588 10.69249 6.622953 46.64790 
98 "K15" 66.49729 46.15091 67.07866 30.98079 25.08067 42.24902 
99 "R6" 75.88922 0.00000 28.18952 24.05877 12.75566 8.106282 
100 "E6" 17.13283 39.63836 52.45747 10.87441 12.44946 24.94092 
101 "P1" 53.67361 26.57511 35.78393 15.10546 11.07209 12.05864 
102 "C8" 0.00000 98.04379 96.92378 51.49607 75.34851 99.95816 
103 "H19" 0.00000 63.73388 5.760281 13.96645 26.79619 5.732620 
104 "F3" 59.34081 44.08484 35.64660 21.34189 19.85418 13.34685 
105 "O19" 81.11391 35.02098 22.08896 30.70939 21.52209 7.143134 
106 "T6" 100.0000 44.64027 0.00000 47.76915 33.92846 4.892906 
107 "D11" 58.33219 19.26909 70.01144 22.32748 12.69248 44.12056 
108 "N9" 60.76448 0.00000 0.00000 14.37399 7.895671 1.626682 
109 "D18" 0.00000 52.48341 78.46494 19.74977 21.96524 58.22593 
110 "Q6" 56.20050 49.27749 100.0000 37.48331 28.64261 98.10488 
111 "H1" 62.63066 29.07454 27.74090 18.84720 13.68490 8.368627 
112 "R10" 58.96544 26.23941 100.0000 33.37144 18.56516 96.37620 
113 "T10" 45.32998 72.74128 56.72084 30.38861 41.21442 33.59845 
114 "T9" 91.69604 68.04761 78.06668 59.64694 52.16235 61.33714 
115 "A14" 71.34661 85.99222 96.50721 61.72053 67.73094 97.09992 
116 "B17" 0.00000 63.76287 70.76829 22.09917 30.06932 48.50513 
117 "F6" 62.23545 44.61280 46.33707 24.27524 21.42767 20.73964 
118 "S1" 0.00000 3.163195 19.33928 1.642205 1.395520 3.954877 
119 "L12" 79.76043 61.64187 0.134279 37.45994 37.56184 6.146972 
120 "G9" 65.54513 61.30007 72.24384 37.21898 36.22756 50.92131 
121 "C18" 45.10872 64.29999 78.06821 31.35648 34.96814 59.51152 
122 "R8" 47.10002 81.33364 0.00000 30.87068 49.33006 8.755876 
123 "K13" 0.00000 97.41207 53.23568 38.73929 69.45702 35.20199 
124 "Q13" 31.30388 28.14069 47.71649 9.997944 8.621596 20.12800 
125 "S18" 29.40414 1.622034 21.53811 4.596628 2.841636 4.735869 
126 "I11" 39.61395 48.15442 36.38056 15.24882 18.49146 13.82912 
127 "B7" 100.0000 61.30617 0.00000 53.65569 45.69990 6.855103 
128 "C5" 100.0000 54.45029 100.0000 68.82050 47.43538 100.0820 
129 "J4" 84.46021 100.0000 88.23682 77.71606 91.54407 84.98365 
130 "N16" 34.43656 21.03914 18.17350 6.751832 5.822803 4.222740 
131 "T1" 91.06584 40.56153 59.06004 44.36108 29.91115 33.12414 
132 "I2" 100.0000 30.32883 35.38415 46.31803 28.08794 13.47216 
133 "J20" 29.36446 49.17830 16.75746 11.60166 17.26792 5.819498 
134 "Q18" 47.02220 87.45556 97.27169 51.56612 63.90873 98.46016 
135 "B21" 38.15824 63.72320 5.760281 18.87427 29.31913 5.961135 
136 "Q15" 0.00000 57.42428 50.68894 15.18328 23.05920 25.16765 
137 "R16" 84.44190 100.0000 100.0000 82.11684 93.30249 108.2354 
138 "I3" 34.48844 30.72709 17.93088 8.184675 8.688982 4.637265 
139 "S5" 92.08057 75.07897 66.44999 60.53296 58.39184 46.33299 
140 "N4" 82.76799 73.30129 42.69169 47.91633 50.96162 22.46316 
141 "O7" 31.70062 0.00000 11.74334 4.576993 2.817549 2.375348 
142 "G18" 47.02220 72.67567 97.27779 42.68387 46.14258 95.51209 
143 "N12" 69.83291 63.86358 56.22034 37.07141 38.23408 32.16500 
144 "L3" 27.90265 80.37842 50.68284 29.12967 47.11516 29.07055 
145 "C3" 54.16342 100.0000 43.43175 49.62868 78.29157 28.18002 
146 "P9" 48.98604 23.81323 0.00000 10.99869 8.585778 1.937663 
147 "O17" 0.00000 78.11093 71.98291 29.78228 44.92641 52.62970 
148 "C1" 59.74365 25.04005 49.22866 19.39023 12.73600 21.68814 
149 "L21" 77.74929 19.39422 23.07164 26.00948 15.44696 6.546625 
150 "C11" 51.07500 35.51995 0.00000 13.81941 13.05356 2.651514 
151 "K3" 36.54536 23.62402 5.099565 7.172933 6.567412 2.126792 
152 "F10" 8.648814 29.07454 33.99405 5.453083 6.712464 10.73109 
153 "M6" 32.43458 54.45029 100.0000 31.49666 28.19086 98.33298 
154 "S20" 94.47318 100.0000 57.64401 77.50253 92.38739 41.94394 
155 "I20" 48.90669 96.21576 0.00000 41.76535 70.15374 12.20165 
156 "A5" 85.94339 18.99443 76.89479 40.90827 22.01407 54.72118 
157 "S6" 75.80682 54.33738 90.69657 46.24917 36.14749 80.47110 
158 "O11" 100.0000 0.00000 48.91432 45.47812 23.51112 22.12735 
159 "B19" 66.02426 61.58846 16.89631 29.44337 33.34447 8.016723 
160 "C13" 68.15595 0.00000 35.89532 20.13005 10.64462 11.77550 
161 "A15" 82.78325 39.42168 100.0000 50.05780 30.99793 97.89725 
162 "Q12" 78.93950 83.11284 0.00000 48.22137 59.91884 9.885989 
163 "Q4" 72.93812 78.71519 41.72885 44.25926 53.60086 22.48905 
164 "A3" 0.00000 38.28031 100.0000 23.15997 16.72385 96.55859 
165 "B15" 97.54788 93.94675 71.26574 78.64432 85.66745 56.93413 
166 "P11" 54.99199 67.71649 62.80919 32.77671 38.52337 39.57907 
167 "A13" 78.79759 33.61105 41.70901 30.69646 20.86705 16.87154 
168 "K14" 51.82574 56.97261 33.23110 22.12588 26.64702 13.29560 
169 "L15" 35.03777 49.64981 52.36133 16.80327 19.73677 25.94691 
170 "M12" 4.834058 46.25772 28.18952 8.717988 14.35767 9.223394 
171 "N15" 37.65011 0.00000 73.82010 14.78950 7.067420 48.69568 
172 "E2" 56.99550 49.18898 30.66148 21.30329 22.16653 11.18899 
173 "M16" 73.79721 35.52148 0.00000 25.24665 18.94629 3.187129 
174 "L2" 42.84123 33.76059 41.71054 13.17012 11.87531 16.05915 
175 "D21" 49.47433 14.13901 0.00000 10.16820 6.656517 1.609000 
176 "K19" 27.33806 72.16144 72.07752 28.99796 39.63702 51.78187 
177 "P3" 74.24277 46.84520 58.72740 33.87249 27.09392 32.77737 
178 "Q3" 45.76028 19.43389 21.53811 10.01331 7.216908 5.294821 
179 "L10" 72.44373 89.92142 35.29107 50.39476 67.55033 20.82190 
180 "J3" 100.0000 75.26055 51.71283 64.58845 60.97983 30.80009 
181 "M14" 49.57198 0.00000 31.36034 11.01085 5.995935 8.947102 
182 "G11" 62.94041 100.0000 76.78950 60.70084 83.18880 65.32870 
183 "J16" 85.82895 23.83917 0.00000 31.52413 19.17384 2.900430 
184 "R17" 44.28626 69.10506 39.14549 25.41581 36.20191 18.40404 
185 "E17" 63.35851 75.33684 62.59098 40.59862 48.42672 40.82595 
186 "C7" 57.01686 96.92073 87.87671 58.93828 78.27098 82.76055 
187 "E1" 42.06760 36.03571 70.78355 19.02258 14.95306 45.76946 
188 "C9" 72.80995 48.74952 44.61280 31.13715 26.84077 20.09634 
189 "D8" 63.62097 30.83696 18.58854 19.05722 14.32027 5.325378 
190 "Q19" 64.15656 39.37133 17.47311 21.08606 18.05565 5.648741 
191 "L16" 35.92279 26.91081 89.41024 21.27909 12.94524 74.92239 
192 "J2" 36.94667 68.04608 78.06668 30.70025 37.23597 59.98049 
193 "T3" 31.32982 40.57221 59.06004 14.61276 14.57727 31.73104 
194 "D6" 72.29114 29.24392 49.22866 26.81338 17.53609 22.22327 
195 "S3" 40.16175 21.38857 41.69986 10.39555 7.520047 15.35760 
196 "H13" 41.84634 100.0000 67.85840 49.84544 77.86611 52.43630 
197 "H4" 58.55192 100.0000 100.0000 66.60292 85.30347 107.5084 
198 "H6" 20.59205 24.04211 32.12940 5.601915 5.674936 9.551308 
199 "H9" 68.13458 58.60533 62.32242 35.12593 33.77550 37.97738 
200 "I19" 78.57633 46.67277 32.31556 32.73727 26.88374 12.30999 
201 "I14" 15.70764 0.00000 4.129091 1.925654 1.470661 1.341666 
202 "L1" 0.00000 83.45922 24.67536 25.39996 48.37541 13.50553 
203 "S17" 28.05066 35.19951 13.00069 7.485110 9.654781 3.765014 
204 "G16" 64.83101 81.31533 0.00000 38.60463 53.30106 9.115060 
205 "D12" 41.65255 64.38392 66.44236 27.21535 33.24569 43.22454 
206 "T7" 49.84360 57.77981 78.66789 30.45454 30.39358 59.60264 
207 "O22" 0.00000 10.95445 0.00000 1.409606 1.819098 1.136537 
208 "H7" 18.89677 39.19280 17.47311 7.182556 10.82255 4.984798 
209 "J9" 17.19387 11.72961 0.00000 2.479278 2.441610 1.200362 
210 "K16" 78.42527 89.34463 67.23125 59.31890 70.91881 49.79751 
211 "B2" 0.00000 26.68193 66.17990 10.11693 7.923969 38.91106 
212 "E3" 94.96147 39.97559 74.90501 51.31527 32.83820 53.31138 
213 "F17" 55.65270 0.00000 50.31662 15.90742 8.237794 21.94101 
214 "O21" 77.33425 40.11444 75.67559 38.10989 26.05583 53.82990 
215 "K6" 42.91905 45.17433 53.04494 17.73813 18.16836 26.22849 
216 "A12" 0.00000 5.864042 46.18906 4.393224 2.626598 18.04125 
217 "C16" 95.56268 88.05829 100.0000 82.23796 80.20411 105.7006 
218 "K11" 66.07309 20.69734 0.00000 18.34139 11.79725 2.170844 
219 "J11" 74.76310 58.94408 34.67002 34.79170 34.31715 14.88221 
220 "E9" 29.83291 80.98878 65.42153 32.82344 49.22763 44.75313 
221 "S4" 39.62005 77.80880 33.05104 27.99924 44.54753 16.34753 
222 "M1" 25.49325 35.36736 34.67765 8.555646 10.08732 11.59125 
223 "S8" 27.99268 89.08522 93.84756 46.31318 63.00358 91.69146 
224 "B9" 0.00000 0.00000 67.64019 8.418533 3.966945 40.07417 
225 "J14" 90.73472 40.64393 41.53964 41.18448 28.64290 17.70259 
226 "G6" 51.82422 57.42580 18.23758 21.18674 26.55354 7.481249 
227 "K8" 18.33066 52.32776 52.30793 14.73061 20.00415 26.05859 
228 "T15" 4.834058 0.00000 28.19104 2.309069 1.541433 7.087655 
229 "L20" 58.18723 64.97902 70.76829 34.80817 37.43827 49.25779 
230 "M18" 62.20493 49.14321 6.556802 22.48066 22.89905 4.609714 
231 "P17" 81.37636 72.91524 0.00000 43.98852 48.94555 7.990762 
232 "M17" 25.29488 34.61357 41.70901 9.196639 10.08606 15.92242 
233 "L6" 69.90158 64.06653 43.34020 35.08117 37.58863 21.02319 
234 "A19" 78.41459 0.00000 4.185550 24.62926 13.17662 2.409738 
235 "G3" 17.37545 20.70954 0.00000 3.293441 4.040540 1.466121 
236 "O9" 56.78340 59.36980 0.00000 23.54534 28.97915 5.213370 
237 "B11" 27.79583 56.65522 90.80644 27.86786 27.95177 80.06546 
238 "P19" 0.00000 38.69993 64.62806 12.09425 12.45670 37.78564 
239 "K18" 76.69642 54.94926 38.46952 34.91934 32.04180 16.67280 
240 "E7" 53.33791 0.125124 20.34028 11.66836 6.435088 4.688932 
241 "R19" 49.60250 0.00000 100.0000 27.46085 12.57621 95.53146 
242 "E21" 85.74807 25.87930 35.67712 33.61850 20.46399 12.83574 
243 "Q16" 62.94499 9.800870 19.33776 16.35346 9.362657 4.717581 
244 "R1" 73.64462 63.70489 5.760281 34.43614 37.33094 6.688017 
245 "T22" 32.76722 18.34745 24.41291 6.446512 5.189025 6.070873 
246 "J19" 76.60945 47.74701 52.36133 34.46098 27.94560 26.60161 
247 "P18" 100.0000 96.98482 87.87671 88.18737 93.42450 84.14516 
248 "I22" 100.0000 100.0000 0.00000 77.23538 92.85269 14.71507 
249 "C15" 90.68437 80.99641 65.42000 62.57790 64.57639 46.14876 
250 "P16" 89.06996 68.45502 90.80491 61.85613 53.11759 83.12869 
251 "A11" 44.71504 39.08141 33.70565 14.01376 14.16568 11.56375 
252 "M2" 0.00000 83.26238 59.94812 30.07148 50.04466 38.72484 
253 "O15" 75.79004 61.68307 58.98985 40.31159 38.42422 34.90607 
254 "G8" 89.52621 66.02884 30.76677 48.07800 45.79079 14.38903 
255 "A7" 68.33448 44.92256 0.00000 24.35796 21.97737 3.819023 
256 "S13" 37.48074 88.93416 20.23346 33.47419 57.94954 13.45256 
257 "C22" 0.00000 18.18112 16.93446 2.416452 3.136502 3.618654 
258 "J5" 77.75540 75.75799 91.00481 57.48044 56.53333 84.39535 
259 "O20" 35.45739 56.87495 46.68193 18.54371 24.54909 21.91779 
260 "I15" 59.20958 58.04685 90.69352 38.43961 34.21310 80.50568 
261 "O3" 57.36172 34.85771 85.21248 28.74941 19.10431 68.23949 
262 "H8" 83.10674 21.98215 88.48554 42.80424 23.06978 74.05512 
263 "L19" 100.0000 76.39734 0.00000 61.10996 60.60636 9.339882 
264 "R9" 75.12932 40.64546 41.53964 29.85456 22.80196 17.17185 
265 "F8" 44.18860 21.77615 35.67864 10.94839 7.957989 11.61604 
266 "R15" 100.0000 66.12497 54.37400 60.39599 51.83717 31.74308 
267 "H12" 48.04456 38.54276 38.33219 15.54038 14.70300 14.26088 
268 "C14" 0.00000 57.03975 73.83078 20.10919 24.78992 51.85100 
269 "S7" 75.68627 63.67285 49.46822 39.36750 39.43028 25.99291 
270 "D17" 52.72450 38.39780 21.76089 15.81527 14.96477 6.555788 
271 "B12" 64.62501 88.16052 72.70771 51.64042 65.59108 56.47650 
272 "O16" 93.52560 65.68093 0.00000 49.84330 46.62054 7.233604 
273 "T13" 73.38369 0.00000 100.0000 39.19209 18.62488 96.08117 
274 "O14" 34.34043 37.11604 84.74250 21.24763 15.98507 67.22352 
275 "T21" 30.20981 28.77546 0.00000 6.416572 7.330191 1.936630 
276 "A17" 33.29671 87.38994 45.29793 33.87821 56.30688 26.15919 
277 "N20" 61.44808 74.22293 50.99565 36.77305 45.80702 28.69302 
278 "D7" 73.47982 82.89769 100.0000 62.41083 64.96745 103.8037 
279 "E13" 32.21485 0.00000 53.27687 8.847571 4.538497 24.28284 
280 "P7" 33.38521 13.16091 0.00000 5.275033 4.026369 1.359019 
281 "J1" 65.99374 100.0000 0.00000 52.45289 80.07475 13.55380 
282 "S22" 63.68353 21.77462 34.94011 18.99865 12.11764 11.57889 
283 "G2" 0.00000 59.68566 29.86648 13.44594 23.81340 11.54806 
284 "E18" 27.79583 69.25612 90.75151 33.39124 39.02898 81.80795 
285 "H2" 0.00000 63.09911 45.76028 16.76229 27.46331 21.84963 
286 "O1" 63.15862 33.93912 38.46342 21.08783 16.05863 14.31202 
287 "J21" 52.26673 13.16701 12.30793 11.42471 7.168870 2.951870 
288 "Q20" 44.63874 47.72869 74.39536 23.87438 21.90715 51.90946 
289 "C19" 95.53521 51.84100 29.15389 47.23546 36.85939 11.96248 
290 "G7" 45.22469 40.52949 54.67155 17.52248 16.16018 27.40200 
291 "Q8" 100.0000 0.00000 61.43282 47.82638 24.45028 34.49591 
292 "Q5" 29.48501 21.77768 34.00015 6.956177 5.920255 10.50164 
293 "N21" 100.0000 87.57153 90.43259 82.26290 80.14902 86.57493 
294 "S21" 72.46662 85.86252 80.86671 56.88143 65.73581 68.51295 
295 "K20" 100.0000 37.41665 52.40101 50.15287 31.92124 26.57867 
296 "H5" 46.42863 0.648508 65.42458 15.35863 7.632720 37.64950 
297 "R14" 89.50027 95.08507 88.84718 77.99061 85.97637 85.00067 
298 "T16" 51.75402 66.03189 30.76677 25.72764 34.26892 13.34212 
299 "K2" 60.10376 38.15671 72.67262 27.01892 19.73097 48.87202 
300 "N6" 86.24857 80.47761 74.65934 61.11263 63.08081 58.27693 
301 "J8" 53.23873 38.71519 100.0000 33.27677 22.09281 97.06213 
302 "J10" 0.00000 20.24872 38.16129 4.350514 4.259340 12.72820 
303 "F13" 89.68490 54.83024 76.84443 52.01428 39.90335 57.51357 
304 "S15" 92.41779 0.00000 67.76532 42.58720 21.58087 41.83561 
305 "M9" 26.18448 31.40917 23.88037 6.954274 8.199061 6.433607 
306 "N13" 0.00000 66.26230 100.0000 32.91227 36.22572 99.80939 
307 "M4" 96.41718 70.41276 70.91936 62.89214 55.80777 51.52810 
308 "E19" 86.87877 23.94751 46.36606 35.59266 20.91731 20.06823 
309 "F20" 87.87518 38.01938 11.75555 35.91936 25.25214 5.057008 
310 "G22" 42.80461 11.98749 49.69406 11.51136 6.686672 21.33320 
311 "S9" 72.28046 52.52461 0.00000 29.07712 27.99057 4.731195 
312 "G12" 81.20546 69.91989 78.86015 52.76713 49.96298 62.50337 
313 "D1" 40.14954 55.24987 0.00000 15.88189 22.64440 4.394198 
314 "H21" 90.89799 57.42428 18.23758 44.62132 38.63516 8.579096 
315 "Q2" 0.00000 26.48814 19.33928 3.574892 5.260364 4.599075 
316 "R3" 91.01701 58.90593 90.69352 59.12787 45.38990 81.57372 
317 "C17" 92.47120 87.91028 50.98344 65.60965 73.08634 32.42846 
318 "D20" 42.94652 85.87320 80.86671 43.43605 58.81381 67.88496 
319 "N17" 16.82612 52.51698 0.00000 10.41175 18.36281 3.855830 
320 "M13" 23.89868 3.067063 0.00000 2.985907 2.148704 1.117139 
321 "K7" 0.00000 14.47166 88.25818 15.11566 7.688359 72.13207 
322 "I17" 77.02907 37.53719 63.56451 34.22900 23.49381 37.48467 
323 "A8" 100.0000 30.83391 23.70489 45.39120 27.86254 8.142427 
324 "A20" 91.11315 0.00000 20.09155 34.65400 18.28309 5.691961 
325 "Q1" 48.61372 23.86969 17.45785 11.32965 8.714511 4.355642 
326 "I13" 24.29694 7.035935 27.71954 4.293597 2.885543 7.041780 
327 "J15" 87.09545 89.49874 96.48890 74.85799 78.03072 98.36009 
328 "C10" 95.78241 98.32761 37.72641 74.19405 89.06389 25.15137 
329 "Q10" 27.43877 73.26467 0.00000 21.05618 37.39860 6.969669 
330 "O13" 58.56565 89.92294 35.29107 42.98456 63.73124 20.47499 
331 "T2" 87.10002 100.0000 67.85687 73.73287 90.18260 53.55308 
332 "B6" 85.91287 11.57092 50.31510 34.27136 18.37034 22.92916 
333 "D13" 0.00000 90.25711 6.385901 29.15405 57.14871 10.85205 
334 "Q17" 28.81056 96.97414 87.87671 50.10497 73.77747 82.35844 
335 "D3" 23.47601 17.01228 45.13161 6.774708 4.912448 17.53879 
336 "K5" 26.48661 100.0000 43.02129 41.50437 74.10919 27.50412 
337 "M22" 81.02083 80.65003 30.75608 49.51449 58.16572 16.69726 
338 "N18" 34.45792 26.48508 19.33928 7.546547 7.307713 4.785094 
339 "T18" 64.04364 11.53124 48.97993 20.12095 11.09589 21.12257 
340 "N22" 30.07401 40.36774 0.00000 8.801507 12.14040 2.739531 
341 "G14" 0.00000 100.0000 73.55306 45.34567 75.37614 59.89214 
342 "L9" 57.22438 39.22026 47.62341 20.67956 17.44650 21.19193 
343 "L17" 53.19753 21.53201 82.71611 23.97712 13.50265 63.18609 
344 "E15" 39.85199 87.44793 35.29259 34.33389 56.74673 19.58312 
345 "F18" 96.85969 52.08667 0.00000 47.25424 37.13720 5.539405 
346 "T4" 79.18364 26.24094 100.0000 44.94662 24.53377 96.91867 
347 "H17" 46.85283 48.14679 88.18341 29.02003 24.25958 74.46493 
348 "S2" 36.99702 28.21851 0.00000 7.896613 7.957068 1.979685 
349 "H18" 76.54383 73.35622 78.31998 51.22566 51.83655 62.10881 
350 "F11" 78.05295 89.97635 51.70825 56.30483 70.39048 33.04815 
351 "M3" 73.47982 94.01541 100.0000 70.02617 80.19600 106.3422 
352 "R20" 31.68688 40.10681 51.80591 13.20436 13.83587 24.49099 
353 "S12" 50.71489 49.38735 38.95323 19.63676 21.30095 15.70957 
354 "K22" 37.49599 100.0000 0.424201 41.14704 74.24474 13.05465 
355 "M8" 96.75135 43.56756 35.70916 46.38788 32.55396 14.51481 
356 "J12" 0.00000 12.65583 34.93095 3.306970 2.752384 10.59210 
357 "K21" 84.12299 70.27543 72.61616 53.29334 50.70380 53.38891 
358 "B14" 49.20729 58.90745 88.28870 33.74924 32.40338 75.97769 
359 "M21" 64.61891 90.24949 6.385901 44.46551 65.03514 11.56794 
360 "M10" 14.56474 28.67933 56.15778 9.051781 8.095511 27.76007 
361 "D4" 31.40307 0.00000 4.336614 4.342051 2.716215 1.470589 
362 "F15" 0.00000 76.50874 89.00130 34.06391 45.16755 79.71881 
363 "B20" 67.46777 52.80232 63.96887 32.93854 29.36722 39.16497 
364 "L14" 89.06386 28.79377 26.15396 35.77985 22.35971 8.502174 
365 "F7" 66.68956 0.00000 82.18509 28.89067 14.05440 62.15702 
