Pre-made_Targets/Patch Width 16-30mm - Easy (Freehand possible)/CM-Easy-Letter-56p-1page-w24.0mm-8x7/CM-Easy-Letter-56p-1page.ti2
CTI2   

DESCRIPTOR "Argyll Calibration Target chart information 2"
ORIGINATOR "Argyll printtarg"
CREATED "Sun Feb  8 01:06:46 2026"
TARGET_INSTRUMENT "X-Rite ColorMunki"
COMP_GREY_STEPS "10"
APPROX_WHITE_POINT "95.106486 100.000000 108.844025"
TOTAL_INK_LIMIT "300.0"
COLOR_REP "iRGB"
PAPER_SIZE "215.9x279.4"
RANDOM_START "46"
STEPS_IN_PASS "7"
PASSES_IN_STRIPS2 "8"
STRIP_INDEX_PATTERN "A-Z, A-Z"
PATCH_INDEX_PATTERN "0-9,@-9,@-9;1-999"
INDEX_ORDER "STRIP_THEN_PATCH"

NUMBER_OF_FIELDS 8
BEGIN_DATA_FORMAT
SAMPLE_ID SAMPLE_LOC RGB_R RGB_G RGB_B XYZ_X XYZ_Y XYZ_Z 
END_DATA_FORMAT

NUMBER_OF_SETS 56
BEGIN_DATA
1 "C6" 100.0000 100.0000 100.0000 95.10649 100.0000 108.8440 
2 "H5" 100.0000 100.0000 100.0000 95.10649 100.0000 108.8440 
3 "A1" 0.00000 0.00000 0.00000 1.000000 1.000000 1.000000 
4 "B6" 0.00000 0.00000 0.00000 1.000000 1.000000 1.000000 
5 "C4" 88.88838 88.88838 88.88838 73.04830 76.79480 83.56582 
6 "G5" 77.77829 77.77829 77.77829 54.34375 57.11761 62.13080 
7 "A6" 66.66667 66.66667 66.66667 38.82872 40.79580 44.35090 
8 "D3" 55.55505 55.55505 55.55505 26.32527 27.64218 30.02222 
9 "E6" 44.44495 44.44495 44.44495 16.63806 17.45124 18.92088 
10 "E1" 33.33333 33.33333 33.33333 9.548794 9.993329 10.79674 
11 "C2" 22.22171 22.22171 22.22171 4.807158 5.005130 5.362922 
12 "F3" 11.11162 11.11162 11.11162 2.113706 2.171618 2.276283 
13 "A5" 0.00000 0.00000 100.0000 18.87111 8.147314 95.12896 
14 "E7" 0.00000 100.0000 0.00000 36.40521 71.80052 12.80184 
15 "D5" 100.0000 0.00000 0.00000 41.83017 22.05217 2.913230 
16 "H7" 100.0000 87.21447 33.31655 69.41879 74.62724 20.11090 
17 "C7" 77.13588 0.00000 52.15534 27.91025 14.39020 24.14137 
18 "B7" 56.06012 21.92874 22.12711 14.32072 9.857480 5.767420 
19 "E2" 0.00000 0.204471 35.97467 2.906757 1.771541 11.01546 
20 "G4" 100.0000 69.04707 54.28092 61.78691 54.64610 32.12194 
21 "D1" 0.00000 100.0000 83.22271 48.19849 76.51709 74.91827 
22 "B5" 0.00000 62.80156 100.0000 31.34194 33.08549 99.28594 
23 "B1" 30.12131 53.99100 20.74006 13.60099 20.71038 7.462864 
24 "G3" 73.50118 52.54444 10.96361 30.03960 28.47306 5.859033 
25 "H4" 34.79515 88.88533 100.0000 50.02778 64.43672 104.3535 
26 "B3" 87.12444 62.85191 100.0000 61.23901 48.53288 100.6931 
27 "F1" 92.47730 0.00000 100.0000 53.05885 25.77463 96.73094 
28 "D6" 22.58335 24.96071 0.00000 4.499615 5.469395 1.678405 
29 "A3" 61.26040 69.05318 54.28092 34.57488 40.61977 30.84766 
30 "C5" 75.64050 98.64042 55.61761 61.88490 82.76947 38.85283 
31 "H6" 74.92027 82.17441 100.0000 62.86150 64.52795 103.6952 
32 "E5" 81.84329 38.01022 10.84001 31.37850 22.91096 4.695428 
33 "H1" 43.31426 24.95460 39.80621 11.56725 8.840567 14.27810 
34 "G6" 73.50118 0.00000 11.10857 21.60523 11.59967 3.069117 
35 "H3" 78.91356 41.95621 54.27176 34.68345 25.56266 27.92681 
36 "D7" 63.51720 70.75303 22.19730 32.71121 41.37467 10.90562 
37 "G1" 43.31731 24.95460 0.00000 9.218097 7.901179 1.899296 
38 "C3" 100.0000 55.28649 55.55505 56.06703 42.82797 31.38714 
39 "A4" 100.0000 81.15358 93.70871 79.32664 72.36685 91.48809 
40 "F4" 22.58183 0.00000 0.00000 2.703653 1.878409 1.079830 
41 "H2" 0.00000 58.88914 54.27329 16.39543 24.47460 28.68209 
42 "A7" 57.49142 19.71923 0.00000 13.98420 9.388591 1.935388 
43 "F2" 38.60075 77.60891 8.668650 26.14951 43.59082 8.653590 
44 "B4" 78.91508 69.05776 48.14984 43.82661 45.51465 25.82345 
45 "C1" 10.94377 41.40230 100.0000 24.40244 18.50858 96.83766 
46 "A2" 32.65736 0.00000 35.92279 6.451589 3.591621 11.14998 
47 "G7" 0.00000 28.57557 20.88502 3.992460 5.956789 5.165691 
48 "D2" 58.33677 27.98962 76.37598 25.20811 15.70258 53.55117 
49 "D4" 85.22011 100.0000 0.00000 64.82790 86.45535 14.13367 
50 "E3" 0.00000 22.06607 36.64607 4.388903 4.615971 11.87789 
51 "G2" 49.33394 48.66560 69.05318 24.40478 22.77762 44.69105 
52 "E4" 0.00000 34.33585 11.00633 4.627448 7.920650 3.236852 
53 "F6" 73.69650 56.36530 53.72396 35.81905 33.03059 28.78455 
54 "F5" 0.00000 90.11063 88.88838 42.63774 62.37531 82.38406 
55 "F7" 60.40284 62.77867 100.0000 44.53075 39.87034 99.90098 
56 "B2" 62.60166 81.15511 76.84291 47.21845 56.45726 60.95894 
END_DATA
