Pre-made_Targets/Patch Width 8-11mm - Expert (Use rig-guide-ruler)/Designed Targets/CM-Expert-Letter-465p-2pages-w11.0mm-16x15-SpyderHighQ.TargetPlusGrays/SpyderPlusGrays.ti2
CTI2

DESCRIPTOR "Argyll Calibration Target chart information 2"
ORIGINATOR "Argyll printtarg"
CREATED "Sun Mar 30 10:08:43 2025"
TARGET_INSTRUMENT "X-Rite ColorMunki"
APPROX_WHITE_POINT "95.106486 100.000000 108.844025"
COLOR_REP "iRGB"
PAPER_SIZE "215.9x279.4"
CHART_ID "133"
STEPS_IN_PASS "15"
PASSES_IN_STRIPS2 "16,15"
STRIP_INDEX_PATTERN "A-Z, A-Z"
PATCH_INDEX_PATTERN "0-9,@-9,@-9;1-999"
INDEX_ORDER "STRIP_THEN_PATCH"

NUMBER_OF_FIELDS 8
BEGIN_DATA_FORMAT
SAMPLE_ID SAMPLE_LOC RGB_R RGB_G RGB_B XYZ_X XYZ_Y XYZ_Z
END_DATA_FORMAT

NUMBER_OF_SETS 465
BEGIN_DATA
1 "A1" 0.00000 0.00000 0.00000 0.00000 0.00000 0.00000
2 "A2" 0.00000 0.00000 25.098 0.009251 0.0037 0.048722
3 "A3" 0.00000 0.00000 50.1961 0.038949 0.01558 0.205133
4 "A4" 0.00000 0.00000 75.2941 0.095111 0.038045 0.50092
5 "A5" 0.00000 0.00000 100 0.180438 0.072175 0.950304
6 "A6" 25.098 0.00000 0.00000 0.021146 0.010904 0.000991
7 "A7" 25.098 0.00000 25.098 0.030397 0.014604 0.049713
8 "A8" 25.098 0.00000 50.1961 0.060096 0.026483 0.206124
9 "A9" 25.098 0.00000 75.2941 0.116258 0.048948 0.501911
10 "A10" 25.098 0.00000 100 0.201584 0.083079 0.951295
11 "A11" 50.1961 0.00000 0.00000 0.089033 0.045908 0.004173
12 "A12" 50.1961 0.00000 25.098 0.098284 0.049608 0.052895
13 "A13" 50.1961 0.00000 50.1961 0.127982 0.061487 0.209307
14 "A14" 50.1961 0.00000 75.2941 0.184144 0.083952 0.505093
15 "A15" 50.1961 0.00000 100 0.269471 0.118083 0.954478
16 "B1" 0.00000 25.098 0.00000 0.018333 0.036665 0.006111
17 "B2" 0.00000 25.098 25.098 0.027584 0.040366 0.054832
18 "B3" 0.00000 25.098 50.1961 0.057282 0.052245 0.211244
19 "B4" 0.00000 25.098 75.2941 0.113444 0.07471 0.507031
20 "B5" 0.00000 25.098 100 0.19877 0.10884 0.956415
21 "B6" 25.098 25.098 0.00000 0.039479 0.047569 0.007102
22 "B7" 25.098 25.098 25.098 0.04873 0.051269 0.055824
23 "B8" 25.098 25.098 50.1961 0.078428 0.063149 0.212235
24 "B9" 25.098 25.098 75.2941 0.13459 0.085614 0.508022
25 "B10" 25.098 25.098 100 0.219917 0.119744 0.957406
26 "B11" 50.1961 25.098 0.00000 0.107366 0.082573 0.010284
27 "B12" 50.1961 25.098 25.098 0.116617 0.086274 0.059006
28 "B13" 50.1961 25.098 50.1961 0.146315 0.098153 0.215417
29 "B14" 50.1961 25.098 75.2941 0.202477 0.120618 0.511204
30 "B15" 50.1961 25.098 100 0.287803 0.154748 0.960588
31 "C1" 0.00000 50.1961 0.00000 0.077187 0.154373 0.025729
32 "C2" 0.00000 50.1961 25.098 0.086437 0.158073 0.07445
33 "C3" 0.00000 50.1961 50.1961 0.116136 0.169953 0.230862
34 "C4" 0.00000 50.1961 75.2941 0.172298 0.192418 0.526649
35 "C5" 0.00000 50.1961 100 0.257624 0.226548 0.976033
36 "C6" 25.098 50.1961 0.00000 0.098333 0.165277 0.02672
37 "C7" 25.098 50.1961 25.098 0.107584 0.168977 0.075442
38 "C8" 25.098 50.1961 50.1961 0.137282 0.180856 0.231853
39 "C9" 25.098 50.1961 75.2941 0.193444 0.203321 0.52764
40 "C10" 25.098 50.1961 100 0.27877 0.237452 0.977024
41 "C11" 50.1961 50.1961 0.00000 0.16622 0.200281 0.029902
42 "C12" 50.1961 50.1961 25.098 0.175471 0.203981 0.078624
43 "C13" 50.1961 50.1961 50.1961 0.205169 0.215861 0.235035
44 "C14" 50.1961 50.1961 75.2941 0.261331 0.238325 0.530822
45 "C15" 50.1961 50.1961 100 0.346657 0.272456 0.980206
46 "D1" 0.00000 75.2941 0.00000 0.188484 0.376968 0.062828
47 "D2" 0.00000 75.2941 25.098 0.197735 0.380668 0.111549
48 "D3" 0.00000 75.2941 50.1961 0.227433 0.392547 0.267961
49 "D4" 0.00000 75.2941 75.2941 0.283595 0.415012 0.563748
50 "D5" 0.00000 75.2941 100 0.368921 0.449143 1.01313
51 "D6" 25.098 75.2941 0.00000 0.20963 0.387871 0.063819
52 "D7" 25.098 75.2941 25.098 0.218881 0.391572 0.112541
53 "D8" 25.098 75.2941 50.1961 0.24858 0.403451 0.268952
54 "D9" 25.098 75.2941 75.2941 0.304742 0.425916 0.564739
55 "D10" 25.098 75.2941 100 0.390068 0.460046 1.01412
56 "D11" 50.1961 75.2941 0.00000 0.277517 0.422875 0.067001
57 "D12" 50.1961 75.2941 25.098 0.286768 0.426576 0.115723
58 "D13" 50.1961 75.2941 50.1961 0.316466 0.438455 0.272134
59 "D14" 50.1961 75.2941 75.2941 0.372628 0.46092 0.567921
60 "D15" 50.1961 75.2941 100 0.457954 0.49505 1.0173
61 "E1" 0.00000 100 0.00000 0.357576 0.715152 0.119192
62 "E2" 0.00000 100 25.098 0.366827 0.718853 0.167914
63 "E3" 0.00000 100 50.1961 0.396525 0.730732 0.324325
64 "E4" 0.00000 100 75.2941 0.452687 0.753197 0.620112
65 "E5" 0.00000 100 100 0.538014 0.787327 1.0695
66 "E6" 25.098 100 0.00000 0.378723 0.726056 0.120183
67 "E7" 25.098 100 25.098 0.387973 0.729756 0.168905
68 "E8" 25.098 100 50.1961 0.417672 0.741636 0.325316
69 "E9" 25.098 100 75.2941 0.473834 0.7641 0.621103
70 "E10" 25.098 100 100 0.55916 0.798231 1.07049
71 "E11" 50.1961 100 0.00000 0.446609 0.76106 0.123365
72 "E12" 50.1961 100 25.098 0.45586 0.76476 0.172087
73 "E13" 50.1961 100 50.1961 0.485558 0.77664 0.328499
74 "E14" 50.1961 100 75.2941 0.54172 0.799104 0.624285
75 "E15" 50.1961 100 100 0.627047 0.833235 1.07367
76 "F1" 75.2941 0.00000 0.00000 0.217412 0.112103 0.010191
77 "F2" 75.2941 0.00000 25.098 0.226663 0.115803 0.058913
78 "F3" 75.2941 0.00000 50.1961 0.256361 0.127683 0.215324
79 "F4" 75.2941 0.00000 75.2941 0.312523 0.150148 0.511111
80 "F5" 75.2941 0.00000 100 0.39785 0.184278 0.960495
81 "F6" 100 0.00000 0.00000 0.412456 0.212673 0.019334
82 "F7" 100 0.00000 25.098 0.421707 0.216373 0.068055
83 "F8" 100 0.00000 50.1961 0.451406 0.228253 0.224467
84 "F9" 100 0.00000 75.2941 0.507568 0.250717 0.520254
85 "F10" 100 0.00000 100 0.592894 0.284848 0.969638
86 "F11" 0.00000 0.00000 12.549 0.002606 0.001042 0.013726
87 "F12" 0.00000 12.549 0.00000 0.005165 0.01033 0.001722
88 "F13" 0.00000 12.549 12.549 0.007771 0.011372 0.015448
89 "F14" 0.00000 12.549 25.098 0.014416 0.01403 0.050443
90 "F15" 0.00000 25.098 12.549 0.020939 0.037708 0.019837
91 "G1" 75.2941 25.098 0.00000 0.235745 0.148769 0.016302
92 "G2" 75.2941 25.098 25.098 0.244996 0.152469 0.065024
93 "G3" 75.2941 25.098 50.1961 0.274694 0.164348 0.221435
94 "G4" 75.2941 25.098 75.2941 0.330856 0.186813 0.517222
95 "G5" 75.2941 25.098 100 0.416182 0.220944 0.966606
96 "G6" 100 25.098 0.00000 0.430789 0.249338 0.025445
97 "G7" 100 25.098 25.098 0.44004 0.253039 0.074166
98 "G8" 100 25.098 50.1961 0.469738 0.264918 0.230578
99 "G9" 100 25.098 75.2941 0.5259 0.287383 0.526365
100 "G10" 100 25.098 100 0.611227 0.321513 0.975749
101 "G11" 12.549 0.00000 0.00000 0.005957 0.003072 0.000279
102 "G12" 12.549 0.00000 12.549 0.008564 0.004114 0.014005
103 "G13" 12.549 12.549 0.00000 0.011122 0.013401 0.002001
104 "G14" 12.549 12.549 12.549 0.013728 0.014444 0.015727
105 "G15" 12.549 25.098 25.098 0.033541 0.043438 0.055112
106 "H1" 75.2941 50.1961 0.00000 0.294599 0.266476 0.03592
107 "H2" 75.2941 50.1961 25.098 0.30385 0.270177 0.084642
108 "H3" 75.2941 50.1961 50.1961 0.333548 0.282056 0.241053
109 "H4" 75.2941 50.1961 75.2941 0.38971 0.304521 0.53684
110 "H5" 75.2941 50.1961 100 0.475036 0.338651 0.986224
111 "H6" 100 50.1961 0.00000 0.489643 0.367046 0.045063
112 "H7" 100 50.1961 25.098 0.498894 0.370746 0.093784
113 "H8" 100 50.1961 50.1961 0.528592 0.382626 0.250196
114 "H9" 100 50.1961 75.2941 0.584754 0.405091 0.545982
115 "H10" 100 50.1961 100 0.67008 0.439221 0.995367
116 "H11" 25.098 0.00000 12.549 0.023753 0.011946 0.014717
117 "H12" 25.098 12.549 0.00000 0.026311 0.021233 0.002713
118 "H13" 25.098 12.549 12.549 0.028917 0.022276 0.016439
119 "H14" 37.6471 37.6471 37.6471 0.111177 0.116971 0.127361
120 "H15" 62.7451 62.7451 62.7451 0.334121 0.351533 0.382759
121 "I1" 75.2941 75.2941 0.00000 0.405896 0.489071 0.073019
122 "I2" 75.2941 75.2941 25.098 0.415147 0.492771 0.121741
123 "I3" 75.2941 75.2941 50.1961 0.444845 0.50465 0.278152
124 "I4" 75.2941 75.2941 75.2941 0.501007 0.527115 0.573939
125 "I5" 75.2941 75.2941 100 0.586333 0.561246 1.02332
126 "I6" 100 75.2941 0.00000 0.60094 0.58964 0.082162
127 "I7" 100 75.2941 25.098 0.610191 0.593341 0.130883
128 "I8" 100 75.2941 50.1961 0.63989 0.60522 0.287295
129 "I9" 100 75.2941 75.2941 0.696052 0.627685 0.583082
130 "I10" 100 75.2941 100 0.781378 0.661815 1.03247
131 "I11" 75.2941 87.8431 87.8431 0.61845 0.69898 0.807398
132 "I12" 75.2941 87.8431 100 0.664388 0.717356 1.04934
133 "I13" 75.2941 100 87.8431 0.709487 0.881055 0.837744
134 "I14" 87.8431 87.8431 87.8431 0.708484 0.745404 0.811619
135 "I15" 87.8431 87.8431 100 0.754423 0.76378 1.05356
136 "J1" 75.2941 100 0.00000 0.574988 0.827255 0.129383
137 "J2" 75.2941 100 25.098 0.584239 0.830956 0.178105
138 "J3" 75.2941 100 50.1961 0.613937 0.842835 0.334516
139 "J4" 75.2941 100 75.2941 0.670099 0.8653 0.630303
140 "J5" 75.2941 100 100 0.755426 0.89943 1.07969
141 "J6" 100 100 0.00000 0.770033 0.927825 0.138526
142 "J7" 100 100 25.098 0.779283 0.931525 0.187247
143 "J8" 100 100 50.1961 0.808982 0.943405 0.343659
144 "J9" 100 100 75.2941 0.865144 0.96587 0.639446
145 "J10" 100 100 100 0.95047 1 1.08883
146 "J11" 87.8431 100 87.8431 0.799522 0.927479 0.841964
147 "J12" 87.8431 100 100 0.84546 0.945854 1.08391
148 "J13" 100 87.8431 87.8431 0.813494 0.79955 0.816541
149 "J14" 100 87.8431 100 0.859433 0.817925 1.05848
150 "J15" 100 100 87.8431 0.904531 0.981625 0.846887
151 "K1" 0.00000 0.00000 37.6471 0.021106 0.008442 0.111158
152 "K2" 0.00000 12.549 37.6471 0.026271 0.018772 0.112879
153 "K3" 0.00000 25.098 37.6471 0.039439 0.045108 0.117269
154 "K4" 0.00000 37.6471 0.00000 0.041826 0.083652 0.013942
155 "K5" 0.00000 37.6471 12.549 0.044432 0.084694 0.027668
156 "K6" 37.6471 37.6471 50.1961 0.129021 0.124108 0.221337
157 "K7" 37.6471 50.1961 25.098 0.134683 0.18295 0.076712
158 "K8" 37.6471 50.1961 37.6471 0.146538 0.187692 0.139148
159 "K9" 37.6471 50.1961 50.1961 0.164381 0.194829 0.233123
160 "K10" 50.1961 37.6471 37.6471 0.151965 0.138002 0.129273
161 "K11" 75.2941 75.2941 87.8431 0.540395 0.54287 0.78138
162 "K12" 75.2941 87.8431 62.7451 0.54738 0.670552 0.4331
163 "K13" 75.2941 87.8431 75.2941 0.579062 0.683225 0.599957
164 "K14" 75.2941 100 62.7451 0.638418 0.852627 0.463446
165 "K15" 87.8431 62.7451 62.7451 0.496576 0.435298 0.390374
166 "L1" 0.00000 37.6471 25.098 0.051077 0.087352 0.062664
167 "L2" 0.00000 37.6471 37.6471 0.062932 0.092094 0.1251
168 "L3" 12.549 0.00000 25.098 0.015208 0.006772 0.049001
169 "L4" 12.549 12.549 25.098 0.020373 0.017102 0.050722
170 "L5" 12.549 25.098 0.00000 0.02429 0.039737 0.00639
171 "L6" 50.1961 37.6471 50.1961 0.169808 0.145139 0.223249
172 "L7" 50.1961 37.6471 62.7451 0.194289 0.154931 0.352178
173 "L8" 50.1961 50.1961 37.6471 0.187326 0.208723 0.14106
174 "L9" 50.1961 50.1961 62.7451 0.229649 0.225653 0.363965
175 "L10" 50.1961 62.7451 37.6471 0.235839 0.305749 0.157231
176 "L11" 87.8431 62.7451 75.2941 0.528258 0.447971 0.557231
177 "L12" 87.8431 62.7451 87.8431 0.567645 0.463726 0.764672
178 "L13" 87.8431 62.7451 100 0.613584 0.482102 1.00662
179 "L14" 87.8431 75.2941 62.7451 0.55936 0.560867 0.411302
180 "L15" 87.8431 75.2941 75.2941 0.591042 0.573539 0.578159
181 "M1" 12.549 25.098 12.549 0.026896 0.04078 0.020116
182 "M2" 12.549 37.6471 37.6471 0.068889 0.095166 0.125379
183 "M3" 25.098 0.00000 37.6471 0.042252 0.019346 0.112149
184 "M4" 25.098 12.549 25.098 0.035562 0.024934 0.051434
185 "M5" 25.098 12.549 37.6471 0.047417 0.029676 0.113871
186 "M6" 50.1961 62.7451 50.1961 0.253682 0.312887 0.251206
187 "M7" 50.1961 62.7451 62.7451 0.278162 0.322679 0.380136
188 "M8" 62.7451 50.1961 50.1961 0.261128 0.244714 0.237658
189 "M9" 62.7451 50.1961 62.7451 0.285608 0.254506 0.366588
190 "M10" 62.7451 50.1961 75.2941 0.31729 0.267179 0.533445
191 "M11" 87.8431 75.2941 87.8431 0.630429 0.589294 0.7856
192 "M12" 87.8431 75.2941 100 0.676368 0.60767 1.02754
193 "M13" 87.8431 87.8431 62.7451 0.637415 0.716977 0.437321
194 "M14" 87.8431 87.8431 75.2941 0.669097 0.729649 0.604177
195 "M15" 87.8431 100 62.7451 0.728453 0.899051 0.467666
196 "N1" 25.098 25.098 12.549 0.042085 0.048612 0.020828
197 "N2" 25.098 25.098 37.6471 0.060585 0.056011 0.11826
198 "N3" 25.098 37.6471 0.00000 0.062972 0.094555 0.014933
199 "N4" 25.098 37.6471 12.549 0.065579 0.095598 0.028659
200 "N5" 25.098 37.6471 25.098 0.072223 0.098256 0.063655
201 "N6" 62.7451 62.7451 50.1961 0.309641 0.341741 0.25383
202 "N7" 62.7451 62.7451 75.2941 0.365803 0.364205 0.549616
203 "N8" 62.7451 75.2941 50.1961 0.372425 0.467309 0.274758
204 "N9" 62.7451 75.2941 62.7451 0.396905 0.477101 0.403687
205 "N10" 62.7451 75.2941 75.2941 0.428587 0.489774 0.570544
206 "N11" 87.8431 100 75.2941 0.760134 0.911724 0.634523
207 "N12" 100 62.7451 62.7451 0.601586 0.489444 0.395297
208 "N13" 100 62.7451 75.2941 0.633267 0.502117 0.562153
209 "N14" 100 62.7451 87.8431 0.672655 0.517872 0.769595
210 "N15" 100 62.7451 100 0.718594 0.536247 1.01154
211 "O1" 25.098 37.6471 37.6471 0.084078 0.102998 0.126091
212 "O2" 37.6471 25.098 25.098 0.075829 0.065242 0.057094
213 "O3" 37.6471 25.098 37.6471 0.087684 0.069984 0.11953
214 "O4" 37.6471 25.098 50.1961 0.105527 0.077122 0.213506
215 "O5" 37.6471 37.6471 25.098 0.099322 0.112229 0.064925
216 "O6" 75.2941 62.7451 62.7451 0.406541 0.388874 0.386154
217 "O7" 75.2941 62.7451 75.2941 0.438223 0.401547 0.553011
218 "O8" 75.2941 62.7451 87.8431 0.477611 0.417302 0.760452
219 "O9" 75.2941 62.7451 100 0.523549 0.435677 1.00239
220 "O10" 75.2941 75.2941 62.7451 0.469325 0.514443 0.407082
221 "O11" 100 75.2941 62.7451 0.66437 0.615012 0.416225
222 "O12" 100 75.2941 87.8431 0.735439 0.64344 0.790523
223 "O13" 100 87.8431 62.7451 0.742425 0.771122 0.442243
224 "O14" 100 87.8431 75.2941 0.774106 0.783795 0.6091
225 "O15" 100 100 62.7451 0.833462 0.953197 0.472589
226 "P1" 0.00000 0.00000 0.00000 0.00000 0.00000 0.00000
227 "P2" 0.00000 0.00000 0.00000 0.00000 0.00000 0.00000
228 "P3" 3.13725 3.13725 3.13725 0.002308 0.002428 0.002644
229 "P4" 6.27451 6.27451 6.27451 0.004925 0.005182 0.005642
230 "P5" 9.41176 9.41176 9.41176 0.008682 0.009134 0.009945
231 "P6" 12.549 12.549 12.549 0.013728 0.014444 0.015727
232 "P7" 15.6863 15.6863 15.6863 0.020168 0.021219 0.023104
233 "P8" 18.8235 18.8235 18.8235 0.028093 0.029557 0.032182
234 "P9" 21.9608 21.9608 21.9608 0.037587 0.039546 0.043059
235 "P10" 25.098 25.098 25.098 0.04873 0.051269 0.055824
236 "P11" 28.2353 28.2353 28.2353 0.061594 0.064803 0.07056
237 "P12" 31.3725 31.3725 31.3725 0.076247 0.08022 0.087346
238 "P13" 34.5098 34.5098 34.5098 0.092754 0.097587 0.106256
239 "P14" 37.6471 37.6471 37.6471 0.111177 0.116971 0.127361
240 "P15" 40.7843 40.7843 40.7843 0.131575 0.138432 0.150728
241 "Q1" 43.9216 43.9216 43.9216 0.154004 0.162029 0.176422
242 "Q2" 47.0588 47.0588 47.0588 0.178518 0.187821 0.204505
243 "Q3" 50.1961 50.1961 50.1961 0.205169 0.215861 0.235035
244 "Q4" 53.3333 53.3333 53.3333 0.234007 0.246201 0.268071
245 "Q5" 56.4706 56.4706 56.4706 0.265081 0.278894 0.303668
246 "Q6" 59.6078 59.6078 59.6078 0.298437 0.313989 0.34188
247 "Q7" 62.7451 62.7451 62.7451 0.334121 0.351533 0.382759
248 "Q8" 65.8824 65.8824 65.8824 0.372178 0.391572 0.426356
249 "Q9" 69.0196 69.0196 69.0196 0.41265 0.434154 0.47272
250 "Q10" 72.1569 72.1569 72.1569 0.455579 0.47932 0.521898
251 "Q11" 75.2941 75.2941 75.2941 0.501007 0.527115 0.573939
252 "Q12" 78.4314 78.4314 78.4314 0.548973 0.57758 0.628887
253 "Q13" 81.5686 81.5686 81.5686 0.599516 0.630757 0.686787
254 "Q14" 84.7059 84.7059 84.7059 0.652674 0.686685 0.747684
255 "Q15" 87.8431 87.8431 87.8431 0.708484 0.745404 0.811619
256 "R1" 90.9804 90.9804 90.9804 0.766984 0.806952 0.878634
257 "R2" 94.1176 94.1176 94.1176 0.828208 0.871367 0.948771
258 "R3" 97.2549 97.2549 97.2549 0.892193 0.938686 1.02207
259 "R4" 100 100 100 0.95047 1 1.08883
260 "R5" 3.13725 0.00000 0.00000 0.001002 0.000516 4.7e-005
261 "R6" 9.41176 6.27451 6.27451 0.006555 0.006022 0.005718
262 "R7" 15.6863 12.549 12.549 0.016523 0.015885 0.015858
263 "R8" 21.9608 18.8235 18.8235 0.032213 0.031681 0.032376
264 "R9" 28.2353 25.098 25.098 0.054312 0.054148 0.056085
265 "R10" 34.5098 31.3725 31.3725 0.08341 0.083913 0.087682
266 "R11" 40.7843 37.6471 37.6471 0.120029 0.121535 0.127776
267 "R12" 47.0588 43.9216 43.9216 0.164642 0.167515 0.176921
268 "R13" 53.3333 50.1961 50.1961 0.217683 0.222313 0.235622
269 "R14" 59.6078 56.4706 56.4706 0.279556 0.286358 0.304347
270 "R15" 65.8824 62.7451 62.7451 0.350636 0.360048 0.383533
271 "S1" 72.1569 69.0196 69.0196 0.431279 0.443759 0.473593
272 "S2" 78.4314 75.2941 75.2941 0.521822 0.537848 0.574914
273 "S3" 84.7059 81.5686 81.5686 0.622584 0.642652 0.687869
274 "S4" 90.9804 87.8431 87.8431 0.73387 0.758494 0.812808
275 "S5" 97.2549 94.1176 94.1176 0.855974 0.885684 0.950072
276 "S6" 100 97.2549 97.2549 0.917482 0.951726 1.02326
277 "S7" 100 94.1176 94.1176 0.881264 0.898724 0.951258
278 "S8" 94.1176 87.8431 87.8431 0.760439 0.772193 0.814054
279 "S9" 87.8431 81.5686 81.5686 0.646803 0.65514 0.689004
280 "S10" 81.5686 75.2941 75.2941 0.543755 0.549157 0.575943
281 "S11" 75.2941 69.0196 69.0196 0.450993 0.453924 0.474517
282 "S12" 69.0196 62.7451 62.7451 0.368199 0.369104 0.384357
283 "S13" 62.7451 56.4706 56.4706 0.295041 0.294343 0.305073
284 "S14" 56.4706 50.1961 50.1961 0.231168 0.229266 0.236254
285 "S15" 50.1961 43.9216 43.9216 0.176207 0.173478 0.177463
286 "T1" 43.9216 37.6471 37.6471 0.129762 0.126553 0.128232
287 "T2" 37.6471 31.3725 31.3725 0.091405 0.088036 0.088056
288 "T3" 31.3725 25.098 25.098 0.060671 0.057426 0.056383
289 "T4" 25.098 18.8235 18.8235 0.037048 0.034175 0.032602
290 "T5" 18.8235 12.549 12.549 0.019962 0.017658 0.016019
291 "T6" 12.549 6.27451 6.27451 0.008745 0.007151 0.005821
292 "T7" 6.27451 0.00000 0.00000 0.002137 0.001102 0.0001
293 "T8" 6.27451 0.00000 0.00000 0.002137 0.001102 0.0001
294 "T9" 0.00000 3.13725 0.00000 0.000868 0.001737 0.000289
295 "T10" 6.27451 9.41176 6.27451 0.006338 0.008008 0.006113
296 "T11" 12.549 15.6863 12.549 0.016151 0.019289 0.016534
297 "T12" 18.8235 21.9608 18.8235 0.031665 0.036701 0.033373
298 "T13" 25.098 28.2353 25.098 0.053569 0.060948 0.057437
299 "T14" 31.3725 34.5098 31.3725 0.082457 0.09264 0.089416
300 "T15" 37.6471 40.7843 37.6471 0.118851 0.132319 0.129919
301 "U1" 43.9216 47.0588 43.9216 0.163226 0.180474 0.179497
302 "U2" 50.1961 53.3333 50.1961 0.216018 0.237559 0.238652
303 "U3" 56.4706 59.6078 56.4706 0.27763 0.303992 0.307851
304 "U4" 62.7451 65.8824 62.7451 0.348438 0.380167 0.387532
305 "U5" 69.0196 72.1569 69.0196 0.4288 0.466455 0.478103
306 "U6" 75.2941 78.4314 75.2941 0.519052 0.563206 0.579954
307 "U7" 81.5686 84.7059 81.5686 0.619514 0.670754 0.693454
308 "U8" 87.8431 90.9804 87.8431 0.730492 0.78942 0.818955
309 "U9" 94.1176 97.2549 94.1176 0.85228 0.91951 0.956795
310 "U10" 97.2549 100 97.2549 0.914117 0.982535 1.02938
311 "U11" 94.1176 100 94.1176 0.874204 0.963359 0.964103
312 "U12" 87.8431 94.1176 87.8431 0.753526 0.835487 0.826632
313 "U13" 81.5686 87.8431 81.5686 0.640511 0.712747 0.700452
314 "U14" 75.2941 81.5686 75.2941 0.538067 0.601235 0.586292
315 "U15" 69.0196 75.2941 69.0196 0.445891 0.500635 0.4838
316 "V1" 62.7451 69.0196 62.7451 0.363665 0.410619 0.392607
317 "V2" 56.4706 62.7451 56.4706 0.291054 0.330842 0.312326
318 "V3" 50.1961 56.4706 50.1961 0.227708 0.260939 0.242549
319 "V4" 43.9216 50.1961 43.9216 0.173253 0.200527 0.182839
320 "V5" 37.6471 43.9216 37.6471 0.127289 0.149195 0.132732
321 "V6" 31.3725 37.6471 31.3725 0.089388 0.106502 0.091726
322 "V7" 25.098 31.3725 25.098 0.059082 0.071973 0.059274
323 "V8" 18.8235 25.098 18.8235 0.035857 0.045085 0.03477
324 "V9" 12.549 18.8235 12.549 0.019132 0.025252 0.017528
325 "V10" 6.27451 12.549 6.27451 0.008237 0.011805 0.006746
326 "V11" 0.00000 6.27451 0.00000 0.001853 0.003706 0.000618
327 "V12" 0.00000 6.27451 0.00000 0.001853 0.003706 0.000618
328 "V13" 0.00000 0.00000 3.13725 0.000438 0.000175 0.002308
329 "V14" 6.27451 6.27451 9.41176 0.005638 0.005467 0.009398
330 "V15" 12.549 12.549 15.6863 0.014951 0.014933 0.022165
331 "W1" 18.8235 18.8235 21.9608 0.029895 0.030278 0.041675
332 "W2" 25.098 25.098 28.2353 0.051172 0.052246 0.068685
333 "W3" 31.3725 31.3725 34.5098 0.07938 0.081473 0.10385
334 "W4" 37.6471 37.6471 40.7843 0.115049 0.11852 0.147756
335 "W5" 43.9216 43.9216 47.0588 0.158658 0.163891 0.200932
336 "W6" 50.1961 50.1961 53.3333 0.210644 0.21805 0.263868
337 "W7" 56.4706 56.4706 59.6078 0.271413 0.281427 0.337019
338 "W8" 62.7451 62.7451 65.8824 0.341346 0.354423 0.420809
339 "W9" 69.0196 69.0196 72.1569 0.4208 0.437414 0.515641
340 "W10" 75.2941 75.2941 78.4314 0.510113 0.530758 0.621896
341 "W11" 78.4314 81.5686 84.7059 0.587674 0.623485 0.738908
342 "W12" 87.8431 87.8431 90.9804 0.71959 0.749847 0.870108
343 "W13" 94.1176 94.1176 97.2549 0.840355 0.876226 1.01274
344 "W14" 97.2549 97.2549 100 0.903256 0.943111 1.08034
345 "W15" 94.1176 94.1176 100 0.851419 0.880651 1.07101
346 "X1" 87.8431 87.8431 94.1176 0.731213 0.754496 0.931322
347 "X2" 81.5686 81.5686 87.8431 0.620202 0.639032 0.795737
348 "X3" 75.2941 75.2941 81.5686 0.519708 0.534596 0.67243
349 "X4" 69.0196 69.0196 75.2941 0.429424 0.440863 0.561061
350 "X5" 62.7451 62.7451 69.0196 0.349029 0.357496 0.461274
351 "X6" 56.4706 56.4706 62.7451 0.278187 0.284137 0.372697
352 "X7" 50.1961 50.1961 56.4706 0.216543 0.22041 0.294937
353 "X8" 43.9216 43.9216 50.1961 0.163717 0.165915 0.227578
354 "X9" 37.6471 37.6471 43.9216 0.119307 0.120223 0.170181
355 "X10" 31.3725 31.3725 37.6471 0.082878 0.082872 0.12227
356 "X11" 25.098 25.098 31.3725 0.053954 0.053359 0.083335
357 "X12" 18.8235 18.8235 25.098 0.032011 0.031124 0.052816
358 "X13" 12.549 12.549 18.8235 0.016455 0.015535 0.030089
359 "X14" 6.27451 6.27451 12.549 0.006596 0.00585 0.014444
360 "X15" 0.00000 0.00000 6.27451 0.000935 0.000374 0.004924
361 "Y1" 0.00000 0.00000 6.27451 0.000935 0.000374 0.004924
362 "Y2" 0.00000 3.13725 3.13725 0.001306 0.001912 0.002597
363 "Y3" 6.27451 9.41176 9.41176 0.007051 0.008293 0.009869
364 "Y4" 12.549 15.6863 15.6863 0.017374 0.019778 0.022973
365 "Y5" 18.8235 21.9608 21.9608 0.033467 0.037422 0.042866
366 "Y6" 25.098 28.2353 28.2353 0.056011 0.061925 0.070298
367 "Y7" 31.3725 34.5098 34.5098 0.08559 0.093894 0.10592
368 "Y8" 37.6471 40.7843 40.7843 0.122723 0.133867 0.150314
369 "Y9" 43.9216 47.0588 47.0588 0.16788 0.182336 0.204006
370 "Y10" 50.1961 53.3333 53.3333 0.221493 0.239749 0.267485
371 "Y11" 56.4706 59.6078 59.6078 0.283962 0.306525 0.341202
372 "Y12" 62.7451 65.8824 65.8824 0.355663 0.383057 0.425582
373 "Y13" 69.0196 72.1569 72.1569 0.43695 0.469715 0.521025
374 "Y14" 75.2941 78.4314 78.4314 0.528158 0.566848 0.627911
375 "Y15" 81.5686 84.7059 84.7059 0.629606 0.674791 0.746602
376 "Z1" 87.8431 90.9804 90.9804 0.741598 0.793863 0.877444
377 "Z2" 94.1176 97.2549 97.2549 0.864427 0.924369 1.02077
378 "Z3" 97.2549 100 100 0.925181 0.98696 1.08765
379 "Z4" 94.1176 100 100 0.897415 0.972643 1.08634
380 "Z5" 87.8431 94.1176 94.1176 0.776254 0.844578 0.946335
381 "Z6" 81.5686 87.8431 87.8431 0.661197 0.721022 0.809402
382 "Z7" 75.2941 81.5686 81.5686 0.556768 0.608715 0.684784
383 "Z8" 69.0196 75.2941 75.2941 0.462665 0.507345 0.572141
384 "Z9" 62.7451 69.0196 69.0196 0.378572 0.416582 0.471122
385 "Z10" 56.4706 62.7451 62.7451 0.304161 0.336084 0.381355
386 "Z11" 50.1961 56.4706 56.4706 0.239082 0.265489 0.30245
387 "Z12" 43.9216 50.1961 50.1961 0.182966 0.204412 0.233995
388 "Z13" 37.6471 43.9216 43.9216 0.135419 0.152447 0.175551
389 "Z14" 31.3725 37.6471 37.6471 0.096019 0.109155 0.126651
390 "Z15" 25.098 31.3725 31.3725 0.064306 0.074063 0.086786
391 "AA1" 18.8235 25.098 25.098 0.039775 0.046652 0.055404
392 "AA2" 12.549 18.8235 18.8235 0.021859 0.026343 0.03189
393 "AA3" 6.27451 12.549 12.549 0.009908 0.012474 0.015548
394 "AA4" 0.00000 6.27451 6.27451 0.002788 0.00408 0.005542
395 "AA5" 0.00000 6.27451 6.27451 0.002788 0.00408 0.005542
396 "AA6" 3.13725 0.00000 3.13725 0.00144 0.000692 0.002354
397 "AA7" 9.41176 6.27451 9.41176 0.007268 0.006307 0.009474
398 "AA8" 15.6863 12.549 15.6863 0.017745 0.016374 0.022296
399 "AA9" 21.9608 18.8235 21.9608 0.034016 0.032402 0.041868
400 "AA10" 28.2353 25.098 28.2353 0.056754 0.055125 0.068947
401 "AA11" 34.5098 31.3725 34.5098 0.086544 0.085167 0.104186
402 "AA12" 40.7843 37.6471 40.7843 0.123901 0.123084 0.14817
403 "AA13" 47.0588 43.9216 47.0588 0.169296 0.169376 0.201431
