Pre-made_Targets/Patch Width 8-11mm - Expert (Use rig-guide-ruler)/Designed Targets/CM-Expert-Letter-465p-2pages-w11.0mm-16x15-SpyderHighQ.TargetPlusGrays/SpyderPlusGrays.ti1
CTI1
DESCRIPTOR "Argyll Calibration Target chart information 1"
ORIGINATOR "Argyll targen"
CREATED "Sun Mar 30 10:01:47 2025"
APPROX_WHITE_POINT "95.106486 100.000000 108.844025"
COLOR_REP "iRGB"
WHITE_COLOR_PATCHES "4"
BLACK_COLOR_PATCHES "4"
OFPS_PATCHES "217"

NUMBER_OF_FIELDS 7
BEGIN_DATA_FORMAT
SAMPLE_ID RGB_R RGB_G RGB_B XYZ_X XYZ_Y XYZ_Z
END_DATA_FORMAT

NUMBER_OF_SETS 465
BEGIN_DATA
1 0.0 0.0 0.0 0.0 0.0 0.0
2 0.0 0.0 25.09804 0.009251 0.0037 0.048722
3 0.0 0.0 50.19608 0.038949 0.01558 0.205133
4 0.0 0.0 75.29412 0.095111 0.038045 0.50092
5 0.0 0.0 100.0 0.180438 0.072175 0.950304
6 25.09804 0.0 0.0 0.021146 0.010904 0.000991
7 25.09804 0.0 25.09804 0.030397 0.014604 0.049713
8 25.09804 0.0 50.19608 0.060096 0.026483 0.206124
9 25.09804 0.0 75.29412 0.116258 0.048948 0.501911
10 25.09804 0.0 100.0 0.201584 0.083079 0.951295
11 50.19608 0.0 0.0 0.089033 0.045908 0.004173
12 50.19608 0.0 25.09804 0.098284 0.049608 0.052895
13 50.19608 0.0 50.19608 0.127982 0.061487 0.209307
14 50.19608 0.0 75.29412 0.184144 0.083952 0.505093
15 50.19608 0.0 100.0 0.269471 0.118083 0.954478
16 0.0 25.09804 0.0 0.018333 0.036665 0.006111
17 0.0 25.09804 25.09804 0.027584 0.040366 0.054832
18 0.0 25.09804 50.19608 0.057282 0.052245 0.211244
19 0.0 25.09804 75.29412 0.113444 0.07471 0.507031
20 0.0 25.09804 100.0 0.19877 0.10884 0.956415
21 25.09804 25.09804 0.0 0.039479 0.047569 0.007102
22 25.09804 25.09804 25.09804 0.04873 0.051269 0.055824
23 25.09804 25.09804 50.19608 0.078428 0.063149 0.212235
24 25.09804 25.09804 75.29412 0.13459 0.085614 0.508022
25 25.09804 25.09804 100.0 0.219917 0.119744 0.957406
26 50.19608 25.09804 0.0 0.107366 0.082573 0.010284
27 50.19608 25.09804 25.09804 0.116617 0.086274 0.059006
28 50.19608 25.09804 50.19608 0.146315 0.098153 0.215417
29 50.19608 25.09804 75.29412 0.202477 0.120618 0.511204
30 50.19608 25.09804 100.0 0.287803 0.154748 0.960588
31 0.0 50.19608 0.0 0.077187 0.154373 0.025729
32 0.0 50.19608 25.09804 0.086437 0.158073 0.07445
33 0.0 50.19608 50.19608 0.116136 0.169953 0.230862
34 0.0 50.19608 75.29412 0.172298 0.192418 0.526649
35 0.0 50.19608 100.0 0.257624 0.226548 0.976033
36 25.09804 50.19608 0.0 0.098333 0.165277 0.02672
37 25.09804 50.19608 25.09804 0.107584 0.168977 0.075442
38 25.09804 50.19608 50.19608 0.137282 0.180856 0.231853
39 25.09804 50.19608 75.29412 0.193444 0.203321 0.52764
40 25.09804 50.19608 100.0 0.27877 0.237452 0.977024
41 50.19608 50.19608 0.0 0.16622 0.200281 0.029902
42 50.19608 50.19608 25.09804 0.175471 0.203981 0.078624
43 50.19608 50.19608 50.19608 0.205169 0.215861 0.235035
44 50.19608 50.19608 75.29412 0.261331 0.238325 0.530822
45 50.19608 50.19608 100.0 0.346657 0.272456 0.980206
46 0.0 75.29412 0.0 0.188484 0.376968 0.062828
47 0.0 75.29412 25.09804 0.197735 0.380668 0.111549
48 0.0 75.29412 50.19608 0.227433 0.392547 0.267961
49 0.0 75.29412 75.29412 0.283595 0.415012 0.563748
50 0.0 75.29412 100.0 0.368921 0.449143 1.013132
51 25.09804 75.29412 0.0 0.20963 0.387871 0.063819
52 25.09804 75.29412 25.09804 0.218881 0.391572 0.112541
53 25.09804 75.29412 50.19608 0.24858 0.403451 0.268952
54 25.09804 75.29412 75.29412 0.304742 0.425916 0.564739
55 25.09804 75.29412 100.0 0.390068 0.460046 1.014123
56 50.19608 75.29412 0.0 0.277517 0.422875 0.067001
57 50.19608 75.29412 25.09804 0.286768 0.426576 0.115723
58 50.19608 75.29412 50.19608 0.316466 0.438455 0.272134
59 50.19608 75.29412 75.29412 0.372628 0.46092 0.567921
60 50.19608 75.29412 100.0 0.457954 0.49505 1.017305
61 0.0 100.0 0.0 0.357576 0.715152 0.119192
62 0.0 100.0 25.09804 0.366827 0.718853 0.167914
63 0.0 100.0 50.19608 0.396525 0.730732 0.324325
64 0.0 100.0 75.29412 0.452687 0.753197 0.620112
65 0.0 100.0 100.0 0.538014 0.787327 1.069496
66 25.09804 100.0 0.0 0.378723 0.726056 0.120183
67 25.09804 100.0 25.09804 0.387973 0.729756 0.168905
68 25.09804 100.0 50.19608 0.417672 0.741636 0.325316
69 25.09804 100.0 75.29412 0.473834 0.7641 0.621103
70 25.09804 100.0 100.0 0.55916 0.798231 1.070487
71 50.19608 100.0 0.0 0.446609 0.76106 0.123365
72 50.19608 100.0 25.09804 0.45586 0.76476 0.172087
73 50.19608 100.0 50.19608 0.485558 0.77664 0.328499
74 50.19608 100.0 75.29412 0.54172 0.799104 0.624285
75 50.19608 100.0 100.0 0.627047 0.833235 1.07367
76 75.29412 0.0 0.0 0.217412 0.112103 0.010191
77 75.29412 0.0 25.09804 0.226663 0.115803 0.058913
78 75.29412 0.0 50.19608 0.256361 0.127683 0.215324
79 75.29412 0.0 75.29412 0.312523 0.150148 0.511111
80 75.29412 0.0 100.0 0.39785 0.184278 0.960495
81 100.0 0.0 0.0 0.412456 0.212673 0.019334
82 100.0 0.0 25.09804 0.421707 0.216373 0.068055
83 100.0 0.0 50.19608 0.451406 0.228253 0.224467
84 100.0 0.0 75.29412 0.507568 0.250717 0.520254
85 100.0 0.0 100.0 0.592894 0.284848 0.969638
86 0.0 0.0 12.54902 0.002606 0.001042 0.013726
87 0.0 12.54902 0.0 0.005165 0.01033 0.001722
88 0.0 12.54902 12.54902 0.007771 0.011372 0.015448
89 0.0 12.54902 25.09804 0.014416 0.01403 0.050443
90 0.0 25.09804 12.54902 0.020939 0.037708 0.019837
91 75.29412 25.09804 0.0 0.235745 0.148769 0.016302
92 75.29412 25.09804 25.09804 0.244996 0.152469 0.065024
93 75.29412 25.09804 50.19608 0.274694 0.164348 0.221435
94 75.29412 25.09804 75.29412 0.330856 0.186813 0.517222
95 75.29412 25.09804 100.0 0.416182 0.220944 0.966606
96 100.0 25.09804 0.0 0.430789 0.249338 0.025445
97 100.0 25.09804 25.09804 0.44004 0.253039 0.074166
98 100.0 25.09804 50.19608 0.469738 0.264918 0.230578
99 100.0 25.09804 75.29412 0.5259 0.287383 0.526365
100 100.0 25.09804 100.0 0.611227 0.321513 0.975749
101 12.54902 0.0 0.0 0.005957 0.003072 0.000279
102 12.54902 0.0 12.54902 0.008564 0.004114 0.014005
103 12.54902 12.54902 0.0 0.011122 0.013401 0.002001
104 12.54902 12.54902 12.54902 0.013728 0.014444 0.015727
105 12.54902 25.09804 25.09804 0.033541 0.043438 0.055112
106 75.29412 50.19608 0.0 0.294599 0.266476 0.03592
107 75.29412 50.19608 25.09804 0.30385 0.270177 0.084642
108 75.29412 50.19608 50.19608 0.333548 0.282056 0.241053
109 75.29412 50.19608 75.29412 0.38971 0.304521 0.53684
110 75.29412 50.19608 100.0 0.475036 0.338651 0.986224
111 100.0 50.19608 0.0 0.489643 0.367046 0.045063
112 100.0 50.19608 25.09804 0.498894 0.370746 0.093784
113 100.0 50.19608 50.19608 0.528592 0.382626 0.250196
114 100.0 50.19608 75.29412 0.584754 0.405091 0.545982
115 100.0 50.19608 100.0 0.67008 0.439221 0.995367
116 25.09804 0.0 12.54902 0.023753 0.011946 0.014717
117 25.09804 12.54902 0.0 0.026311 0.021233 0.002713
118 25.09804 12.54902 12.54902 0.028917 0.022276 0.016439
119 37.64706 37.64706 37.64706 0.111177 0.116971 0.127361
120 62.7451 62.7451 62.7451 0.334121 0.351533 0.382759
121 75.29412 75.29412 0.0 0.405896 0.489071 0.073019
122 75.29412 75.29412 25.09804 0.415147 0.492771 0.121741
123 75.29412 75.29412 50.19608 0.444845 0.50465 0.278152
124 75.29412 75.29412 75.29412 0.501007 0.527115 0.573939
125 75.29412 75.29412 100.0 0.586333 0.561246 1.023323
126 100.0 75.29412 0.0 0.60094 0.58964 0.082162
127 100.0 75.29412 25.09804 0.610191 0.593341 0.130883
128 100.0 75.29412 50.19608 0.63989 0.60522 0.287295
129 100.0 75.29412 75.29412 0.696052 0.627685 0.583082
130 100.0 75.29412 100.0 0.781378 0.661815 1.032466
131 75.29412 87.84314 87.84314 0.61845 0.69898 0.807398
132 75.29412 87.84314 100.0 0.664388 0.717356 1.049342
133 75.29412 100.0 87.84314 0.709487 0.881055 0.837744
134 87.84314 87.84314 87.84314 0.708484 0.745404 0.811619
135 87.84314 87.84314 100.0 0.754423 0.76378 1.053562
136 75.29412 100.0 0.0 0.574988 0.827255 0.129383
137 75.29412 100.0 25.09804 0.584239 0.830956 0.178105
138 75.29412 100.0 50.19608 0.613937 0.842835 0.334516
139 75.29412 100.0 75.29412 0.670099 0.8653 0.630303
140 75.29412 100.0 100.0 0.755426 0.89943 1.079687
141 100.0 100.0 0.0 0.770033 0.927825 0.138526
142 100.0 100.0 25.09804 0.779283 0.931525 0.187247
143 100.0 100.0 50.19608 0.808982 0.943405 0.343659
144 100.0 100.0 75.29412 0.865144 0.96587 0.639446
145 100.0 100.0 100.0 0.95047 1.0 1.08883
146 87.84314 100.0 87.84314 0.799522 0.927479 0.841964
147 87.84314 100.0 100.0 0.84546 0.945854 1.083908
148 100.0 87.84314 87.84314 0.813494 0.79955 0.816541
149 100.0 87.84314 100.0 0.859433 0.817925 1.058484
150 100.0 100.0 87.84314 0.904531 0.981625 0.846887
151 0.0 0.0 37.64706 0.021106 0.008442 0.111158
152 0.0 12.54902 37.64706 0.026271 0.018772 0.112879
153 0.0 25.09804 37.64706 0.039439 0.045108 0.117269
154 0.0 37.64706 0.0 0.041826 0.083652 0.013942
155 0.0 37.64706 12.54902 0.044432 0.084694 0.027668
156 37.64706 37.64706 50.19608 0.129021 0.124108 0.221337
157 37.64706 50.19608 25.09804 0.134683 0.18295 0.076712
158 37.64706 50.19608 37.64706 0.146538 0.187692 0.139148
159 37.64706 50.19608 50.19608 0.164381 0.194829 0.233123
160 50.19608 37.64706 37.64706 0.151965 0.138002 0.129273
161 75.29412 75.29412 87.84314 0.540395 0.54287 0.78138
162 75.29412 87.84314 62.7451 0.54738 0.670552 0.4331
163 75.29412 87.84314 75.29412 0.579062 0.683225 0.599957
164 75.29412 100.0 62.7451 0.638418 0.852627 0.463446
165 87.84314 62.7451 62.7451 0.496576 0.435298 0.390374
166 0.0 37.64706 25.09804 0.051077 0.087352 0.062664
167 0.0 37.64706 37.64706 0.062932 0.092094 0.1251
168 12.54902 0.0 25.09804 0.015208 0.006772 0.049001
169 12.54902 12.54902 25.09804 0.020373 0.017102 0.050722
170 12.54902 25.09804 0.0 0.02429 0.039737 0.00639
171 50.19608 37.64706 50.19608 0.169808 0.145139 0.223249
172 50.19608 37.64706 62.7451 0.194289 0.154931 0.352178
173 50.19608 50.19608 37.64706 0.187326 0.208723 0.14106
174 50.19608 50.19608 62.7451 0.229649 0.225653 0.363965
175 50.19608 62.7451 37.64706 0.235839 0.305749 0.157231
176 87.84314 62.7451 75.29412 0.528258 0.447971 0.557231
177 87.84314 62.7451 87.84314 0.567645 0.463726 0.764672
178 87.84314 62.7451 100.0 0.613584 0.482102 1.006616
179 87.84314 75.29412 62.7451 0.55936 0.560867 0.411302
180 87.84314 75.29412 75.29412 0.591042 0.573539 0.578159
181 12.54902 25.09804 12.54902 0.026896 0.04078 0.020116
182 12.54902 37.64706 37.64706 0.068889 0.095166 0.125379
183 25.09804 0.0 37.64706 0.042252 0.019346 0.112149
184 25.09804 12.54902 25.09804 0.035562 0.024934 0.051434
185 25.09804 12.54902 37.64706 0.047417 0.029676 0.113871
186 50.19608 62.7451 50.19608 0.253682 0.312887 0.251206
187 50.19608 62.7451 62.7451 0.278162 0.322679 0.380136
188 62.7451 50.19608 50.19608 0.261128 0.244714 0.237658
189 62.7451 50.19608 62.7451 0.285608 0.254506 0.366588
190 62.7451 50.19608 75.29412 0.31729 0.267179 0.533445
191 87.84314 75.29412 87.84314 0.630429 0.589294 0.7856
192 87.84314 75.29412 100.0 0.676368 0.60767 1.027544
193 87.84314 87.84314 62.7451 0.637415 0.716977 0.437321
194 87.84314 87.84314 75.29412 0.669097 0.729649 0.604177
195 87.84314 100.0 62.7451 0.728453 0.899051 0.467666
196 25.09804 25.09804 12.54902 0.042085 0.048612 0.020828
197 25.09804 25.09804 37.64706 0.060585 0.056011 0.11826
198 25.09804 37.64706 0.0 0.062972 0.094555 0.014933
199 25.09804 37.64706 12.54902 0.065579 0.095598 0.028659
200 25.09804 37.64706 25.09804 0.072223 0.098256 0.063655
201 62.7451 62.7451 50.19608 0.309641 0.341741 0.25383
202 62.7451 62.7451 75.29412 0.365803 0.364205 0.549616
203 62.7451 75.29412 50.19608 0.372425 0.467309 0.274758
204 62.7451 75.29412 62.7451 0.396905 0.477101 0.403687
205 62.7451 75.29412 75.29412 0.428587 0.489774 0.570544
206 87.84314 100.0 75.29412 0.760134 0.911724 0.634523
207 100.0 62.7451 62.7451 0.601586 0.489444 0.395297
208 100.0 62.7451 75.29412 0.633267 0.502117 0.562153
209 100.0 62.7451 87.84314 0.672655 0.517872 0.769595
210 100.0 62.7451 100.0 0.718594 0.536247 1.011538
211 25.09804 37.64706 37.64706 0.084078 0.102998 0.126091
212 37.64706 25.09804 25.09804 0.075829 0.065242 0.057094
213 37.64706 25.09804 37.64706 0.087684 0.069984 0.11953
214 37.64706 25.09804 50.19608 0.105527 0.077122 0.213506
215 37.64706 37.64706 25.09804 0.099322 0.112229 0.064925
216 75.29412 62.7451 62.7451 0.406541 0.388874 0.386154
217 75.29412 62.7451 75.29412 0.438223 0.401547 0.553011
218 75.29412 62.7451 87.84314 0.477611 0.417302 0.760452
219 75.29412 62.7451 100.0 0.523549 0.435677 1.002395
220 75.29412 75.29412 62.7451 0.469325 0.514443 0.407082
221 100.0 75.29412 62.7451 0.66437 0.615012 0.416225
222 100.0 75.29412 87.84314 0.735439 0.64344 0.790523
223 100.0 87.84314 62.7451 0.742425 0.771122 0.442243
224 100.0 87.84314 75.29412 0.774106 0.783795 0.6091
225 100.0 100.0 62.7451 0.833462 0.953197 0.472589
226 0.0 0.0 0.0 0.0 0.0 0.0
227 0.0 0.0 0.0 0.0 0.0 0.0
228 3.13725 3.13725 3.13725 0.002308 0.002428 0.002644
229 6.27451 6.27451 6.27451 0.004925 0.005182 0.005642
230 9.41176 9.41176 9.41176 0.008682 0.009134 0.009945
231 12.54902 12.54902 12.54902 0.013728 0.014444 0.015727
232 15.68627 15.68627 15.68627 0.020168 0.021219 0.023104
233 18.82353 18.82353 18.82353 0.028093 0.029557 0.032182
234 21.96078 21.96078 21.96078 0.037587 0.039546 0.043059
235 25.09804 25.09804 25.09804 0.04873 0.051269 0.055824
236 28.23529 28.23529 28.23529 0.061594 0.064803 0.07056
237 31.37255 31.37255 31.37255 0.076247 0.08022 0.087346
238 34.5098 34.5098 34.5098 0.092754 0.097587 0.106256
239 37.64706 37.64706 37.64706 0.111177 0.116971 0.127361
240 40.78431 40.78431 40.78431 0.131575 0.138432 0.150728
241 43.92157 43.92157 43.92157 0.154004 0.162029 0.176422
242 47.05882 47.05882 47.05882 0.178518 0.187821 0.204505
243 50.19608 50.19608 50.19608 0.205169 0.215861 0.235035
244 53.33333 53.33333 53.33333 0.234007 0.246201 0.268071
245 56.47059 56.47059 56.47059 0.265081 0.278894 0.303668
246 59.60784 59.60784 59.60784 0.298437 0.313989 0.34188
247 62.7451 62.7451 62.7451 0.334121 0.351533 0.382759
248 65.88235 65.88235 65.88235 0.372178 0.391572 0.426356
249 69.01961 69.01961 69.01961 0.41265 0.434154 0.47272
250 72.15686 72.15686 72.15686 0.455579 0.47932 0.521898
251 75.29412 75.29412 75.29412 0.501007 0.527115 0.573939
252 78.43137 78.43137 78.43137 0.548973 0.57758 0.628887
253 81.56863 81.56863 81.56863 0.599516 0.630757 0.686787
254 84.70588 84.70588 84.70588 0.652674 0.686685 0.747684
255 87.84314 87.84314 87.84314 0.708484 0.745404 0.811619
256 90.98039 90.98039 90.98039 0.766984 0.806952 0.878634
257 94.11765 94.11765 94.11765 0.828208 0.871367 0.948771
258 97.2549 97.2549 97.2549 0.892193 0.938686 1.022069
259 100.0 100.0 100.0 0.95047 1.0 1.08883
260 3.13725 0.0 0.0 0.001002 0.000516 4.7e-05
261 9.41176 6.27451 6.27451 0.006555 0.006022 0.005718
262 15.68627 12.54902 12.54902 0.016523 0.015885 0.015858
263 21.96078 18.82353 18.82353 0.032213 0.031681 0.032376
264 28.23529 25.09804 25.09804 0.054312 0.054148 0.056085
265 34.5098 31.37255 31.37255 0.08341 0.083913 0.087682
266 40.78431 37.64706 37.64706 0.120029 0.121535 0.127776
267 47.05882 43.92157 43.92157 0.164642 0.167515 0.176921
268 53.33333 50.19608 50.19608 0.217683 0.222313 0.235622
269 59.60784 56.47059 56.47059 0.279556 0.286358 0.304347
270 65.88235 62.7451 62.7451 0.350636 0.360048 0.383533
271 72.15686 69.01961 69.01961 0.431279 0.443759 0.473593
272 78.43137 75.29412 75.29412 0.521822 0.537848 0.574914
273 84.70588 81.56863 81.56863 0.622584 0.642652 0.687869
274 90.98039 87.84314 87.84314 0.73387 0.758494 0.812808
275 97.2549 94.11765 94.11765 0.855974 0.885684 0.950072
276 100.0 97.2549 97.2549 0.917482 0.951726 1.023255
277 100.0 94.11765 94.11765 0.881264 0.898724 0.951258
278 94.11765 87.84314 87.84314 0.760439 0.772193 0.814054
279 87.84314 81.56863 81.56863 0.646803 0.65514 0.689004
280 81.56863 75.29412 75.29412 0.543755 0.549157 0.575943
281 75.29412 69.01961 69.01961 0.450993 0.453924 0.474517
282 69.01961 62.7451 62.7451 0.368199 0.369104 0.384357
283 62.7451 56.47059 56.47059 0.295041 0.294343 0.305073
284 56.47059 50.19608 50.19608 0.231168 0.229266 0.236254
285 50.19608 43.92157 43.92157 0.176207 0.173478 0.177463
286 43.92157 37.64706 37.64706 0.129762 0.126553 0.128232
287 37.64706 31.37255 31.37255 0.091405 0.088036 0.088056
288 31.37255 25.09804 25.09804 0.060671 0.057426 0.056383
289 25.09804 18.82353 18.82353 0.037048 0.034175 0.032602
290 18.82353 12.54902 12.54902 0.019962 0.017658 0.016019
291 12.54902 6.27451 6.27451 0.008745 0.007151 0.005821
292 6.27451 0.0 0.0 0.002137 0.001102 0.0001
293 6.27451 0.0 0.0 0.002137 0.001102 0.0001
294 0.0 3.13725 0.0 0.000868 0.001737 0.000289
295 6.27451 9.41176 6.27451 0.006338 0.008008 0.006113
296 12.54902 15.68627 12.54902 0.016151 0.019289 0.016534
297 18.82353 21.96078 18.82353 0.031665 0.036701 0.033373
298 25.09804 28.23529 25.09804 0.053569 0.060948 0.057437
299 31.37255 34.5098 31.37255 0.082457 0.09264 0.089416
300 37.64706 40.78431 37.64706 0.118851 0.132319 0.129919
301 43.92157 47.05882 43.92157 0.163226 0.180474 0.179497
302 50.19608 53.33333 50.19608 0.216018 0.237559 0.238652
303 56.47059 59.60784 56.47059 0.27763 0.303992 0.307851
304 62.7451 65.88235 62.7451 0.348438 0.380167 0.387532
305 69.01961 72.15686 69.01961 0.4288 0.466455 0.478103
306 75.29412 78.43137 75.29412 0.519052 0.563206 0.579954
307 81.56863 84.70588 81.56863 0.619514 0.670754 0.693454
308 87.84314 90.98039 87.84314 0.730492 0.78942 0.818955
309 94.11765 97.2549 94.11765 0.85228 0.91951 0.956795
310 97.2549 100.0 97.2549 0.914117 0.982535 1.029377
311 94.11765 100.0 94.11765 0.874204 0.963359 0.964103
312 87.84314 94.11765 87.84314 0.753526 0.835487 0.826632
313 81.56863 87.84314 81.56863 0.640511 0.712747 0.700452
314 75.29412 81.56863 75.29412 0.538067 0.601235 0.586292
315 69.01961 75.29412 69.01961 0.445891 0.500635 0.4838
316 62.7451 69.01961 62.7451 0.363665 0.410619 0.392607
317 56.47059 62.7451 56.47059 0.291054 0.330842 0.312326
318 50.19608 56.47059 50.19608 0.227708 0.260939 0.242549
319 43.92157 50.19608 43.92157 0.173253 0.200527 0.182839
320 37.64706 43.92157 37.64706 0.127289 0.149195 0.132732
321 31.37255 37.64706 31.37255 0.089388 0.106502 0.091726
322 25.09804 31.37255 25.09804 0.059082 0.071973 0.059274
323 18.82353 25.09804 18.82353 0.035857 0.045085 0.03477
324 12.54902 18.82353 12.54902 0.019132 0.025252 0.017528
325 6.27451 12.54902 6.27451 0.008237 0.011805 0.006746
326 0.0 6.27451 0.0 0.001853 0.003706 0.000618
327 0.0 6.27451 0.0 0.001853 0.003706 0.000618
328 0.0 0.0 3.13725 0.000438 0.000175 0.002308
329 6.27451 6.27451 9.41176 0.005638 0.005467 0.009398
330 12.54902 12.54902 15.68627 0.014951 0.014933 0.022165
331 18.82353 18.82353 21.96078 0.029895 0.030278 0.041675
332 25.09804 25.09804 28.23529 0.051172 0.052246 0.068685
333 31.37255 31.37255 34.5098 0.07938 0.081473 0.10385
334 37.64706 37.64706 40.78431 0.115049 0.11852 0.147756
335 43.92157 43.92157 47.05882 0.158658 0.163891 0.200932
336 50.19608 50.19608 53.33333 0.210644 0.21805 0.263868
337 56.47059 56.47059 59.60784 0.271413 0.281427 0.337019
338 62.7451 62.7451 65.88235 0.341346 0.354423 0.420809
339 69.01961 69.01961 72.15686 0.4208 0.437414 0.515641
340 75.29412 75.29412 78.43137 0.510113 0.530758 0.621896
341 78.43137 81.56863 84.70588 0.587674 0.623485 0.738908
342 87.84314 87.84314 90.98039 0.71959 0.749847 0.870108
343 94.11765 94.11765 97.2549 0.840355 0.876226 1.012744
344 97.2549 97.2549 100.0 0.903256 0.943111 1.080336
345 94.11765 94.11765 100.0 0.851419 0.880651 1.071011
346 87.84314 87.84314 94.11765 0.731213 0.754496 0.931322
347 81.56863 81.56863 87.84314 0.620202 0.639032 0.795737
348 75.29412 75.29412 81.56863 0.519708 0.534596 0.67243
349 69.01961 69.01961 75.29412 0.429424 0.440863 0.561061
350 62.7451 62.7451 69.01961 0.349029 0.357496 0.461274
351 56.47059 56.47059 62.7451 0.278187 0.284137 0.372697
352 50.19608 50.19608 56.47059 0.216543 0.22041 0.294937
353 43.92157 43.92157 50.19608 0.163717 0.165915 0.227578
354 37.64706 37.64706 43.92157 0.119307 0.120223 0.170181
355 31.37255 31.37255 37.64706 0.082878 0.082872 0.12227
356 25.09804 25.09804 31.37255 0.053954 0.053359 0.083335
357 18.82353 18.82353 25.09804 0.032011 0.031124 0.052816
358 12.54902 12.54902 18.82353 0.016455 0.015535 0.030089
359 6.27451 6.27451 12.54902 0.006596 0.00585 0.014444
360 0.0 0.0 6.27451 0.000935 0.000374 0.004924
361 0.0 0.0 6.27451 0.000935 0.000374 0.004924
362 0.0 3.13725 3.13725 0.001306 0.001912 0.002597
363 6.27451 9.41176 9.41176 0.007051 0.008293 0.009869
364 12.54902 15.68627 15.68627 0.017374 0.019778 0.022973
365 18.82353 21.96078 21.96078 0.033467 0.037422 0.042866
366 25.09804 28.23529 28.23529 0.056011 0.061925 0.070298
367 31.37255 34.5098 34.5098 0.08559 0.093894 0.10592
368 37.64706 40.78431 40.78431 0.122723 0.133867 0.150314
369 43.92157 47.05882 47.05882 0.16788 0.182336 0.204006
370 50.19608 53.33333 53.33333 0.221493 0.239749 0.267485
371 56.47059 59.60784 59.60784 0.283962 0.306525 0.341202
372 62.7451 65.88235 65.88235 0.355663 0.383057 0.425582
373 69.01961 72.15686 72.15686 0.43695 0.469715 0.521025
374 75.29412 78.43137 78.43137 0.528158 0.566848 0.627911
375 81.56863 84.70588 84.70588 0.629606 0.674791 0.746602
376 87.84314 90.98039 90.98039 0.741598 0.793863 0.877444
377 94.11765 97.2549 97.2549 0.864427 0.924369 1.020768
378 97.2549 100.0 100.0 0.925181 0.98696 1.087645
379 94.11765 100.0 100.0 0.897415 0.972643 1.086343
380 87.84314 94.11765 94.11765 0.776254 0.844578 0.946335
381 81.56863 87.84314 87.84314 0.661197 0.721022 0.809402
382 75.29412 81.56863 81.56863 0.556768 0.608715 0.684784
383 69.01961 75.29412 75.29412 0.462665 0.507345 0.572141
384 62.7451 69.01961 69.01961 0.378572 0.416582 0.471122
385 56.47059 62.7451 62.7451 0.304161 0.336084 0.381355
386 50.19608 56.47059 56.47059 0.239082 0.265489 0.30245
387 43.92157 50.19608 50.19608 0.182966 0.204412 0.233995
388 37.64706 43.92157 43.92157 0.135419 0.152447 0.175551
389 31.37255 37.64706 37.64706 0.096019 0.109155 0.126651
390 25.09804 31.37255 31.37255 0.064306 0.074063 0.086786
391 18.82353 25.09804 25.09804 0.039775 0.046652 0.055404
392 12.54902 18.82353 18.82353 0.021859 0.026343 0.03189
393 6.27451 12.54902 12.54902 0.009908 0.012474 0.015548
394 0.0 6.27451 6.27451 0.002788 0.00408 0.005542
395 0.0 6.27451 6.27451 0.002788 0.00408 0.005542
396 3.13725 0.0 3.13725 0.00144 0.000692 0.002354
397 9.41176 6.27451 9.41176 0.007268 0.006307 0.009474
398 15.68627 12.54902 15.68627 0.017745 0.016374 0.022296
399 21.96078 18.82353 21.96078 0.034016 0.032402 0.041868
400 28.23529 25.09804 28.23529 0.056754 0.055125 0.068947
401 34.5098 31.37255 34.5098 0.086544 0.085167 0.104186
402 40.78431 37.64706 40.78431 0.123901 0.123084 0.14817
403 47.05882 43.92157 47.05882 0.169296 0.169376 0.201431
404 53.33333 50.19608 53.33333 0.223158 0.224503 0.264455
405 59.60784 56.47059 59.60784 0.285888 0.288891 0.337697
406 65.88235 62.7451 65.88235 0.357861 0.362938 0.421583
407 72.15686 69.01961 72.15686 0.439429 0.447019 0.516515
408 78.43137 75.29412 78.43137 0.530928 0.54149 0.622872
409 84.70588 81.56863 84.70588 0.632675 0.646688 0.741017
410 90.98039 87.84314 90.98039 0.744976 0.762936 0.871298
411 97.2549 94.11765 97.2549 0.868121 0.890543 1.014045
412 100.0 97.2549 100.0 0.928545 0.956151 1.081522
413 100.0 94.11765 100.0 0.904474 0.908008 1.073498
414 94.11765 87.84314 94.11765 0.783167 0.781285 0.933757
415 87.84314 81.56863 87.84314 0.667489 0.663414 0.797954
416 81.56863 75.29412 81.56863 0.562456 0.556637 0.674434
417 75.29412 69.01961 75.29412 0.467766 0.460634 0.562859
418 69.01961 62.7451 69.01961 0.383107 0.375067 0.462872
419 62.7451 56.47059 62.7451 0.308147 0.299585 0.374101
420 56.47059 50.19608 56.47059 0.242541 0.233816 0.296155
421 50.19608 43.92157 50.19608 0.18592 0.177363 0.228619
422 43.92157 37.64706 43.92157 0.137892 0.129806 0.171052
423 37.64706 31.37255 37.64706 0.098036 0.090688 0.122981
424 31.37255 25.09804 31.37255 0.065895 0.059516 0.083895
