Pre-made_Targets/Patch Width 12-15mm - Intermediate (Easy with ruler)/Generated Targets/CM-Interm-A4-364p-2pages-w14.0mm-13x14/CM-Interm-A4-364p-2pages.ti1
CTI1   

DESCRIPTOR "Argyll Calibration Target chart information 1"
ORIGINATOR "Argyll targen"
CREATED "Mon Feb  9 15:33:13 2026"
APPROX_WHITE_POINT "95.106486 100.000000 108.844025"
COLOR_REP "iRGB"
TOTAL_INK_LIMIT "300.0"
WHITE_COLOR_PATCHES "4"
BLACK_COLOR_PATCHES "4"
COMP_GREY_STEPS "72"
IFP_PATCHES "286"

NUMBER_OF_FIELDS 7
BEGIN_DATA_FORMAT
SAMPLE_ID RGB_R RGB_G RGB_B XYZ_X XYZ_Y XYZ_Z 
END_DATA_FORMAT

NUMBER_OF_SETS 364
BEGIN_DATA
1 100.0000 100.0000 100.0000 95.10649 100.0000 108.8440 
2 100.0000 100.0000 100.0000 95.10649 100.0000 108.8440 
3 100.0000 100.0000 100.0000 95.10649 100.0000 108.8440 
4 100.0000 100.0000 100.0000 95.10649 100.0000 108.8440 
5 0.00000 0.00000 0.00000 1.000000 1.000000 1.000000 
6 0.00000 0.00000 0.00000 1.000000 1.000000 1.000000 
7 0.00000 0.00000 0.00000 1.000000 1.000000 1.000000 
8 0.00000 0.00000 0.00000 1.000000 1.000000 1.000000 
9 98.59155 98.59155 98.59155 92.11939 96.85757 105.4209 
10 97.18310 97.18310 97.18310 89.18834 93.77411 102.0620 
11 95.77465 95.77465 95.77465 86.31304 90.74930 98.76693 
12 94.36620 94.36620 94.36620 83.49319 87.78281 95.53543 
13 92.95775 92.95775 92.95775 80.72846 84.87432 92.36712 
14 91.54930 91.54930 91.54930 78.01856 82.02350 89.26163 
15 90.14085 90.14085 90.14085 75.36316 79.23002 86.21859 
16 88.73239 88.73239 88.73239 72.76194 76.49355 83.23766 
17 87.32394 87.32394 87.32394 70.21460 73.81374 80.31845 
18 85.91549 85.91549 85.91549 67.72079 71.19026 77.46060 
19 84.50704 84.50704 84.50704 65.28020 68.62276 74.66374 
20 83.09859 83.09859 83.09859 62.89250 66.11089 71.92748 
21 81.69014 81.69014 81.69014 60.55735 63.65432 69.25145 
22 80.28169 80.28169 80.28169 58.27442 61.25267 66.63526 
23 78.87324 78.87324 78.87324 56.04337 58.90561 64.07852 
24 77.46479 77.46479 77.46479 53.86385 56.61276 61.58085 
25 76.05634 76.05634 76.05634 51.73553 54.37376 59.14183 
26 74.64789 74.64789 74.64789 49.65804 52.18825 56.76108 
27 73.23944 73.23944 73.23944 47.63105 50.05585 54.43819 
28 71.83099 71.83099 71.83099 45.65419 47.97619 52.17274 
29 70.42254 70.42254 70.42254 43.72709 45.94889 49.96434 
30 69.01408 69.01408 69.01408 41.84941 43.97356 47.81255 
31 67.60563 67.60563 67.60563 40.02076 42.04983 45.71695 
32 66.19718 66.19718 66.19718 38.24077 40.17728 43.67713 
33 64.78873 64.78873 64.78873 36.50908 38.35554 41.69264 
34 63.38028 63.38028 63.38028 34.82528 36.58419 39.76305 
35 61.97183 61.97183 61.97183 33.18901 34.86283 37.88792 
36 60.56338 60.56338 60.56338 31.59987 33.19105 36.06680 
37 59.15493 59.15493 59.15493 30.05746 31.56844 34.29923 
38 57.74648 57.74648 57.74648 28.56138 29.99456 32.58475 
39 56.33803 56.33803 56.33803 27.11122 28.46900 30.92290 
40 54.92958 54.92958 54.92958 25.70658 26.99131 29.31321 
41 53.52113 53.52113 53.52113 24.34703 25.56107 27.75520 
42 52.11268 52.11268 52.11268 23.03215 24.17782 26.24838 
43 50.70423 50.70423 50.70423 21.76152 22.84112 24.79226 
44 49.29577 49.29577 49.29577 20.53469 21.55049 23.38634 
45 47.88732 47.88732 47.88732 19.35123 20.30549 22.03012 
46 46.47887 46.47887 46.47887 18.21068 19.10563 20.72308 
47 45.07042 45.07042 45.07042 17.11259 17.95044 19.46469 
48 43.66197 43.66197 43.66197 16.05650 16.83943 18.25443 
49 42.25352 42.25352 42.25352 15.04192 15.77210 17.09175 
50 40.84507 40.84507 40.84507 14.06839 14.74795 15.97610 
51 39.43662 39.43662 39.43662 13.13541 13.76645 14.90693 
52 38.02817 38.02817 38.02817 12.24249 12.82710 13.88366 
53 36.61972 36.61972 36.61972 11.38912 11.92935 12.90571 
54 35.21127 35.21127 35.21127 10.57478 11.07267 11.97249 
55 33.80282 33.80282 33.80282 9.798943 10.25649 11.08340 
56 32.39437 32.39437 32.39437 9.061072 9.480246 10.23782 
57 30.98592 30.98592 30.98592 8.360617 8.743368 9.435111 
58 29.57746 29.57746 29.57746 7.697016 8.045259 8.674637 
59 28.16901 28.16901 28.16901 7.069691 7.385314 7.955737 
60 26.76056 26.76056 26.76056 6.478054 6.762912 7.277733 
61 25.35211 25.35211 25.35211 5.921499 6.177416 6.639933 
62 23.94366 23.94366 23.94366 5.399406 5.628174 6.041625 
63 22.53521 22.53521 22.53521 4.911135 5.114513 5.482078 
64 21.12676 21.12676 21.12676 4.456031 4.635744 4.960538 
65 19.71831 19.71831 19.71831 4.033416 4.191153 4.476230 
66 18.30986 18.30986 18.30986 3.642592 3.780006 4.028354 
67 16.90141 16.90141 16.90141 3.282835 3.401541 3.616080 
68 15.49296 15.49296 15.49296 2.953396 3.054972 3.238551 
69 14.08451 14.08451 14.08451 2.653499 2.739481 2.894875 
70 12.67606 12.67606 12.67606 2.382334 2.454215 2.584125 
71 11.26761 11.26761 11.26761 2.139054 2.198284 2.305331 
72 9.859155 9.859155 9.859155 1.922774 1.970758 2.057479 
73 8.450704 8.450704 8.450704 1.732562 1.770655 1.839500 
74 7.042254 7.042254 7.042254 1.567434 1.596940 1.650267 
75 5.633803 5.633803 5.633803 1.426342 1.448512 1.488579 
76 4.225352 4.225352 4.225352 1.308167 1.324192 1.353153 
77 2.816901 2.816901 2.816901 1.205177 1.215846 1.235128 
78 1.408451 1.408451 1.408451 1.102589 1.107923 1.117564 
79 0.00000 0.00000 100.0000 18.87111 8.147314 95.12896 
80 0.00000 100.0000 0.00000 36.40521 71.80052 12.80184 
81 0.00000 29.34729 61.99009 9.596848 8.405798 34.04431 
82 100.0000 0.00000 0.00000 41.83017 22.05217 2.913230 
83 49.37643 57.42808 14.11963 20.06532 25.99761 6.474416 
84 0.00000 100.0000 83.23379 48.20187 76.51844 74.93609 
85 0.00000 74.86661 100.0000 37.29760 44.99515 101.2712 
86 98.17043 0.00000 66.70986 47.34549 24.06377 40.72669 
87 66.22436 28.75232 33.62399 21.20486 14.75824 11.25629 
88 71.34921 43.78618 11.35541 26.00386 22.32477 4.947719 
89 0.00000 29.98790 11.35477 3.809938 6.268709 3.017239 
90 57.88157 88.73326 88.73239 53.64654 66.63846 82.34211 
91 55.05904 17.49804 67.24698 20.01268 11.31360 40.38191 
92 59.89232 92.21813 54.62428 48.04811 68.44098 35.84032 
93 29.01859 0.00000 23.04666 4.571450 2.751732 5.216549 
94 100.0000 100.0000 0.00000 77.23538 92.85269 14.71507 
95 26.55828 0.00000 0.00000 3.341165 2.207112 1.109703 
96 0.00000 21.03559 77.44255 12.32213 7.591198 54.27233 
97 97.83932 72.98592 100.0000 75.13155 62.99164 102.7524 
98 89.50269 0.00000 27.07328 33.81450 17.79612 8.095445 
99 66.69047 21.12164 6.127926 18.81532 12.10407 2.676189 
100 92.61863 81.89335 59.93985 63.51944 66.01908 40.03688 
101 0.00000 99.76186 98.59109 53.51737 78.33794 103.8782 
102 0.00000 48.92217 48.23384 11.76924 16.87305 22.05279 
103 67.77166 27.28971 50.70647 24.10854 15.63929 23.28047 
104 0.00000 63.51381 42.52300 16.48807 27.64781 19.49802 
105 46.57056 41.26523 24.96033 14.42957 15.27616 7.800147 
106 69.36968 100.0000 0.00000 54.33229 81.04378 13.64187 
107 45.62376 0.00000 0.00000 8.175794 4.699863 1.336245 
108 0.00000 63.14780 1.053479 13.63765 26.24845 5.284479 
109 76.13029 56.34025 49.27744 36.59192 33.50334 24.83227 
110 83.05215 81.38837 32.39731 51.57205 59.87701 17.72838 
111 98.12612 0.00000 100.0000 57.98233 28.31319 96.96164 
112 59.23008 67.79297 100.0000 46.28456 44.20372 100.6451 
113 16.98109 0.00000 38.63920 4.206555 2.397963 12.67457 
114 87.63941 47.76342 96.30435 54.54692 36.90107 91.11580 
115 0.00000 47.88730 71.83393 16.38492 18.19820 47.97034 
116 100.0000 51.89171 40.42687 52.47144 39.44695 18.44112 
117 100.0000 70.21060 0.00000 57.79768 53.98273 8.235780 
118 62.69960 24.51791 100.0000 34.93499 19.00292 96.37835 
119 57.25246 43.56975 67.54436 25.76958 21.28507 42.38123 
120 79.10839 0.00000 38.62779 27.24808 14.27841 13.74711 
121 53.24675 47.97316 98.15171 35.07672 26.87505 93.99929 
122 0.00000 70.63791 80.51806 28.13331 37.74356 64.06261 
123 87.60733 49.29219 49.29577 42.30877 32.77556 24.40631 
124 76.82383 62.42138 25.42007 36.75759 37.58992 11.10532 
125 16.08404 0.00000 9.032047 2.059366 1.528465 1.850618 
126 81.26790 0.00000 9.144331 26.69725 14.23151 3.020040 
127 78.96165 61.90961 70.24572 45.09413 40.73516 48.64856 
128 86.47433 85.33713 100.0000 72.96849 72.73127 104.7463 
129 24.42298 84.49431 21.22233 27.82179 50.63226 12.63829 
130 83.39924 94.66497 80.17655 70.17657 81.80578 69.80815 
131 26.21948 36.40650 0.00000 7.143550 9.898297 2.394061 
132 62.92663 32.71251 12.69028 18.80218 14.74066 4.093550 
133 1.020919 21.08628 33.62191 3.980315 4.268198 10.13748 
134 63.10981 63.51050 42.52300 31.02451 35.14066 20.17875 
135 71.98104 88.71614 98.18031 64.59224 71.85836 101.1873 
136 86.38341 100.0000 96.38274 82.14604 93.48359 100.7433 
137 0.00000 100.0000 62.11848 42.54994 74.25802 45.16674 
138 83.99925 93.31097 59.20109 64.29556 77.89765 41.48845 
139 100.0000 45.84873 0.00000 48.11846 34.62699 5.009344 
140 62.43718 0.00000 52.56079 19.46070 10.02537 24.11634 
141 0.00000 45.85803 11.35571 7.510070 13.66789 4.250771 
142 58.09652 78.74308 17.69307 34.22087 48.69474 10.92709 
143 53.98360 61.82250 73.63573 32.32997 33.99494 52.70660 
144 51.68375 42.21197 0.00000 15.66112 16.38343 3.197276 
145 47.80519 33.59249 41.86310 14.81532 12.67094 16.23232 
146 0.00000 74.34840 67.47754 26.52166 40.23133 45.91374 
147 58.59679 46.22109 46.47896 23.01426 21.46839 20.92623 
148 0.434345 25.18326 22.12541 3.558036 4.948025 5.385999 
149 47.82139 87.40525 0.00000 35.03354 57.27589 10.07040 
150 52.18837 67.51235 58.98348 30.70801 37.40438 35.20770 
151 0.00000 51.55517 96.30377 25.50294 23.75442 90.10664 
152 79.27440 33.74686 0.00000 28.45428 20.05174 3.231574 
153 36.92017 25.18052 17.83509 7.890230 7.208759 4.342335 
154 39.74491 30.27619 68.65252 16.66144 12.10885 42.51634 
155 52.00733 85.80694 67.55627 42.94594 58.92001 48.75640 
156 98.70471 50.52031 80.19355 59.23696 41.27382 62.58756 
157 45.81389 23.53776 23.25663 10.63037 8.250110 6.030939 
158 88.63707 100.0000 40.99330 69.96599 88.81530 27.42933 
159 50.97820 69.92619 42.93571 28.69647 38.44584 21.23339 
160 32.52408 66.43297 96.28713 35.04669 37.61614 92.24597 
161 71.45893 79.38046 0.00000 41.15997 52.88602 8.900361 
162 4.478643 0.00000 19.81597 1.723639 1.305859 4.069080 
163 77.07952 62.54849 100.0000 53.91266 44.55884 100.3119 
164 24.60549 83.07661 83.09858 38.03859 53.27557 70.75888 
165 77.14626 59.15542 39.74019 36.99980 35.51558 18.04506 
166 100.0000 35.53118 35.21110 47.31901 30.11950 13.71374 
167 40.79840 0.00000 18.28706 7.157001 4.116657 3.902197 
168 19.91090 23.02247 11.37558 4.093627 4.845708 2.731022 
169 29.87574 40.79805 32.17503 10.37963 12.94069 10.72530 
170 47.87684 70.64832 80.51805 36.09695 41.85752 64.43729 
171 41.34417 17.52275 0.00000 7.734810 5.833642 1.578324 
172 40.04744 47.28198 74.01302 22.22204 20.86356 51.24366 
173 0.00000 39.28912 100.0000 23.40087 17.20557 96.63889 
174 76.24997 20.74805 85.93505 37.07165 19.99686 69.22712 
175 0.00000 0.00000 54.13794 5.545690 2.817989 24.94262 
176 75.50110 45.22654 70.64077 36.93183 27.64502 47.08310 
177 64.89164 0.00000 17.84679 16.93932 9.162990 4.245977 
178 36.21298 0.00000 78.51947 15.75181 7.409163 55.71046 
179 27.90025 44.36878 50.71221 13.38938 15.63180 23.84865 
180 37.00193 0.00000 38.64831 7.815054 4.258390 12.84937 
181 61.65002 100.0000 43.25674 53.01482 80.04027 28.21267 
182 84.99812 30.45507 74.66953 41.17580 24.61312 51.91642 
183 91.61494 54.91617 0.00000 43.76075 36.83545 5.665154 
184 11.51115 0.00000 0.00000 1.511607 1.263786 1.023973 
185 68.35325 80.15495 78.44920 50.14752 57.01268 63.36499 
186 80.91108 44.67505 56.33529 37.19651 27.91832 30.28266 
187 80.36348 32.33686 32.39438 30.45923 20.49683 11.23734 
188 62.26973 0.00000 36.11580 17.03111 9.043988 11.75709 
189 100.0000 83.83966 78.70599 75.98910 73.71753 65.62681 
190 58.95228 0.00000 0.00000 13.51259 7.451531 1.586318 
191 31.15887 62.41426 25.42007 17.47134 27.64127 10.20072 
192 47.91084 46.36435 60.32475 21.17217 20.29356 33.86298 
193 0.132008 77.47327 38.85078 23.13085 41.67685 19.39342 
194 34.31093 0.00000 51.94393 9.091763 4.691589 23.06731 
195 63.77902 46.36153 60.32475 28.08139 23.85473 34.18649 
196 45.54081 31.80253 91.06907 25.52119 16.30561 78.43363 
197 41.90591 66.86601 67.60591 28.72337 35.69956 45.08653 
198 68.63937 43.63432 43.66197 27.02652 22.48427 18.76627 
199 60.19916 25.30861 20.57558 16.57094 11.69492 5.516625 
200 38.13639 62.52388 0.00000 18.25644 28.22555 5.346460 
201 0.00000 12.12225 6.058274 1.571416 2.000979 1.627459 
202 62.19555 51.57481 40.42681 25.61015 25.43628 17.15135 
203 31.71145 24.87852 43.54683 8.975443 7.431123 16.72718 
204 69.96198 67.67743 58.99903 39.47077 42.04018 35.65767 
205 77.55054 7.937629 52.43719 28.48574 15.05508 24.49789 
206 35.28587 24.73166 0.00000 6.935999 6.677829 1.783348 
207 22.87798 12.12399 23.87719 4.061054 3.198947 5.619509 
208 46.32269 88.91319 100.0000 53.40773 66.20839 104.5175 
209 0.00000 56.06665 71.84306 19.20368 23.83109 48.92179 
210 68.01206 74.04637 39.37151 38.43169 46.71626 19.89292 
211 84.84757 35.50778 23.94746 33.64457 23.17510 7.942428 
212 79.51142 0.00000 100.0000 43.18871 20.68555 96.26844 
213 35.12288 59.17281 77.44976 26.10666 29.01975 57.69364 
214 49.06090 12.25985 38.63718 12.08795 7.191766 13.18354 
215 47.09544 89.05299 80.17412 46.74507 63.72912 67.54906 
216 98.35499 65.48434 46.51134 57.27103 49.93602 24.64270 
217 67.98447 45.15494 82.79413 35.88451 26.67105 65.22993 
218 100.0000 75.02774 43.29266 63.15346 60.20059 23.87505 
219 26.54846 43.63856 43.66197 11.85688 14.66449 18.05578 
220 68.71554 61.61813 80.23723 41.37504 38.30883 63.02559 
221 45.04634 94.85413 66.76660 46.59167 70.27655 49.75798 
222 24.54457 86.18949 68.42347 35.89726 55.63574 49.60783 
223 64.76312 82.70066 46.35648 42.67813 56.30054 26.51745 
224 100.0000 37.40262 51.98307 50.07688 31.88590 26.19363 
225 85.45958 72.04081 0.00000 46.51262 49.56232 7.976876 
226 85.15194 76.53857 100.0000 66.60245 61.49022 102.9118 
227 32.52564 23.05745 99.01116 23.53647 12.88172 93.70337 
228 12.16285 36.39617 0.00000 5.418958 9.005702 2.312595 
229 18.68817 25.17506 22.12541 4.733892 5.552562 5.440762 
230 34.52896 56.24083 39.73791 17.11757 23.56398 16.78373 
231 12.42841 30.45919 51.10992 8.265923 8.251286 23.04668 
232 100.0000 0.00000 21.47316 42.50716 22.32292 6.479005 
233 36.42016 74.00353 46.58516 26.69602 40.51657 24.49331 
234 100.0000 72.64204 75.81798 68.62357 60.32572 59.04769 
235 44.72036 50.14604 34.89102 17.28548 20.50853 13.26148 
236 1.326042 64.78758 64.78873 21.14406 30.43251 40.97251 
237 79.47330 46.94997 33.63515 33.56216 27.41800 13.05509 
238 50.75754 24.17958 33.80509 13.38672 9.697295 10.78771 
239 72.65581 76.06639 83.22260 51.76058 54.14542 70.41128 
240 75.10173 39.33454 100.0000 44.81131 28.26124 97.64531 
241 0.00000 81.35366 100.0000 41.07110 52.54109 102.5290 
242 0.00000 90.02183 98.18009 46.03394 63.63476 100.5769 
243 35.49055 33.78187 0.933013 8.542007 9.793902 2.367914 
244 58.69773 38.16738 29.36160 18.90964 16.41500 9.601643 
245 35.11499 44.67736 56.33528 16.03825 17.01003 29.29141 
246 72.58495 27.22950 43.55515 25.80864 16.62895 17.62211 
247 16.88435 37.11350 81.56543 17.27951 14.05550 61.75347 
248 0.00000 43.81283 33.63684 8.360499 13.07280 11.61427 
249 18.78848 0.00000 0.00000 2.202641 1.620086 1.056354 
250 57.44359 53.18245 85.83045 34.12659 29.47518 71.02951 
251 82.86307 69.82176 58.80536 48.90059 48.47431 36.19615 
252 72.51913 94.62190 70.21415 60.07827 76.87322 54.79277 
253 0.00000 5.190148 13.77856 1.447847 1.411857 2.641058 
254 68.25720 0.00000 67.18042 25.60156 12.83945 40.29784 
255 65.22587 63.16591 1.053480 29.28299 34.32710 6.019881 
256 54.87281 38.33709 15.76409 16.38001 15.27056 4.950187 
257 100.0000 88.93372 17.68163 69.43809 76.50737 14.43799 
258 77.62288 72.09130 42.93293 43.73581 47.85076 22.25472 
259 24.68354 45.22816 70.64077 17.30346 17.52526 46.16348 
260 44.25870 77.53079 29.92063 28.95306 44.83565 14.81436 
261 27.55747 88.71499 41.01711 33.01069 57.26658 23.30199 
262 88.99556 58.82415 76.37209 52.86758 42.64436 57.28870 
263 100.0000 34.57943 63.82694 51.82367 31.59946 38.43206 
264 62.01299 89.15661 41.01745 44.78156 63.78772 23.94104 
265 44.94306 94.12539 91.16801 53.29384 72.08198 87.92381 
266 31.21842 11.99466 67.02253 11.98622 6.527953 39.59720 
267 95.19771 81.92122 43.66744 62.92067 66.06216 25.29159 
268 69.01783 19.72527 18.87344 20.39837 12.63533 5.007134 
269 14.75090 10.58122 0.00000 2.165033 2.175996 1.165641 
270 4.867754 21.10016 25.04139 3.365197 4.039088 6.244211 
271 45.46751 51.95463 47.38886 19.76522 22.50237 22.02565 
272 35.32150 19.25697 48.99125 9.933465 6.803066 20.83961 
273 95.72951 64.71887 58.98561 56.78639 48.90904 36.05721 
274 50.38787 12.57821 18.48154 10.91058 6.812779 4.276733 
275 88.18130 24.73264 0.00000 33.46389 20.35590 3.026438 
276 37.97022 12.12513 6.058272 6.433837 4.508341 1.855358 
277 62.59381 75.02066 95.48050 49.87677 51.81319 92.57929 
278 72.73162 50.14192 34.89102 30.32907 27.23184 13.87229 
279 0.00000 95.65838 70.21466 41.06932 68.23192 54.12660 
280 52.16581 50.38115 22.78247 19.04254 21.64821 8.012219 
281 33.39379 18.42048 22.38515 6.461517 5.223194 5.371566 
282 54.41240 59.40165 80.06908 33.34516 32.80024 62.11750 
283 82.86240 56.06637 60.14696 43.12586 36.48448 35.63663 
284 70.47686 94.84836 30.99877 52.36576 73.91912 19.70446 
285 21.40087 0.00000 27.96876 3.673057 2.246809 7.056851 
286 72.37717 33.30951 77.82293 34.05911 21.63844 56.41978 
287 83.84471 59.73884 7.044745 39.67777 37.50838 6.575289 
288 55.60286 0.00000 23.59995 12.82061 7.000797 5.794009 
289 100.0000 78.25147 0.00000 62.17448 62.73511 9.694725 
290 85.32106 69.90028 43.76118 48.18260 48.46039 22.73887 
291 11.22985 63.70085 85.07332 26.75220 31.94296 70.58324 
292 36.59086 18.12277 37.35821 8.532669 6.093796 12.37031 
293 44.13532 74.47583 39.37144 28.19330 41.78435 19.48011 
294 87.07391 58.10999 92.46455 56.30868 43.38941 84.69453 
295 100.0000 56.56924 65.21765 58.58471 44.61010 42.25723 
296 75.71935 88.69568 41.00839 52.27123 67.17780 24.19482 
297 17.69440 39.86234 34.88427 8.530269 11.60739 12.00067 
298 63.02848 58.60799 65.77856 33.18154 32.68344 41.97964 
299 30.80656 29.95012 37.89609 8.859792 8.642794 13.17279 
300 31.21856 60.76377 67.60741 23.24967 28.82530 44.04980 
301 44.17302 39.10849 33.09216 13.78215 14.06334 11.23309 
302 79.91598 54.86987 19.71968 35.44560 32.45615 8.278169 
303 37.24866 0.00000 6.117642 5.760446 3.444130 1.691146 
304 5.753082 21.11857 6.127919 2.578912 3.731992 1.915276 
305 39.96750 51.95641 40.48059 17.08607 21.23435 16.82501 
306 19.30736 20.34568 33.62177 5.128336 4.734079 10.16687 
307 89.42726 67.96227 58.98371 53.02551 49.23398 36.31599 
308 76.69443 4.935671 18.28653 24.06630 13.03894 4.733735 
309 88.21437 9.474214 36.50181 34.01264 18.27955 12.87059 
310 29.45956 49.37169 5.961805 11.34297 17.26656 4.050265 
311 62.17522 75.02078 87.16497 46.66871 50.50600 76.77660 
312 65.82189 57.06009 34.89350 28.84114 30.14001 14.51339 
313 72.63899 79.62763 59.81901 47.67456 55.80921 38.76880 
314 52.74542 50.88544 0.00000 18.68462 21.80060 4.083705 
315 32.66573 28.32406 15.73604 7.248122 7.604104 3.944954 
316 7.208611 0.192972 8.862033 1.408556 1.201247 1.799331 
317 78.72155 96.89868 100.0000 75.60849 86.31560 107.2295 
318 43.77944 42.69964 81.70057 24.28563 19.71499 62.69727 
319 65.10678 57.72588 53.89220 31.43627 31.54964 28.89006 
320 72.92154 39.72999 34.86710 27.45554 21.31710 12.86862 
321 71.29047 9.922387 29.64726 21.67926 12.03483 8.740207 
322 21.74523 30.93750 11.35450 5.563874 7.424628 3.147944 
323 85.46632 100.0000 0.00000 65.01329 86.55094 14.14236 
324 26.24278 60.63214 51.99435 18.99084 26.92308 26.88318 
325 23.09550 22.65012 50.27428 8.136127 6.437076 21.96598 
326 85.64972 25.76683 23.50141 32.46425 19.96735 7.227813 
327 26.49252 20.81742 25.24749 5.520960 5.100145 6.413303 
328 94.32419 64.12421 25.42015 50.75320 45.92425 11.97700 
329 81.94338 88.91724 100.0000 72.01778 75.80795 105.3903 
330 30.52888 73.78284 0.00000 21.93415 38.26406 7.090486 
331 63.60013 92.18578 98.18080 62.36343 74.34084 101.7849 
332 86.26083 83.50146 70.65082 61.92454 66.40434 53.26202 
333 71.20790 12.10153 6.058249 20.57171 11.79557 2.517388 
334 92.57568 65.29396 39.37483 51.15864 46.76695 19.23454 
335 66.13012 49.37886 0.00000 24.49770 24.06265 4.214183 
336 66.22020 75.05013 63.38073 42.12145 48.95655 41.76753 
337 39.04307 95.23245 20.57273 38.46527 67.27082 15.09040 
338 40.04688 75.43117 64.00880 31.74225 43.90185 42.08015 
339 66.13906 45.09417 52.12010 27.38037 23.12451 25.82283 
340 68.26167 66.91000 28.17876 33.79793 39.07075 12.66842 
341 31.23991 45.90999 23.63669 11.36820 15.61095 7.545431 
342 75.29974 37.02362 20.67371 27.15483 20.34795 6.659113 
343 34.69329 37.39115 32.41552 10.64404 11.85435 10.62347 
344 88.82580 0.00000 70.57821 40.36361 20.35286 45.41033 
345 80.21892 42.21619 0.00000 31.07916 24.33469 3.920060 
346 25.52978 10.45902 0.00000 3.545537 2.877352 1.228315 
347 57.77897 0.104499 79.04747 23.48050 11.38022 56.89174 
348 20.07091 46.35942 60.32475 14.56090 16.88259 33.55277 
349 49.34473 0.00000 100.0000 27.36485 12.52671 95.52696 
350 30.75561 23.02656 21.83434 6.378471 5.969128 5.340208 
351 21.39386 32.72176 41.09871 8.146319 8.988717 15.34785 
352 59.97555 33.04974 63.82715 23.67885 16.62877 37.02486 
353 94.22406 49.85246 26.23446 45.19931 34.84891 10.44874 
354 51.54523 39.22250 34.88428 16.63176 15.55223 12.33545 
355 71.33759 88.92942 0.00000 47.21317 65.09816 10.93885 
356 0.00000 32.85699 37.07271 6.146631 8.053487 12.70266 
357 55.37063 46.34965 51.94394 22.49937 21.15714 25.53950 
358 0.00000 100.0000 37.44809 38.47254 72.62732 23.69070 
359 40.02327 76.05612 80.56885 36.48372 46.35594 65.36662 
360 70.42418 53.98765 52.11238 32.67427 30.13218 26.88964 
361 68.52290 27.14691 60.22587 26.30504 16.53082 32.75755 
362 41.17047 46.85016 22.40566 14.08720 17.43820 7.334576 
363 75.24972 0.00000 61.54706 28.51467 14.49024 33.71954 
364 34.69328 23.47403 32.42474 8.154781 6.875097 9.798126 
END_DATA
CTI1   

DESCRIPTOR "Argyll Calibration Target chart information 1"
ORIGINATOR "Argyll targen"
DENSITY_EXTREME_VALUES "8"
CREATED "February 9, 2026"

NUMBER_OF_FIELDS 7
BEGIN_DATA_FORMAT
INDEX RGB_R RGB_G RGB_B XYZ_X XYZ_Y XYZ_Z 
END_DATA_FORMAT

NUMBER_OF_SETS 8
BEGIN_DATA
0 100.0000 100.0000 100.0000 95.10649 100.0000 108.8440 
1 0.00000 47.36069 100.0000 25.61297 21.62916 97.37627 
2 100.0000 0.00000 79.35138 52.42580 26.28975 58.72152 
3 0.00000 0.00000 58.99714 6.485834 3.193987 29.89445 
4 100.0000 66.65930 0.00000 56.05879 50.50543 7.656144 
5 0.00000 35.60114 0.00000 4.685619 8.370208 2.228550 
6 84.44436 0.00000 0.00000 28.84279 15.35583 2.304665 
7 0.00000 0.00000 0.00000 1.000000 1.000000 1.000000 
END_DATA
CTI1   

DESCRIPTOR "Argyll Calibration Target chart information 1"
ORIGINATOR "Argyll targen"
DEVICE_COMBINATION_VALUES "9"
CREATED "February 9, 2026"

NUMBER_OF_FIELDS 7
BEGIN_DATA_FORMAT
INDEX RGB_R RGB_G RGB_B XYZ_X XYZ_Y XYZ_Z 
END_DATA_FORMAT

NUMBER_OF_SETS 9
BEGIN_DATA
0 100.0000 100.0000 100.0000 95.10649 100.0000 108.8440 
1 0.00000 100.0000 100.0000 54.27632 78.94783 106.9308 
2 100.0000 0.00000 100.0000 59.70128 29.19948 97.04219 
3 0.00000 0.00000 100.0000 18.87111 8.147314 95.12896 
4 100.0000 100.0000 0.00000 77.23538 92.85269 14.71507 
5 0.00000 100.0000 0.00000 36.40521 71.80052 12.80184 
6 100.0000 0.00000 0.00000 41.83017 22.05217 2.913230 
7 0.00000 0.00000 0.00000 1.000000 1.000000 1.000000 
8 50.00000 50.00000 50.00000 21.14266 22.19007 24.08306 
END_DATA
