Pre-made_Targets/Patch Width 12-15mm - Intermediate (Easy with ruler)/Generated Targets/CM-Interm-A4-364p-2pages-w14.0mm-13x14/CM-Interm-A4-364p-2pages.ti2
CTI2   

DESCRIPTOR "Argyll Calibration Target chart information 2"
ORIGINATOR "Argyll printtarg"
CREATED "Mon Feb  9 15:33:21 2026"
TARGET_INSTRUMENT "X-Rite ColorMunki"
COMP_GREY_STEPS "72"
APPROX_WHITE_POINT "95.106486 100.000000 108.844025"
TOTAL_INK_LIMIT "300.0"
COLOR_REP "iRGB"
PAPER_SIZE "210.0x297.0"
RANDOM_START "177"
STEPS_IN_PASS "14"
PASSES_IN_STRIPS2 "13,13"
STRIP_INDEX_PATTERN "A-Z, A-Z"
PATCH_INDEX_PATTERN "0-9,@-9,@-9;1-999"
INDEX_ORDER "STRIP_THEN_PATCH"

NUMBER_OF_FIELDS 8
BEGIN_DATA_FORMAT
SAMPLE_ID SAMPLE_LOC RGB_R RGB_G RGB_B XYZ_X XYZ_Y XYZ_Z 
END_DATA_FORMAT

NUMBER_OF_SETS 364
BEGIN_DATA
1 "Q8" 100.0000 100.0000 100.0000 95.10649 100.0000 108.8440 
2 "Q4" 100.0000 100.0000 100.0000 95.10649 100.0000 108.8440 
3 "L9" 100.0000 100.0000 100.0000 95.10649 100.0000 108.8440 
4 "I13" 100.0000 100.0000 100.0000 95.10649 100.0000 108.8440 
5 "E12" 0.00000 0.00000 0.00000 1.000000 1.000000 1.000000 
6 "R8" 0.00000 0.00000 0.00000 1.000000 1.000000 1.000000 
7 "F8" 0.00000 0.00000 0.00000 1.000000 1.000000 1.000000 
8 "E14" 0.00000 0.00000 0.00000 1.000000 1.000000 1.000000 
9 "S2" 98.59159 98.59159 98.59159 92.11939 96.85757 105.4209 
10 "F6" 97.18318 97.18318 97.18318 89.18834 93.77411 102.0620 
11 "X5" 95.77478 95.77478 95.77478 86.31304 90.74930 98.76693 
12 "P5" 94.36637 94.36637 94.36637 83.49319 87.78281 95.53543 
13 "U2" 92.95796 92.95796 92.95796 80.72846 84.87432 92.36712 
14 "A8" 91.54955 91.54955 91.54955 78.01856 82.02350 89.26163 
15 "Y4" 90.14115 90.14115 90.14115 75.36316 79.23002 86.21859 
16 "R5" 88.73274 88.73274 88.73274 72.76194 76.49355 83.23766 
17 "V2" 87.32433 87.32433 87.32433 70.21460 73.81374 80.31845 
18 "O4" 85.91592 85.91592 85.91592 67.72079 71.19026 77.46060 
19 "I6" 84.50752 84.50752 84.50752 65.28020 68.62276 74.66374 
20 "X3" 83.09911 83.09911 83.09911 62.89250 66.11089 71.92748 
21 "W13" 81.69070 81.69070 81.69070 60.55735 63.65432 69.25145 
22 "U5" 80.28229 80.28229 80.28229 58.27442 61.25267 66.63526 
23 "D3" 78.87388 78.87388 78.87388 56.04337 58.90561 64.07852 
24 "Y8" 77.46548 77.46548 77.46548 53.86385 56.61276 61.58085 
25 "B11" 76.05707 76.05707 76.05707 51.73553 54.37376 59.14183 
26 "G13" 74.64714 74.64714 74.64714 49.65804 52.18825 56.76108 
27 "L4" 73.23873 73.23873 73.23873 47.63105 50.05585 54.43819 
28 "E4" 71.83032 71.83032 71.83032 45.65419 47.97619 52.17274 
29 "G9" 70.42191 70.42191 70.42191 43.72709 45.94889 49.96434 
30 "L7" 69.01350 69.01350 69.01350 41.84941 43.97356 47.81255 
31 "I8" 67.60510 67.60510 67.60510 40.02076 42.04983 45.71695 
32 "P13" 66.19669 66.19669 66.19669 38.24077 40.17728 43.67713 
33 "J11" 64.78828 64.78828 64.78828 36.50908 38.35554 41.69264 
34 "K6" 63.37987 63.37987 63.37987 34.82528 36.58419 39.76305 
35 "E8" 61.97147 61.97147 61.97147 33.18901 34.86283 37.88792 
36 "D5" 60.56306 60.56306 60.56306 31.59987 33.19105 36.06680 
37 "D7" 59.15465 59.15465 59.15465 30.05746 31.56844 34.29923 
38 "Y12" 57.74624 57.74624 57.74624 28.56138 29.99456 32.58475 
39 "X7" 56.33783 56.33783 56.33783 27.11122 28.46900 30.92290 
40 "H10" 54.92943 54.92943 54.92943 25.70658 26.99131 29.31321 
41 "C3" 53.52102 53.52102 53.52102 24.34703 25.56107 27.75520 
42 "Z11" 52.11261 52.11261 52.11261 23.03215 24.17782 26.24838 
43 "W6" 50.70420 50.70420 50.70420 21.76152 22.84112 24.79226 
44 "H8" 49.29580 49.29580 49.29580 20.53469 21.55049 23.38634 
45 "L2" 47.88739 47.88739 47.88739 19.35123 20.30549 22.03012 
46 "Z7" 46.47898 46.47898 46.47898 18.21068 19.10563 20.72308 
47 "O7" 45.07057 45.07057 45.07057 17.11259 17.95044 19.46469 
48 "J3" 43.66217 43.66217 43.66217 16.05650 16.83943 18.25443 
49 "S5" 42.25376 42.25376 42.25376 15.04192 15.77210 17.09175 
50 "Z5" 40.84535 40.84535 40.84535 14.06839 14.74795 15.97610 
51 "N6" 39.43694 39.43694 39.43694 13.13541 13.76645 14.90693 
52 "H6" 38.02853 38.02853 38.02853 12.24249 12.82710 13.88366 
53 "H12" 36.62013 36.62013 36.62013 11.38912 11.92935 12.90571 
54 "S9" 35.21172 35.21172 35.21172 10.57478 11.07267 11.97249 
55 "A4" 33.80331 33.80331 33.80331 9.798943 10.25649 11.08340 
56 "K8" 32.39490 32.39490 32.39490 9.061072 9.480246 10.23782 
57 "Q1" 30.98650 30.98650 30.98650 8.360617 8.743368 9.435111 
58 "W1" 29.57809 29.57809 29.57809 7.697016 8.045259 8.674637 
59 "G7" 28.16968 28.16968 28.16968 7.069691 7.385314 7.955737 
60 "V7" 26.76127 26.76127 26.76127 6.478054 6.762912 7.277733 
61 "V12" 25.35286 25.35286 25.35286 5.921499 6.177416 6.639933 
62 "T4" 23.94293 23.94293 23.94293 5.399406 5.628174 6.041625 
63 "M11" 22.53452 22.53452 22.53452 4.911135 5.114513 5.482078 
64 "C7" 21.12612 21.12612 21.12612 4.456031 4.635744 4.960538 
65 "B14" 19.71771 19.71771 19.71771 4.033416 4.191153 4.476230 
66 "L12" 18.30930 18.30930 18.30930 3.642592 3.780006 4.028354 
67 "F3" 16.90089 16.90089 16.90089 3.282835 3.401541 3.616080 
68 "O10" 15.49248 15.49248 15.49248 2.953396 3.054972 3.238551 
69 "D10" 14.08408 14.08408 14.08408 2.653499 2.739481 2.894875 
70 "C1" 12.67567 12.67567 12.67567 2.382334 2.454215 2.584125 
71 "G5" 11.26726 11.26726 11.26726 2.139054 2.198284 2.305331 
72 "I2" 9.858854 9.858854 9.858854 1.922774 1.970758 2.057479 
73 "B5" 8.450446 8.450446 8.450446 1.732562 1.770655 1.839500 
74 "R11" 7.042039 7.042039 7.042039 1.567434 1.596940 1.650267 
75 "D12" 5.633631 5.633631 5.633631 1.426342 1.448512 1.488579 
76 "U13" 4.225223 4.225223 4.225223 1.308167 1.324192 1.353153 
77 "F11" 2.816815 2.816815 2.816815 1.205177 1.215846 1.235128 
78 "N2" 1.408408 1.408408 1.408408 1.102589 1.107923 1.117564 
79 "W7" 0.00000 0.00000 100.0000 18.87111 8.147314 95.12896 
80 "B6" 0.00000 100.0000 0.00000 36.40521 71.80052 12.80184 
81 "U1" 0.00000 29.34768 61.98978 9.596848 8.405798 34.04431 
82 "H9" 100.0000 0.00000 0.00000 41.83017 22.05217 2.913230 
83 "Y1" 49.37667 57.42733 14.11917 20.06532 25.99761 6.474416 
84 "H5" 0.00000 100.0000 83.23339 48.20187 76.51844 74.93609 
85 "T2" 0.00000 74.86687 100.0000 37.29760 44.99515 101.2712 
86 "W9" 98.17044 0.00000 66.70939 47.34549 24.06377 40.72669 
87 "Q5" 66.22416 28.75257 33.62325 21.20486 14.75824 11.25629 
88 "V1" 71.34966 43.78576 11.35576 26.00386 22.32477 4.947719 
89 "R10" 0.00000 29.98856 11.35424 3.809938 6.268709 3.017239 
90 "P6" 57.88205 88.73274 88.73274 53.64654 66.63846 82.34211 
91 "I1" 55.05913 17.49752 67.24651 20.01268 11.31360 40.38191 
92 "F12" 59.89166 92.21790 54.62425 48.04811 68.44098 35.84032 
93 "N1" 29.01808 0.00000 23.04723 4.571450 2.751732 5.216549 
94 "X6" 100.0000 100.0000 0.00000 77.23538 92.85269 14.71507 
95 "G4" 26.55833 0.00000 0.00000 3.341165 2.207112 1.109703 
96 "U8" 0.00000 21.03609 77.44259 12.32213 7.591198 54.27233 
97 "C12" 97.83932 72.98543 100.0000 75.13155 62.99164 102.7524 
98 "O1" 89.50332 0.00000 27.07256 33.81450 17.79612 8.095445 
99 "W11" 66.69108 21.12154 6.128023 18.81532 12.10407 2.676189 
100 "S3" 92.61921 81.89364 59.94049 63.51944 66.01908 40.03688 
101 "P10" 0.00000 99.76196 98.59159 53.51737 78.33794 103.8782 
102 "O14" 0.00000 48.92195 48.23377 11.76924 16.87305 22.05279 
103 "O3" 67.77142 27.28923 50.70573 24.10854 15.63929 23.28047 
104 "Z14" 0.00000 63.51415 42.52232 16.48807 27.64781 19.49802 
105 "J9" 46.57053 41.26497 24.96071 14.42957 15.27616 7.800147 
106 "N7" 69.36904 100.0000 0.00000 54.33229 81.04378 13.64187 
107 "D11" 45.62448 0.00000 0.00000 8.175794 4.699863 1.336245 
108 "N9" 0.00000 63.14794 1.052873 13.63765 26.24845 5.284479 
109 "E10" 76.13031 56.34089 49.27749 36.59192 33.50334 24.83227 
110 "F14" 83.05180 81.38857 32.39796 51.57205 59.87701 17.72838 
111 "I14" 98.12619 0.00000 100.0000 57.98233 28.31319 96.96164 
112 "K12" 59.22942 67.79278 100.0000 46.28456 44.20372 100.6451 
113 "R6" 16.98177 0.00000 38.63890 4.206555 2.397963 12.67457 
114 "H11" 87.63867 47.76379 96.30426 54.54692 36.90107 91.11580 
115 "E11" 0.00000 47.88739 71.83337 16.38492 18.19820 47.97034 
116 "Y7" 100.0000 51.89136 40.42725 52.47144 39.44695 18.44112 
117 "T14" 100.0000 70.21134 0.00000 57.79768 53.98273 8.235780 
118 "G10" 62.69932 24.51820 100.0000 34.93499 19.00292 96.37835 
119 "C9" 57.25185 43.56909 67.54406 25.76958 21.28507 42.38123 
120 "S14" 79.10887 0.00000 38.62821 27.24808 14.27841 13.74711 
121 "S12" 53.24636 47.97284 98.15213 35.07672 26.87505 93.99929 
122 "T7" 0.00000 70.63859 80.51881 28.13331 37.74356 64.06261 
123 "F7" 87.60662 49.29274 49.29580 42.30877 32.77556 24.40631 
124 "O13" 76.82307 62.42161 25.42000 36.75759 37.58992 11.10532 
125 "R14" 16.08453 0.00000 9.031815 2.059366 1.528465 1.850618 
126 "J10" 81.26802 0.00000 9.144732 26.69725 14.23151 3.020040 
127 "Z9" 78.96239 61.90890 70.24643 45.09413 40.73516 48.64856 
128 "Y2" 86.47440 85.33761 100.0000 72.96849 72.73127 104.7463 
129 "R1" 24.42359 84.49378 21.22225 27.82179 50.63226 12.63829 
130 "R2" 83.39971 94.66545 80.17700 70.17657 81.80578 69.80815 
131 "F4" 26.21958 36.40650 0.00000 7.143550 9.898297 2.394061 
132 "J7" 62.92668 32.71229 12.69093 18.80218 14.74066 4.093550 
133 "J13" 1.020829 21.08644 33.62173 3.980315 4.268198 10.13748 
134 "W3" 63.10979 63.51110 42.52232 31.02451 35.14066 20.17875 
135 "J6" 71.98138 88.71595 98.17960 64.59224 71.85836 101.1873 
136 "I12" 86.38285 100.0000 96.38209 82.14604 93.48359 100.7433 
137 "B8" 0.00000 100.0000 62.11795 42.54994 74.25802 45.16674 
138 "T12" 83.99939 93.31044 59.20043 64.29556 77.89765 41.48845 
139 "U10" 100.0000 45.84878 0.00000 48.11846 34.62699 5.009344 
140 "M14" 62.43687 0.00000 52.56123 19.46070 10.02537 24.11634 
141 "N3" 0.00000 45.85794 11.35576 7.510070 13.66789 4.250771 
142 "Z8" 58.09720 78.74266 17.69284 34.22087 48.69474 10.92709 
143 "E6" 53.98337 61.82193 73.63546 32.32997 33.99494 52.70660 
144 "D14" 51.68383 42.21256 0.00000 15.66112 16.38343 3.197276 
145 "J1" 47.80499 33.59274 41.86313 14.81532 12.67094 16.23232 
146 "F9" 0.00000 74.34806 67.47692 26.52166 40.23133 45.91374 
147 "Q13" 58.59617 46.22110 46.47898 23.01426 21.46839 20.92623 
148 "G1" 0.434882 25.18349 22.12558 3.558036 4.948025 5.385999 
149 "N5" 47.82177 87.40520 0.00000 35.03354 57.27589 10.07040 
150 "O2" 52.18891 67.51202 58.98375 30.70801 37.40438 35.20770 
151 "P12" 0.00000 51.55566 96.30426 25.50294 23.75442 90.10664 
152 "K9" 79.27367 33.74685 0.00000 28.45428 20.05174 3.231574 
153 "K14" 36.92073 25.18044 17.83474 7.890230 7.208759 4.342335 
154 "J8" 39.74517 30.27695 68.65187 16.66144 12.10885 42.51634 
155 "M5" 52.00732 85.80758 67.55627 42.94594 58.92001 48.75640 
156 "M12" 98.70451 50.51957 80.19379 59.23696 41.27382 62.58756 
157 "G2" 45.81369 23.53704 23.25628 10.63037 8.250110 6.030939 
158 "C6" 88.63661 100.0000 40.99336 69.96599 88.81530 27.42933 
159 "X2" 50.97887 69.92599 42.93584 28.69647 38.44584 21.23339 
160 "W12" 32.52461 66.43320 96.28748 35.04669 37.61614 92.24597 
161 "P14" 71.45953 79.38048 0.00000 41.15997 52.88602 8.900361 
162 "D13" 4.478523 0.00000 19.81537 1.723639 1.305859 4.069080 
163 "G14" 77.07942 62.54826 100.0000 53.91266 44.55884 100.3119 
164 "R4" 24.60517 83.07622 83.09911 38.03859 53.27557 70.75888 
165 "T10" 77.14656 59.15618 39.74060 36.99980 35.51558 18.04506 
166 "S10" 100.0000 35.53063 35.21172 47.31901 30.11950 13.71374 
167 "B13" 40.79805 0.00000 18.28641 7.157001 4.116657 3.902197 
168 "Q6" 19.91150 23.02281 11.37560 4.093627 4.845708 2.731022 
169 "M8" 29.87564 40.79805 32.17517 10.37963 12.94069 10.72530 
170 "A6" 47.87671 70.64775 80.51881 36.09695 41.85752 64.43729 
171 "L11" 41.34432 17.52346 0.00000 7.734810 5.833642 1.578324 
172 "X1" 40.04730 47.28161 74.01236 22.22204 20.86356 51.24366 
173 "W5" 0.00000 39.28893 100.0000 23.40087 17.20557 96.63889 
174 "V6" 76.24933 20.74769 85.93576 37.07165 19.99686 69.22712 
175 "Z10" 0.00000 0.00000 54.13748 5.545690 2.817989 24.94262 
176 "M9" 75.50164 45.22621 70.64012 36.93183 27.64502 47.08310 
177 "W2" 64.89204 0.00000 17.84695 16.93932 9.162990 4.245977 
178 "L3" 36.21271 0.00000 78.51987 15.75181 7.409163 55.71046 
179 "Y6" 27.89960 44.36866 50.71183 13.38938 15.63180 23.84865 
180 "A7" 37.00160 0.00000 38.64805 7.815054 4.258390 12.84937 
181 "H7" 61.64950 100.0000 43.25628 53.01482 80.04027 28.21267 
182 "Y13" 84.99886 30.45548 74.67002 41.17580 24.61312 51.91642 
183 "W14" 91.61517 54.91569 0.00000 43.76075 36.83545 5.665154 
184 "M6" 11.51141 0.00000 0.00000 1.511607 1.263786 1.023973 
185 "A12" 68.35279 80.15564 78.44968 50.14752 57.01268 63.36499 
186 "V9" 80.91096 44.67536 56.33478 37.19651 27.91832 30.28266 
187 "L8" 80.36316 32.33692 32.39490 30.45923 20.49683 11.23734 
188 "E3" 62.26902 0.00000 36.11505 17.03111 9.043988 11.75709 
189 "M2" 100.0000 83.83917 78.70603 75.98910 73.71753 65.62681 
190 "X12" 58.95171 0.00000 0.00000 13.51259 7.451531 1.586318 
191 "U4" 31.15892 62.41398 25.42000 17.47134 27.64127 10.20072 
192 "Q11" 47.91028 46.36454 60.32502 21.17217 20.29356 33.86298 
193 "H2" 0.132753 77.47311 38.85100 23.13085 41.67685 19.39342 
194 "B4" 34.31144 0.00000 51.94324 9.091763 4.691589 23.06731 
195 "B9" 63.77966 46.36149 60.32502 28.08139 23.85473 34.18649 
196 "S4" 45.54055 31.80285 91.06889 25.52119 16.30561 78.43363 
197 "Y10" 41.90585 66.86656 67.60662 28.72337 35.69956 45.08653 
198 "Z13" 68.63966 43.63470 43.66217 27.02652 22.48427 18.76627 
199 "V13" 60.19989 25.30861 20.57527 16.57094 11.69492 5.516625 
200 "E5" 38.13687 62.52384 0.00000 18.25644 28.22555 5.346460 
201 "C10" 0.00000 12.12177 6.057832 1.571416 2.000979 1.627459 
202 "P11" 62.19577 51.57549 40.42725 25.61015 25.43628 17.15135 
203 "A2" 31.71130 24.87831 43.54620 8.975443 7.431123 16.72718 
204 "G11" 69.96262 67.67681 58.99901 39.47077 42.04018 35.65767 
205 "E9" 77.55093 7.937743 52.43763 28.48574 15.05508 24.49789 
206 "F10" 35.28649 24.73182 0.00000 6.935999 6.677829 1.783348 
207 "P1" 22.87785 12.12329 23.87732 4.061054 3.198947 5.619509 
208 "O5" 46.32334 88.91279 100.0000 53.40773 66.20839 104.5175 
209 "B3" 0.00000 56.06622 71.84253 19.20368 23.83109 48.92179 
210 "B10" 68.01251 74.04593 39.37133 38.43169 46.71626 19.89292 
211 "K7" 84.84779 35.50774 23.94751 33.64457 23.17510 7.942428 
212 "K5" 79.51171 0.00000 100.0000 43.18871 20.68555 96.26844 
213 "T9" 35.12322 59.17296 77.45022 26.10666 29.01975 57.69364 
214 "V11" 49.06081 12.25910 38.63737 12.08795 7.191766 13.18354 
215 "V3" 47.09545 89.05318 80.17395 46.74507 63.72912 67.54906 
216 "D9" 98.35508 65.48409 46.51102 57.27103 49.93602 24.64270 
217 "S1" 67.98505 45.15450 82.79393 35.88451 26.67105 65.22993 
218 "O9" 100.0000 75.02708 43.29290 63.15346 60.20059 23.87505 
219 "W10" 26.54917 43.63928 43.66217 11.85688 14.66449 18.05578 
220 "W4" 68.71595 61.61746 80.23651 41.37504 38.30883 63.02559 
221 "J12" 45.04616 94.85466 66.76585 46.59167 70.27655 49.75798 
222 "G8" 24.54414 86.18906 68.42298 35.89726 55.63574 49.60783 
223 "B12" 64.76387 82.70085 46.35691 42.67813 56.30054 26.51745 
224 "K1" 100.0000 37.40291 51.98291 50.07688 31.88590 26.19363 
225 "Y5" 85.45968 72.04089 0.00000 46.51262 49.56232 7.976876 
226 "A11" 85.15145 76.53925 100.0000 66.60245 61.49022 102.9118 
227 "I9" 32.52613 23.05791 99.01122 23.53647 12.88172 93.70337 
228 "M10" 12.16297 36.39582 0.00000 5.418958 9.005702 2.312595 
229 "D1" 18.68772 25.17433 22.12558 4.733892 5.552562 5.440762 
230 "P8" 34.52964 56.24018 39.73754 17.11757 23.56398 16.78373 
231 "R12" 12.42847 30.45853 51.11009 8.265923 8.251286 23.04668 
232 "D2" 100.0000 0.00000 21.47250 42.50716 22.32292 6.479005 
233 "L10" 36.42023 74.00320 46.58579 26.69602 40.51657 24.49331 
234 "J5" 100.0000 72.64210 75.81750 68.62357 60.32572 59.04769 
235 "X9" 44.71962 50.14572 34.89128 17.28548 20.50853 13.26148 
236 "N8" 1.326009 64.78828 64.78828 21.14406 30.43251 40.97251 
237 "C11" 79.47356 46.95048 33.63546 33.56216 27.41800 13.05509 
238 "F1" 50.75761 24.17945 33.80484 13.38672 9.697295 10.78771 
239 "H4" 72.65583 76.06622 83.22271 51.76058 54.14542 70.41128 
240 "Z12" 75.10185 39.33471 100.0000 44.81131 28.26124 97.64531 
241 "X4" 0.00000 81.35348 100.0000 41.07110 52.54109 102.5290 
242 "R7" 0.00000 90.02213 98.17960 46.03394 63.63476 100.5769 
243 "F2" 35.49096 33.78195 0.932326 8.542007 9.793902 2.367914 
244 "Z1" 58.69841 38.16739 29.36141 18.90964 16.41500 9.601643 
245 "N4" 35.11559 44.67689 56.33478 16.03825 17.01003 29.29141 
246 "K10" 72.58564 27.22972 43.55535 25.80864 16.62895 17.62211 
247 "S8" 16.88411 37.11299 81.56558 17.27951 14.05550 61.75347 
248 "V10" 0.00000 43.81323 33.63699 8.360499 13.07280 11.61427 
249 "R9" 18.78843 0.00000 0.00000 2.202641 1.620086 1.056354 
250 "Q7" 57.44411 53.18227 85.83047 34.12659 29.47518 71.02951 
251 "C13" 82.86259 69.82223 58.80522 48.90059 48.47431 36.19615 
252 "P4" 72.51850 94.62119 70.21439 60.07827 76.87322 54.79277 
253 "X13" 0.00000 5.189593 13.77890 1.447847 1.411857 2.641058 
254 "J4" 68.25666 0.00000 67.18090 25.60156 12.83945 40.29784 
255 "B1" 65.22621 63.16625 1.052873 29.28299 34.32710 6.019881 
256 "U14" 54.87297 38.33677 15.76410 16.38001 15.27056 4.950187 
257 "I11" 100.0000 88.93416 17.68215 69.43809 76.50737 14.43799 
258 "V4" 77.62264 72.09125 42.93278 43.73581 47.85076 22.25472 
259 "A14" 24.68299 45.22774 70.64012 17.30346 17.52526 46.16348 
260 "N13" 44.25879 77.53109 29.91989 28.95306 44.83565 14.81436 
261 "Z6" 27.55779 88.71443 41.01778 33.01069 57.26658 23.30199 
262 "A9" 88.99519 58.82353 76.37140 52.86758 42.64436 57.28870 
263 "D4" 100.0000 34.58000 63.82696 51.82367 31.59946 38.43206 
264 "Q12" 62.01266 89.15694 41.01778 44.78156 63.78772 23.94104 
265 "U6" 44.94240 94.12528 91.16808 53.29384 72.08198 87.92381 
266 "X10" 31.21843 11.99512 67.02220 11.98622 6.527953 39.59720 
267 "I3" 95.19799 81.92111 43.66674 62.92067 66.06216 25.29159 
268 "G12" 69.01808 19.72534 18.87388 20.39837 12.63533 5.007134 
269 "A1" 14.75090 10.58061 0.00000 2.165033 2.175996 1.165641 
270 "O12" 4.867628 21.10018 25.04158 3.365197 4.039088 6.244211 
271 "U11" 45.46731 51.95392 47.38842 19.76522 22.50237 22.02565 
272 "M7" 35.32158 19.25689 48.99062 9.933465 6.803066 20.83961 
273 "A13" 95.72900 64.71962 58.98528 56.78639 48.90904 36.05721 
274 "P7" 50.38834 12.57801 18.48173 10.91058 6.812779 4.276733 
275 "C2" 88.18189 24.73335 0.00000 33.46389 20.35590 3.026438 
276 "P2" 37.97055 12.12482 6.057832 6.433837 4.508341 1.855358 
277 "F5" 62.59403 75.02098 95.48028 49.87677 51.81319 92.57929 
278 "T8" 72.73213 50.14267 34.89128 30.32907 27.23184 13.87229 
279 "Q14" 0.00000 95.65881 70.21439 41.06932 68.23192 54.12660 
280 "U7" 52.16602 50.38071 22.78172 19.04254 21.64821 8.012219 
281 "K4" 33.39437 18.42069 22.38499 6.461517 5.223194 5.371566 
282 "T11" 54.41215 59.40185 80.06867 33.34516 32.80024 62.11750 
283 "M4" 82.86259 56.06622 60.14649 43.12586 36.48448 35.63663 
284 "J2" 70.47684 94.84855 30.99870 52.36576 73.91912 19.70446 
285 "O11" 21.40078 0.00000 27.96826 3.673057 2.246809 7.056851 
286 "Z4" 72.37659 33.30892 77.82254 34.05911 21.63844 56.41978 
287 "E7" 83.84527 59.73907 7.045090 39.67777 37.50838 6.575289 
288 "H14" 55.60235 0.00000 23.59960 12.82061 7.000797 5.794009 
289 "Y11" 100.0000 78.25132 0.00000 62.17448 62.73511 9.694725 
290 "H3" 85.32082 69.90005 43.76135 48.18260 48.46039 22.73887 
291 "G3" 11.22911 63.70031 85.07362 26.75220 31.94296 70.58324 
292 "P3" 36.59113 18.12314 37.35866 8.532669 6.093796 12.37031 
293 "L6" 44.13519 74.47623 39.37133 28.19330 41.78435 19.48011 
294 "G6" 87.07408 58.10941 92.46509 56.30868 43.38941 84.69453 
295 "Y9" 100.0000 56.56977 65.21706 58.58471 44.61010 42.25723 
296 "Z2" 75.71984 88.69612 41.00862 52.27123 67.17780 24.19482 
297 "H1" 17.69436 39.86267 34.88365 8.530269 11.60739 12.00067 
298 "U9" 63.02892 58.60838 65.77859 33.18154 32.68344 41.97964 
299 "S11" 30.80644 29.95041 37.89578 8.859792 8.642794 13.17279 
300 "N12" 31.21843 60.76448 67.60815 23.24967 28.82530 44.04980 
301 "M13" 44.17334 39.10887 33.09224 13.78215 14.06334 11.23309 
302 "N11" 79.91608 54.86992 19.71923 35.44560 32.45615 8.278169 
303 "P9" 37.24880 0.00000 6.117342 5.760446 3.444130 1.691146 
304 "E13" 5.752651 21.11849 6.128023 2.578912 3.731992 1.915276 
305 "K2" 39.96796 51.95697 40.48066 17.08607 21.23435 16.82501 
306 "L14" 19.30724 20.34638 33.62173 5.128336 4.734079 10.16687 
307 "B2" 89.42702 67.96216 58.98375 53.02551 49.23398 36.31599 
308 "D6" 76.69490 4.936294 18.28641 24.06630 13.03894 4.733735 
309 "O6" 88.21393 9.474327 36.50111 34.01264 18.27955 12.87059 
310 "V8" 29.45907 49.37209 5.961700 11.34297 17.26656 4.050265 
311 "I4" 62.17594 75.02098 87.16564 46.66871 50.50600 76.77660 
312 "T6" 65.82132 57.05959 34.89281 28.84114 30.14001 14.51339 
313 "Q9" 72.63905 79.62768 59.81842 47.67456 55.80921 38.76880 
314 "M1" 52.74586 50.88579 0.00000 18.68462 21.80060 4.083705 
315 "X11" 32.66499 28.32380 15.73663 7.248122 7.604104 3.944954 
316 "V5" 7.208362 0.192264 8.862440 1.408556 1.201247 1.799331 
317 "B7" 78.72129 96.89937 100.0000 75.60849 86.31560 107.2295 
318 "A5" 43.77966 42.69932 81.69986 24.28563 19.71499 62.69727 
319 "S7" 65.10719 57.72641 53.89181 31.43627 31.54964 28.89006 
320 "E1" 72.92134 39.72992 34.86687 27.45554 21.31710 12.86862 
321 "I5" 71.29015 9.922942 29.64675 21.67926 12.03483 8.740207 
322 "T1" 21.74563 30.93767 11.35424 5.563874 7.424628 3.147944 
323 "C4" 85.46578 100.0000 0.00000 65.01329 86.55094 14.14236 
324 "A10" 26.24247 60.63172 51.99359 18.99084 26.92308 26.88318 
325 "T5" 23.09606 22.65049 50.27390 8.136127 6.437076 21.96598 
326 "T3" 85.65042 25.76638 23.50195 32.46425 19.96735 7.227813 
327 "V14" 26.49271 20.81788 25.24758 5.520960 5.100145 6.413303 
328 "L5" 94.32364 64.12451 25.42000 50.75320 45.92425 11.97700 
329 "R3" 81.94400 88.91737 100.0000 72.01778 75.80795 105.3903 
330 "L1" 30.52873 73.78347 0.00000 21.93415 38.26406 7.090486 
331 "U3" 63.59960 92.18585 98.18112 62.36343 74.34084 101.7849 
332 "F13" 86.26078 83.50195 70.65080 61.92454 66.40434 53.26202 
333 "X8" 71.20775 12.10193 6.057832 20.57171 11.79557 2.517388 
334 "L13" 92.57496 65.29335 39.37438 51.15864 46.76695 19.23454 
335 "H13" 66.12955 49.37819 0.00000 24.49770 24.06265 4.214183 
336 "K11" 66.21958 75.04997 63.38140 42.12145 48.95655 41.76753 
337 "A3" 39.04326 95.23308 20.57221 38.46527 67.27082 15.09040 
338 "Q3" 40.04730 75.43145 64.00855 31.74225 43.90185 42.08015 
339 "C5" 66.13870 45.09346 52.12024 27.38037 23.12451 25.82283 
340 "C8" 68.26123 66.90929 28.17884 33.79793 39.07075 12.66842 
341 "J14" 31.23980 45.90982 23.63622 11.36820 15.61095 7.545431 
342 "Y3" 75.30022 37.02296 20.67445 27.15483 20.34795 6.659113 
343 "N14" 34.69291 37.39071 32.41627 10.64404 11.85435 10.62347 
344 "Q10" 88.82582 0.00000 70.57755 40.36361 20.35286 45.41033 
345 "D8" 80.21820 42.21561 0.00000 31.07916 24.33469 3.920060 
346 "X14" 25.52987 10.45853 0.00000 3.545537 2.877352 1.228315 
347 "S6" 57.77829 0.103761 79.04784 23.48050 11.38022 56.89174 
348 "E2" 20.07019 46.35996 60.32502 14.56090 16.88259 33.55277 
349 "U12" 49.34463 0.00000 100.0000 27.36485 12.52671 95.52696 
350 "S13" 30.75608 23.02586 21.83413 6.378471 5.969128 5.340208 
351 "Y14" 21.39315 32.72145 41.09865 8.146319 8.988717 15.34785 
352 "I7" 59.97559 33.04952 63.82696 23.67885 16.62877 37.02486 
353 "Q2" 94.22446 49.85275 26.23484 45.19931 34.84891 10.44874 
354 "Z3" 51.54498 39.22179 34.88365 16.63176 15.55223 12.33545 
355 "C14" 71.33745 88.92958 0.00000 47.21317 65.09816 10.93885 
356 "N10" 0.00000 32.85725 37.07332 6.146631 8.053487 12.70266 
357 "I10" 55.37041 46.34928 51.94324 22.49937 21.15714 25.53950 
358 "O8" 0.00000 100.0000 37.44869 38.47254 72.62732 23.69070 
359 "M3" 40.02289 76.05554 80.56916 36.48372 46.35594 65.36662 
360 "W8" 70.42344 53.98795 52.11261 32.67427 30.13218 26.88964 
361 "K3" 68.52216 27.14733 60.22583 26.30504 16.53082 32.75755 
362 "R13" 41.17037 46.84977 22.40635 14.08720 17.43820 7.334576 
363 "K13" 75.24987 0.00000 61.54726 28.51467 14.49024 33.71954 
364 "T13" 34.69291 23.47448 32.42542 8.154781 6.875097 9.798126 
END_DATA
