Pre-made_Targets/Patch Width 16-30mm - Easy (Freehand possible)/CM-Easy-Letter-105p-1page-w17.0mm-11x10/CM-Easy-Letter-105p-1page.ti1
CTI1   

DESCRIPTOR "Argyll Calibration Target chart information 1"
ORIGINATOR "Argyll targen"
CREATED "Sun Feb  8 01:13:38 2026"
APPROX_WHITE_POINT "95.106486 100.000000 108.844025"
COLOR_REP "iRGB"
TOTAL_INK_LIMIT "300.0"
WHITE_COLOR_PATCHES "2"
BLACK_COLOR_PATCHES "2"
COMP_GREY_STEPS "20"
IFP_PATCHES "83"

NUMBER_OF_FIELDS 7
BEGIN_DATA_FORMAT
SAMPLE_ID RGB_R RGB_G RGB_B XYZ_X XYZ_Y XYZ_Z 
END_DATA_FORMAT

NUMBER_OF_SETS 105
BEGIN_DATA
1 100.0000 100.0000 100.0000 95.10649 100.0000 108.8440 
2 100.0000 100.0000 100.0000 95.10649 100.0000 108.8440 
3 0.00000 0.00000 0.00000 1.000000 1.000000 1.000000 
4 0.00000 0.00000 0.00000 1.000000 1.000000 1.000000 
5 94.73684 94.73684 94.73684 84.22990 88.55783 96.37969 
6 89.47368 89.47368 89.47368 74.12427 77.92671 84.79885 
7 84.21053 84.21053 84.21053 64.77314 68.08933 74.08266 
8 78.94737 78.94737 78.94737 56.15950 59.02778 64.21161 
9 73.68421 73.68421 73.68421 48.26572 50.72353 55.16551 
10 68.42105 68.42105 68.42105 41.07349 43.15730 46.92337 
11 63.15789 63.15789 63.15789 34.56378 36.30908 39.46337 
12 57.89474 57.89474 57.89474 28.71669 30.15795 32.76273 
13 52.63158 52.63158 52.63158 23.51141 24.68200 26.79760 
14 47.36842 47.36842 47.36842 18.92606 19.85821 21.54288 
15 42.10526 42.10526 42.10526 14.93752 15.66227 16.97210 
16 36.84211 36.84211 36.84211 11.52125 12.06836 13.05713 
17 31.57895 31.57895 31.57895 8.651021 9.048872 9.767907 
18 26.31579 26.31579 26.31579 6.298539 6.574062 7.072013 
19 21.05263 21.05263 21.05263 4.432984 4.611499 4.934127 
20 15.78947 15.78947 15.78947 3.020270 3.125324 3.315187 
21 10.52632 10.52632 10.52632 2.021914 2.075054 2.171092 
22 5.263158 5.263158 5.263158 1.393069 1.413509 1.450449 
23 0.00000 0.00000 100.0000 18.87111 8.147314 95.12896 
24 100.0000 0.00000 0.00000 41.83017 22.05217 2.913230 
25 0.00000 30.32665 63.18069 10.02962 8.851780 35.48212 
26 0.00000 100.0000 0.00000 36.40521 71.80052 12.80184 
27 50.71111 58.45223 15.79518 21.04354 27.09470 6.994015 
28 0.00000 85.96233 68.43503 33.74644 54.30372 49.47896 
29 91.66220 58.45515 15.79518 45.54379 39.72883 8.142388 
30 76.67619 0.00000 49.78531 27.20612 14.07362 22.01132 
31 66.41025 74.01607 100.0000 53.10625 52.45667 101.8789 
32 53.39649 21.05345 18.09782 12.86121 8.975856 4.489896 
33 0.00000 25.05823 0.00000 2.809543 4.618581 1.603186 
34 45.55365 34.06309 10.53269 11.70969 11.49092 3.479362 
35 21.96209 0.00000 24.42537 3.483505 2.180031 5.650892 
36 77.59572 34.06636 10.53268 27.58127 19.67535 4.223267 
37 66.41645 100.0000 100.0000 70.55289 87.34009 107.6935 
38 88.64990 0.00000 31.86427 33.55005 17.61173 10.25083 
39 33.17707 77.93310 35.15111 26.64440 43.93138 17.43505 
40 100.0000 100.0000 0.00000 77.23538 92.85269 14.71507 
41 0.00000 79.53117 100.0000 39.96947 50.33815 102.1618 
42 0.00000 26.26615 84.21628 15.09856 9.815683 65.46019 
43 66.86132 0.00000 0.00000 17.51927 9.517390 1.774064 
44 91.37937 53.93824 100.0000 61.08051 43.16892 99.66606 
45 88.25362 79.35847 59.26602 58.29374 61.05997 38.62424 
46 0.00000 55.43383 56.01806 15.37972 21.92088 29.95515 
47 0.00000 57.19728 100.0000 29.02560 28.45345 98.51382 
48 34.58611 14.28973 21.05306 6.292578 4.600101 4.834117 
49 0.00000 34.08576 46.72037 7.672791 9.056553 19.53001 
50 31.54647 35.75914 0.00000 8.032303 10.14637 2.395137 
51 64.05605 92.16679 0.00000 45.44454 67.57960 11.51099 
52 49.29207 0.00000 57.33493 14.62680 7.430040 28.53648 
53 25.35844 12.38399 0.00000 3.636589 3.101844 1.266853 
54 47.90710 0.00000 30.09153 10.28614 5.635635 8.310063 
55 0.00000 90.30417 100.0000 46.96319 64.32361 104.4931 
56 66.04775 0.117949 30.09153 18.39723 9.822535 8.691061 
57 61.47958 46.15868 62.42404 27.31397 23.31743 36.48665 
58 89.69176 0.00000 18.30251 33.40316 17.64917 5.136122 
59 66.01628 47.77667 46.72825 27.23608 24.34073 21.45621 
60 37.55050 63.85012 84.21097 30.79642 34.15973 69.32351 
61 30.07930 0.00000 0.520751 4.013619 2.552999 1.178815 
62 67.49127 28.42927 100.0000 38.06379 21.49542 96.69469 
63 44.91808 1.104374 16.89099 8.403662 4.812180 3.616132 
64 100.0000 69.26448 57.88934 62.58538 55.13807 35.79519 
65 40.76586 57.50710 42.94855 19.68281 25.56340 19.23064 
66 41.48589 27.59745 56.01731 13.94873 10.36262 27.79869 
67 62.48989 0.915866 16.89100 15.68278 8.557652 3.955743 
68 100.0000 53.80403 68.37516 58.31404 42.85894 45.89833 
69 6.132736 0.00000 46.43993 4.467987 2.410745 18.19349 
70 62.63783 57.17505 100.0000 43.31601 35.80882 99.18097 
71 66.67807 82.75710 57.87888 45.75005 57.70442 37.16633 
72 55.13937 72.20853 68.42081 36.41658 43.60702 47.25514 
73 70.20041 58.45252 0.00000 30.05745 31.78687 5.412360 
74 33.40448 28.26981 38.62502 9.231343 8.402443 13.56004 
75 20.12925 19.79429 0.512313 3.524777 4.006981 1.484610 
76 51.07224 24.59031 0.716851 11.90372 9.208780 2.062238 
77 75.16646 78.80092 16.01343 43.50020 53.53867 10.96558 
78 0.00000 100.0000 94.87166 52.26189 78.14219 96.32059 
79 76.15082 37.45210 68.72713 34.85650 23.64736 43.88243 
80 44.74886 83.70989 57.87896 36.81789 53.99281 36.92040 
81 33.60646 80.27031 78.65702 36.70194 50.17608 63.07572 
82 58.60698 31.18344 42.08190 18.80133 14.03613 16.43837 
83 100.0000 0.00000 85.62960 54.40576 27.08161 69.15014 
84 34.24929 47.77319 44.37736 14.75150 17.94206 19.06485 
85 87.35828 24.59993 0.716792 32.81195 19.99112 3.042340 
86 52.31661 31.46134 78.94262 23.97073 15.87194 57.56919 
87 58.59972 27.00783 63.18381 21.82768 14.11622 35.88056 
88 91.96852 74.61729 84.22039 65.16720 59.82756 72.48391 
89 21.46769 65.07297 54.44274 20.63704 30.61255 29.80630 
90 62.43524 62.32581 51.20317 31.48778 34.45404 26.96476 
91 51.13363 0.00000 0.00000 10.17390 5.730090 1.429873 
92 79.22559 46.11912 37.64242 33.57974 27.00743 15.26050 
93 41.75798 46.01960 65.67392 20.22929 19.51819 39.99185 
94 0.00000 11.57201 30.08374 2.763733 2.421205 8.082150 
95 18.89237 20.89190 57.83373 8.739248 6.272096 29.14055 
96 66.78737 74.61154 84.22039 47.87915 50.90910 71.67291 
97 9.278381 0.00000 11.73036 1.595904 1.280541 2.233356 
98 45.16633 71.43141 5.891638 24.70064 37.83535 7.310459 
99 15.22618 0.00000 0.00000 1.821904 1.423777 1.038513 
100 72.45099 63.87539 84.21098 45.80651 41.91577 70.03011 
101 0.00000 21.11565 16.03360 2.693242 3.755218 3.509797 
102 37.07596 14.33117 30.08281 7.582878 5.193318 8.363000 
103 38.49561 0.00000 75.89747 15.59431 7.415652 51.74522 
104 57.22099 100.0000 43.76991 51.00062 78.99349 28.49063 
105 0.552801 46.65494 0.00000 7.545324 14.06289 3.176788 
END_DATA
CTI1   

DESCRIPTOR "Argyll Calibration Target chart information 1"
ORIGINATOR "Argyll targen"
DENSITY_EXTREME_VALUES "8"
CREATED "February 8, 2026"

NUMBER_OF_FIELDS 7
BEGIN_DATA_FORMAT
INDEX RGB_R RGB_G RGB_B XYZ_X XYZ_Y XYZ_Z 
END_DATA_FORMAT

NUMBER_OF_SETS 8
BEGIN_DATA
0 100.0000 100.0000 100.0000 95.10649 100.0000 108.8440 
1 0.00000 47.36069 100.0000 25.61297 21.62916 97.37627 
2 100.0000 0.00000 79.35138 52.42580 26.28975 58.72152 
3 0.00000 0.00000 58.99714 6.485834 3.193987 29.89445 
4 100.0000 66.65930 0.00000 56.05879 50.50543 7.656144 
5 0.00000 35.60114 0.00000 4.685619 8.370208 2.228550 
6 84.44436 0.00000 0.00000 28.84279 15.35583 2.304665 
7 0.00000 0.00000 0.00000 1.000000 1.000000 1.000000 
END_DATA
CTI1   

DESCRIPTOR "Argyll Calibration Target chart information 1"
ORIGINATOR "Argyll targen"
DEVICE_COMBINATION_VALUES "9"
CREATED "February 8, 2026"

NUMBER_OF_FIELDS 7
BEGIN_DATA_FORMAT
INDEX RGB_R RGB_G RGB_B XYZ_X XYZ_Y XYZ_Z 
END_DATA_FORMAT

NUMBER_OF_SETS 9
BEGIN_DATA
0 100.0000 100.0000 100.0000 95.10649 100.0000 108.8440 
1 0.00000 100.0000 100.0000 54.27632 78.94783 106.9308 
2 100.0000 0.00000 100.0000 59.70128 29.19948 97.04219 
3 0.00000 0.00000 100.0000 18.87111 8.147314 95.12896 
4 100.0000 100.0000 0.00000 77.23538 92.85269 14.71507 
5 0.00000 100.0000 0.00000 36.40521 71.80052 12.80184 
6 100.0000 0.00000 0.00000 41.83017 22.05217 2.913230 
7 0.00000 0.00000 0.00000 1.000000 1.000000 1.000000 
8 50.00000 50.00000 50.00000 21.14266 22.19007 24.08306 
END_DATA
