Pre-made_Targets/Patch Width 8-11mm - Expert (Use rig-guide-ruler)/Generated Targets/CM-Expert-A4-1530p-5pages-w11.0mm-17x18/CM-Expert-A4-1530p-5pages.ti2
CTI2   

DESCRIPTOR "Argyll Calibration Target chart information 2"
ORIGINATOR "Argyll printtarg"
CREATED "Mon Feb  9 15:56:02 2026"
TARGET_INSTRUMENT "X-Rite ColorMunki"
COMP_GREY_STEPS "216"
APPROX_WHITE_POINT "95.106486 100.000000 108.844025"
TOTAL_INK_LIMIT "300.0"
COLOR_REP "iRGB"
PAPER_SIZE "210.0x297.0"
RANDOM_START "1382"
STEPS_IN_PASS "18"
PASSES_IN_STRIPS2 "17,17,17,17,17"
STRIP_INDEX_PATTERN "A-Z, A-Z"
PATCH_INDEX_PATTERN "0-9,@-9,@-9;1-999"
INDEX_ORDER "STRIP_THEN_PATCH"

NUMBER_OF_FIELDS 8
BEGIN_DATA_FORMAT
SAMPLE_ID SAMPLE_LOC RGB_R RGB_G RGB_B XYZ_X XYZ_Y XYZ_Z 
END_DATA_FORMAT

NUMBER_OF_SETS 1530
BEGIN_DATA
1 "U11" 100.0000 100.0000 100.0000 95.10649 100.0000 108.8440 
2 "T15" 100.0000 100.0000 100.0000 95.10649 100.0000 108.8440 
3 "BH10" 100.0000 100.0000 100.0000 95.10649 100.0000 108.8440 
4 "X9" 100.0000 100.0000 100.0000 95.10649 100.0000 108.8440 
5 "F11" 100.0000 100.0000 100.0000 95.10649 100.0000 108.8440 
6 "BS5" 100.0000 100.0000 100.0000 95.10649 100.0000 108.8440 
7 "AZ9" 100.0000 100.0000 100.0000 95.10649 100.0000 108.8440 
8 "AI3" 100.0000 100.0000 100.0000 95.10649 100.0000 108.8440 
9 "CG12" 100.0000 100.0000 100.0000 95.10649 100.0000 108.8440 
10 "AH11" 0.00000 0.00000 0.00000 1.000000 1.000000 1.000000 
11 "BF2" 0.00000 0.00000 0.00000 1.000000 1.000000 1.000000 
12 "BF6" 0.00000 0.00000 0.00000 1.000000 1.000000 1.000000 
13 "AO7" 0.00000 0.00000 0.00000 1.000000 1.000000 1.000000 
14 "G1" 0.00000 0.00000 0.00000 1.000000 1.000000 1.000000 
15 "AD7" 0.00000 0.00000 0.00000 1.000000 1.000000 1.000000 
16 "BM14" 0.00000 0.00000 0.00000 1.000000 1.000000 1.000000 
17 "BY15" 0.00000 0.00000 0.00000 1.000000 1.000000 1.000000 
18 "AD16" 0.00000 0.00000 0.00000 1.000000 1.000000 1.000000 
19 "AY12" 99.53460 99.53460 99.53460 94.11383 98.95573 107.7065 
20 "BX5" 99.06920 99.06920 99.06920 93.12731 97.91791 106.5759 
21 "BG15" 98.60533 98.60533 98.60533 92.14692 96.88653 105.4524 
22 "BJ13" 98.13993 98.13993 98.13993 91.17263 95.86159 104.3359 
23 "CG14" 97.67453 97.67453 97.67453 90.20445 94.84306 103.2264 
24 "BD2" 97.20912 97.20912 97.20912 89.24236 93.83094 102.1239 
25 "BB8" 96.74372 96.74372 96.74372 88.28635 92.82522 101.0283 
26 "Y14" 96.27832 96.27832 96.27832 87.33641 91.82588 99.93969 
27 "CA3" 95.81445 95.81445 95.81445 86.39253 90.83292 98.85802 
28 "BV5" 95.34905 95.34905 95.34905 85.45470 89.84632 97.78328 
29 "S15" 94.88365 94.88365 94.88365 84.52290 88.86607 96.71546 
30 "BS3" 94.41825 94.41825 94.41825 83.59712 87.89215 95.65454 
31 "CC8" 93.95285 93.95285 93.95285 82.67736 86.92456 94.60051 
32 "CD14" 93.48898 93.48898 93.48898 81.76360 85.96329 93.55337 
33 "CE4" 93.02358 93.02358 93.02358 80.85584 85.00832 92.51309 
34 "AJ13" 92.55818 92.55818 92.55818 79.95405 84.05964 91.47966 
35 "AU14" 92.09277 92.09277 92.09277 79.05823 83.11724 90.45307 
36 "J6" 91.62737 91.62737 91.62737 78.16837 82.18111 89.43331 
37 "M10" 91.16350 91.16350 91.16350 77.28445 81.25123 88.42036 
38 "T2" 90.69810 90.69810 90.69810 76.40647 80.32759 87.41421 
39 "I14" 90.23270 90.23270 90.23270 75.53442 79.41019 86.41485 
40 "BR15" 89.76730 89.76730 89.76730 74.66827 78.49900 85.42226 
41 "AH7" 89.30190 89.30190 89.30190 73.80802 77.59402 84.43644 
42 "BA17" 88.83650 88.83650 88.83650 72.95366 76.69524 83.45736 
43 "L13" 88.37263 88.37263 88.37263 72.10518 75.80263 82.48502 
44 "X7" 87.90723 87.90723 87.90723 71.26257 74.91620 81.51940 
45 "L15" 87.44182 87.44182 87.44182 70.42580 74.03593 80.56049 
46 "AD4" 86.97642 86.97642 86.97642 69.59488 73.16180 79.60827 
47 "AR15" 86.51102 86.51102 86.51102 68.76979 72.29381 78.66274 
48 "BT6" 86.04715 86.04715 86.04715 67.95052 71.43193 77.72387 
49 "BZ6" 85.58175 85.58175 85.58175 67.13706 70.57617 76.79166 
50 "AL12" 85.11635 85.11635 85.11635 66.32939 69.72650 75.86609 
51 "Q8" 84.65095 84.65095 84.65095 65.52750 68.88292 74.94714 
52 "M12" 84.18555 84.18555 84.18555 64.73139 68.04540 74.03481 
53 "CG2" 83.72168 83.72168 83.72168 63.94103 67.21395 73.12908 
54 "P7" 83.25628 83.25628 83.25628 63.15642 66.38854 72.22993 
55 "V6" 82.79088 82.79088 82.79088 62.37755 65.56916 71.33736 
56 "AJ11" 82.32547 82.32547 82.32547 61.60440 64.75581 70.45135 
57 "V4" 81.86007 81.86007 81.86007 60.83696 63.94846 69.57188 
58 "G13" 81.39467 81.39467 81.39467 60.07522 63.14711 68.69894 
59 "BC16" 80.93080 80.93080 80.93080 59.31916 62.35175 67.83252 
60 "Q13" 80.46540 80.46540 80.46540 58.56879 61.56235 66.97260 
61 "X3" 80.00000 80.00000 80.00000 57.82407 60.77891 66.11917 
62 "BJ11" 79.53460 79.53460 79.53460 57.08500 60.00141 65.27222 
63 "E17" 79.06920 79.06920 79.06920 56.35157 59.22984 64.43172 
64 "N11" 78.60533 78.60533 78.60533 55.62377 58.46419 63.59768 
65 "CE2" 78.13993 78.13993 78.13993 54.90158 57.70445 62.77006 
66 "AB3" 77.67453 77.67453 77.67453 54.18499 56.95060 61.94887 
67 "AU6" 77.20912 77.20912 77.20912 53.47399 56.20263 61.13408 
68 "A17" 76.74372 76.74372 76.74372 52.76857 55.46052 60.32567 
69 "BW12" 76.27832 76.27832 76.27832 52.06871 54.72427 59.52365 
70 "W14" 75.81445 75.81445 75.81445 51.37439 53.99385 58.72798 
71 "AI5" 75.34905 75.34905 75.34905 50.68562 53.26926 57.93866 
72 "AK11" 74.88365 74.88365 74.88365 50.00237 52.55048 57.15567 
73 "AW15" 74.41825 74.41825 74.41825 49.32464 51.83751 56.37900 
74 "AZ7" 73.95285 73.95285 73.95285 48.65240 51.13031 55.60863 
75 "AT7" 73.48898 73.48898 73.48898 47.98565 50.42889 54.84455 
76 "BH3" 73.02358 73.02358 73.02358 47.32438 49.73323 54.08675 
77 "AG5" 72.55818 72.55818 72.55818 46.66856 49.04331 53.33520 
78 "BA14" 72.09277 72.09277 72.09277 46.01819 48.35913 52.58989 
79 "BF12" 71.62737 71.62737 71.62737 45.37326 47.68066 51.85081 
80 "C4" 71.16350 71.16350 71.16350 44.73375 47.00790 51.11795 
81 "AP11" 70.69810 70.69810 70.69810 44.09965 46.34082 50.39128 
82 "AR10" 70.23270 70.23270 70.23270 43.47095 45.67943 49.67080 
83 "CD17" 69.76730 69.76730 69.76730 42.84763 45.02369 48.95649 
84 "P2" 69.30190 69.30190 69.30190 42.22967 44.37361 48.24833 
85 "BN7" 68.83650 68.83650 68.83650 41.61708 43.72915 47.54630 
86 "AO3" 68.37263 68.37263 68.37263 41.00982 43.09032 46.85040 
87 "X15" 67.90723 67.90723 67.90723 40.40790 42.45710 46.16061 
88 "AP13" 67.44182 67.44182 67.44182 39.81129 41.82947 45.47691 
89 "I10" 66.97642 66.97642 66.97642 39.21998 41.20741 44.79928 
90 "AT9" 66.51102 66.51102 66.51102 38.63396 40.59092 44.12772 
91 "X17" 66.04715 66.04715 66.04715 38.05322 39.97998 43.46220 
92 "AL3" 65.58175 65.58175 65.58175 37.47774 39.37457 42.80271 
93 "AO17" 65.11635 65.11635 65.11635 36.90751 38.77469 42.14924 
94 "BW8" 64.65095 64.65095 64.65095 36.34251 38.18031 41.50176 
95 "BQ12" 64.18555 64.18555 64.18555 35.78273 37.59142 40.86026 
96 "I8" 63.72168 63.72168 63.72168 35.22815 37.00801 40.22474 
97 "G7" 63.25628 63.25628 63.25628 34.67877 36.43006 39.59516 
98 "BP14" 62.79088 62.79088 62.79088 34.13457 35.85756 38.97151 
99 "AB15" 62.32547 62.32547 62.32547 33.59554 35.29049 38.35379 
100 "AB13" 61.86007 61.86007 61.86007 33.06165 34.72885 37.74196 
101 "G17" 61.39467 61.39467 61.39467 32.53290 34.17260 37.13603 
102 "H12" 60.93080 60.93080 60.93080 32.00927 33.62174 36.53596 
103 "BY11" 60.46540 60.46540 60.46540 31.49075 33.07626 35.94174 
104 "W17" 60.00000 60.00000 60.00000 30.97732 32.53613 35.35337 
105 "O5" 59.53460 59.53460 59.53460 30.46897 32.00135 34.77081 
106 "BX17" 59.06920 59.06920 59.06920 29.96568 31.47189 34.19406 
107 "BR5" 58.60533 58.60533 58.60533 29.46745 30.94775 33.62309 
108 "W10" 58.13993 58.13993 58.13993 28.97425 30.42890 33.05789 
109 "BO4" 57.67453 57.67453 57.67453 28.48607 29.91534 32.49845 
110 "BV10" 57.20912 57.20912 57.20912 28.00290 29.40704 31.94475 
111 "X13" 56.74372 56.74372 56.74372 27.52472 28.90400 31.39676 
112 "W8" 56.27832 56.27832 56.27832 27.05151 28.40618 30.85448 
113 "C12" 55.81445 55.81445 55.81445 26.58327 27.91359 30.31788 
114 "CA11" 55.34905 55.34905 55.34905 26.11997 27.42620 29.78695 
115 "BY4" 54.88365 54.88365 54.88365 25.66161 26.94400 29.26167 
116 "AJ9" 54.41825 54.41825 54.41825 25.20816 26.46697 28.74203 
117 "AF10" 53.95285 53.95285 53.95285 24.75961 25.99510 28.22800 
118 "F4" 53.48898 53.48898 53.48898 24.31595 25.52837 27.71958 
119 "BT10" 53.02358 53.02358 53.02358 23.87715 25.06676 27.21673 
120 "O15" 52.55818 52.55818 52.55818 23.44322 24.61026 26.71945 
121 "F16" 52.09277 52.09277 52.09277 23.01412 24.15885 26.22771 
122 "AB7" 51.62737 51.62737 51.62737 22.58985 23.71252 25.74151 
123 "M2" 51.16350 51.16350 51.16350 22.17039 23.27124 25.26081 
124 "BV2" 50.69810 50.69810 50.69810 21.75571 22.83501 24.78561 
125 "W4" 50.23270 50.23270 50.23270 21.34582 22.40380 24.31588 
126 "Y10" 49.76730 49.76730 49.76730 20.94069 21.97760 23.85160 
127 "AP3" 49.30190 49.30190 49.30190 20.54030 21.55639 23.39277 
128 "BJ9" 48.83650 48.83650 48.83650 20.14464 21.14016 22.93935 
129 "CD3" 48.37263 48.37263 48.37263 19.75370 20.72888 22.49134 
130 "AB5" 47.90723 47.90723 47.90723 19.36745 20.32255 22.04870 
131 "W6" 47.44182 47.44182 47.44182 18.98588 19.92114 21.61144 
132 "AF8" 46.97642 46.97642 46.97642 18.60898 19.52464 21.17951 
133 "B13" 46.51102 46.51102 46.51102 18.23672 19.13303 20.75292 
134 "BK2" 46.04715 46.04715 46.04715 17.86910 18.74629 20.33163 
135 "AO15" 45.58175 45.58175 45.58175 17.50609 18.36440 19.91563 
136 "Q3" 45.11635 45.11635 45.11635 17.14768 17.98736 19.50490 
137 "AT15" 44.65095 44.65095 44.65095 16.79385 17.61513 19.09942 
138 "B5" 44.18555 44.18555 44.18555 16.44459 17.24770 18.69917 
139 "G9" 43.72168 43.72168 43.72168 16.09987 16.88506 18.30413 
140 "J4" 43.25628 43.25628 43.25628 15.75968 16.52718 17.91428 
141 "AJ7" 42.79088 42.79088 42.79088 15.42401 16.17405 17.52961 
142 "AL10" 42.32547 42.32547 42.32547 15.09283 15.82566 17.15008 
143 "AW3" 41.86007 41.86007 41.86007 14.76613 15.48197 16.77569 
144 "BY7" 41.39467 41.39467 41.39467 14.44389 15.14297 16.40642 
145 "BU10" 40.93080 40.93080 40.93080 14.12610 14.80865 16.04223 
146 "CD5" 40.46540 40.46540 40.46540 13.81273 14.47899 15.68312 
147 "BQ16" 40.00000 40.00000 40.00000 13.50377 14.15396 15.32905 
148 "AM11" 39.53460 39.53460 39.53460 13.19920 13.83356 14.98002 
149 "BU8" 39.06920 39.06920 39.06920 12.89900 13.51775 14.63600 
150 "AX5" 38.60533 38.60533 38.60533 12.60316 13.20652 14.29697 
151 "J2" 38.13993 38.13993 38.13993 12.31165 12.89985 13.96291 
152 "BO16" 37.67453 37.67453 37.67453 12.02446 12.59773 13.63379 
153 "AV13" 37.20912 37.20912 37.20912 11.74157 12.30012 13.30961 
154 "CB15" 36.74372 36.74372 36.74372 11.46295 12.00703 12.99032 
155 "A15" 36.27832 36.27832 36.27832 11.18860 11.71841 12.67592 
156 "U15" 35.81445 35.81445 35.81445 10.91850 11.43426 12.36639 
157 "AY10" 35.34905 35.34905 35.34905 10.65261 11.15455 12.06169 
158 "AG9" 34.88365 34.88365 34.88365 10.39094 10.87926 11.76181 
159 "J11" 34.41825 34.41825 34.41825 10.13344 10.60838 11.46673 
160 "BB18" 33.95285 33.95285 33.95285 9.880116 10.34188 11.17642 
161 "P18" 33.48898 33.48898 33.48898 9.630936 10.07974 10.89087 
162 "AA1" 33.02358 33.02358 33.02358 9.385883 9.821947 10.61004 
163 "A1" 32.55818 32.55818 32.55818 9.144938 9.568473 10.33393 
164 "J16" 32.09277 32.09277 32.09277 8.908080 9.319298 10.06249 
165 "S17" 31.62737 31.62737 31.62737 8.675290 9.074403 9.795718 
166 "AN1" 31.16350 31.16350 31.16350 8.446546 8.833765 9.533583 
167 "AX11" 30.69810 30.69810 30.69810 8.221830 8.597363 9.276063 
168 "J18" 30.23270 30.23270 30.23270 8.001120 8.365176 9.023134 
169 "AT5" 29.76730 29.76730 29.76730 7.784395 8.137182 8.774772 
170 "CD1" 29.30190 29.30190 29.30190 7.571636 7.913359 8.530955 
171 "AP17" 28.83650 28.83650 28.83650 7.362820 7.693685 8.291656 
172 "BL1" 28.37263 28.37263 28.37263 7.157927 7.478138 8.056853 
173 "BS17" 27.90723 27.90723 27.90723 6.956935 7.266694 7.826521 
174 "CC1" 27.44182 27.44182 27.44182 6.759823 7.059333 7.600634 
175 "Y5" 26.97642 26.97642 26.97642 6.566569 6.856029 7.379170 
176 "CE7" 26.51102 26.51102 26.51102 6.377152 6.656762 7.162101 
177 "BC4" 26.04715 26.04715 26.04715 6.191548 6.461507 6.949403 
178 "BK18" 25.58175 25.58175 25.58175 6.009736 6.270241 6.741051 
179 "BC18" 25.11635 25.11635 25.11635 5.831694 6.082941 6.537018 
180 "BX14" 24.65095 24.65095 24.65095 5.657399 5.899582 6.337279 
181 "AO1" 24.18555 24.18555 24.18555 5.486827 5.720141 6.141808 
182 "AM1" 23.72168 23.72168 23.72168 5.319956 5.544593 5.950578 
183 "BZ18" 23.25628 23.25628 23.25628 5.156763 5.372914 5.763562 
184 "E1" 22.79088 22.79088 22.79088 4.997224 5.205078 5.580733 
185 "BL16" 22.32547 22.32547 22.32547 4.841314 5.041062 5.402064 
186 "AS1" 21.86007 21.86007 21.86007 4.689011 4.880839 5.227528 
187 "AG13" 21.39467 21.39467 21.39467 4.540290 4.724385 5.057097 
188 "BR3" 20.93080 20.93080 20.93080 4.395127 4.571673 4.890743 
189 "CC14" 20.46540 20.46540 20.46540 4.253496 4.422677 4.728437 
190 "AN6" 20.00000 20.00000 20.00000 4.115373 4.277372 4.570151 
191 "CG16" 19.53460 19.53460 19.53460 3.980733 4.135730 4.415856 
192 "U1" 19.06920 19.06920 19.06920 3.849549 3.997725 4.265523 
193 "D18" 18.60533 18.60533 18.60533 3.721797 3.863330 4.119121 
194 "BF4" 18.13993 18.13993 18.13993 3.597449 3.732516 3.976621 
195 "AL17" 17.67453 17.67453 17.67453 3.476480 3.605257 3.837994 
196 "AO5" 17.20912 17.20912 17.20912 3.358863 3.481524 3.703207 
197 "E5" 16.74372 16.74372 16.74372 3.244571 3.361288 3.572230 
198 "AJ3" 16.27832 16.27832 16.27832 3.133576 3.244521 3.445032 
199 "AA13" 15.81445 15.81445 15.81445 3.025850 3.131194 3.321581 
200 "CG18" 15.34905 15.34905 15.34905 2.921366 3.021276 3.201844 
201 "BD4" 14.88365 14.88365 14.88365 2.820095 2.914739 3.085790 
202 "BX9" 14.41825 14.41825 14.41825 2.722008 2.811551 2.973384 
203 "D9" 13.95285 13.95285 13.95285 2.627075 2.711683 2.864593 
204 "AQ6" 13.48898 13.48898 13.48898 2.535268 2.615102 2.759384 
205 "AQ8" 13.02358 13.02358 13.02358 2.446556 2.521776 2.657722 
206 "AH1" 12.55818 12.55818 12.55818 2.360908 2.431675 2.559572 
207 "AL15" 12.09277 12.09277 12.09277 2.278294 2.344765 2.464898 
208 "AX16" 11.62737 11.62737 11.62737 2.198682 2.261013 2.373664 
209 "E3" 11.16350 11.16350 11.16350 2.122040 2.180385 2.285834 
210 "AV18" 10.69810 10.69810 10.69810 2.048335 2.102848 2.201369 
211 "AA4" 10.23270 10.23270 10.23270 1.977534 2.028366 2.120234 
212 "BS1" 9.767300 9.767300 9.767300 1.909605 1.956904 2.042388 
213 "V1" 9.301900 9.301900 9.301900 1.844511 1.888426 1.967792 
214 "Z3" 8.836500 8.836500 8.836500 1.782220 1.822895 1.896407 
215 "AG7" 8.372625 8.372625 8.372625 1.722694 1.760274 1.828192 
216 "BL8" 7.907225 7.907225 7.907225 1.665898 1.700525 1.763105 
217 "D7" 7.441825 7.441825 7.441825 1.611795 1.643608 1.701104 
218 "BU1" 6.976425 6.976425 6.976425 1.560347 1.589484 1.642145 
219 "T8" 6.511025 6.511025 6.511025 1.511515 1.538113 1.586185 
220 "H14" 6.047150 6.047150 6.047150 1.465260 1.489453 1.533178 
221 "AV16" 5.581750 5.581750 5.581750 1.421541 1.443462 1.483078 
222 "AL1" 5.116350 5.116350 5.116350 1.380318 1.400095 1.435837 
223 "M8" 4.650950 4.650950 4.650950 1.341548 1.359308 1.391407 
224 "AZ3" 4.185550 4.185550 4.185550 1.305187 1.321056 1.349737 
225 "BY13" 3.721675 3.721675 3.721675 1.271025 1.285118 1.310588 
226 "X5" 3.256275 3.256275 3.256275 1.237146 1.249478 1.271765 
227 "AZ15" 2.790875 2.790875 2.790875 1.203268 1.213838 1.232941 
228 "W1" 2.325475 2.325475 2.325475 1.169390 1.178199 1.194118 
229 "BN14" 1.860075 1.860075 1.860075 1.135512 1.142559 1.155294 
230 "BT1" 1.394675 1.394675 1.394675 1.101634 1.106919 1.116471 
231 "CE11" 0.930800 0.930800 0.930800 1.067756 1.071279 1.077647 
232 "C16" 0.465400 0.465400 0.465400 1.033878 1.035640 1.038824 
233 "R5" 0.00000 0.00000 100.0000 18.87111 8.147314 95.12896 
234 "AB6" 100.0000 0.00000 0.00000 41.83017 22.05217 2.913230 
235 "AE9" 0.00000 100.0000 0.00000 36.40521 71.80052 12.80184 
236 "F8" 0.00000 100.0000 83.22118 48.19805 76.51691 74.91592 
237 "H5" 100.0000 35.16594 76.28748 55.12316 33.11590 55.20375 
238 "AU7" 0.00000 34.50675 68.37415 12.05284 10.94667 42.17339 
239 "I15" 100.0000 100.0000 57.63638 82.44743 94.93718 42.16749 
240 "BO6" 89.37972 52.57191 52.55818 45.36198 35.91912 27.74797 
241 "BU15" 45.72061 65.06752 41.46792 24.25779 32.71134 19.33096 
242 "J10" 100.0000 68.81209 36.70710 59.08178 53.37851 18.44652 
243 "D8" 38.81743 0.00000 27.10765 7.160229 4.052778 6.860467 
244 "BZ1" 48.11627 41.50454 0.00000 14.13066 15.31876 3.072369 
245 "BM15" 40.05188 13.03426 0.00000 6.985094 4.894778 1.436582 
246 "E6" 67.06950 0.00000 24.75929 18.52560 9.933078 6.477891 
247 "A2" 63.29747 100.0000 58.44663 56.41256 81.49476 41.79385 
248 "BD14" 70.57603 46.02426 100.0000 43.83925 30.43026 98.11519 
249 "BF8" 65.53902 73.13802 96.28443 50.69055 50.68001 93.93673 
250 "BG3" 35.72747 88.37415 98.80217 49.42279 63.66022 101.7035 
251 "N5" 0.00000 60.56611 55.92584 17.39334 25.97575 30.53941 
252 "CE17" 30.93462 0.00000 53.94827 8.693961 4.445249 24.90957 
253 "CB13" 45.94491 44.26184 58.60227 19.52184 18.57991 31.75699 
254 "BQ6" 71.73114 41.67239 56.73762 30.48044 23.23110 30.13960 
255 "BM7" 63.42107 48.87922 37.84695 25.02681 23.85358 15.22703 
256 "BD13" 54.73411 39.07683 40.93233 18.60802 16.43695 16.12179 
257 "CB12" 95.55047 27.58984 33.02358 41.60169 25.00106 11.84321 
258 "AL4" 57.10079 68.29480 0.00000 27.68179 37.04087 6.551656 
259 "U14" 64.92714 17.20455 61.98825 23.48311 13.20127 34.23739 
260 "AV17" 0.00000 23.33257 0.00000 2.573963 4.147485 1.524659 
261 "CD16" 71.59686 34.17716 0.00000 23.62036 17.68928 3.030145 
262 "J17" 0.00000 93.20363 58.44511 36.54971 63.49264 39.36286 
263 "K14" 0.00000 35.02556 45.13466 7.632062 9.352225 18.35339 
264 "BX18" 0.00000 32.54597 92.18585 18.91951 13.06535 80.27629 
265 "D15" 0.00000 68.16815 91.61669 30.60326 36.76099 83.14885 
266 "P8" 0.00000 85.88235 83.80560 38.06056 55.94511 72.46090 
267 "AS3" 56.94514 76.84291 75.81445 41.69656 49.86520 58.44064 
268 "G16" 0.00000 68.00336 7.663081 15.99409 30.79041 6.595039 
269 "BX6" 90.47074 70.02365 91.61364 64.05402 55.37389 84.97386 
270 "BC9" 73.51949 70.95598 52.05310 41.92575 45.88034 29.38794 
271 "BO13" 70.03586 85.09041 44.20539 46.80956 60.73262 25.50817 
272 "AJ16" 66.52934 32.27131 26.84367 21.39358 15.85998 8.281912 
273 "BY16" 81.84482 71.40764 28.35889 44.69862 48.00276 13.89661 
274 "AL2" 76.71321 11.23827 46.29740 27.10861 14.72019 19.26452 
275 "AF1" 71.81811 48.96620 0.00000 27.60971 25.47051 4.322037 
276 "BH7" 69.53231 4.586862 0.00000 19.14762 10.54479 1.886620 
277 "H6" 35.57488 52.24689 54.99199 18.28289 21.73804 28.75071 
278 "BU5" 59.48272 65.55581 32.98848 29.06245 35.63584 14.53867 
279 "AE15" 6.892500 5.281147 25.63821 2.343245 1.802419 6.093740 
280 "AJ18" 24.94850 19.49493 0.00000 4.186055 4.300692 1.469326 
281 "F1" 67.27245 95.62829 0.00000 49.73088 73.59560 12.44650 
282 "AK6" 49.79934 48.98756 87.02068 29.95550 25.18169 72.51191 
283 "CD12" 60.58595 0.00000 84.44038 26.47281 12.72442 65.80444 
284 "AC9" 29.49416 51.79980 75.80835 21.63506 22.67532 54.24063 
285 "L18" 27.26329 41.46487 0.00000 8.542591 12.42215 2.807554 
286 "BI11" 75.09270 57.45480 55.34905 37.41941 34.44600 30.54731 
287 "K17" 91.11772 31.43816 47.87976 40.39710 25.14340 21.84956 
288 "V18" 65.11482 43.03655 70.92088 30.31375 23.31331 46.97413 
289 "Y11" 94.50523 0.00000 88.16205 50.34194 24.88738 73.42364 
290 "CF14" 33.96506 38.05142 27.23583 10.16807 11.88763 8.267243 
291 "AT17" 28.98604 11.50683 15.35210 4.597972 3.470955 3.201078 
292 "H15" 50.34409 0.00000 8.072023 10.00014 5.625435 2.101612 
293 "F15" 84.65400 0.00000 100.0000 46.86972 22.58349 96.44093 
294 "AE4" 73.82315 88.37110 98.80217 65.73276 72.06666 102.4671 
295 "CB2" 94.63340 66.45762 75.80987 60.72012 51.66095 57.78026 
296 "Y15" 83.80713 98.24063 83.31579 74.19844 87.84060 75.88865 
297 "Z9" 67.77752 100.0000 93.58358 68.80388 86.72725 94.57013 
298 "R16" 48.47028 29.46212 73.79263 20.67737 13.81393 49.64920 
299 "CF18" 44.04364 28.02930 43.47295 12.74870 10.08559 16.98700 
300 "AD18" 2.511635 33.99405 29.01045 5.651487 8.227315 8.561869 
301 "M3" 16.68879 2.250706 74.41978 11.20680 5.292730 49.40287 
302 "AE11" 9.866484 45.00649 26.68803 8.478848 13.70551 8.482878 
303 "BY18" 100.0000 0.00000 60.10071 47.54398 24.33733 33.00846 
304 "Z10" 91.90051 63.79034 50.67521 51.55409 45.76829 27.62380 
305 "BX12" 69.89242 37.01686 42.79240 25.96590 19.48843 17.61516 
306 "BK11" 82.15000 37.40139 86.31876 44.05918 27.78297 71.03438 
307 "AX15" 0.00000 63.31121 31.82727 15.17178 26.97765 13.00827 
308 "AB16" 94.47623 38.07279 19.10582 41.66932 28.19943 6.955222 
309 "AT13" 66.96574 56.19135 63.99634 33.90676 31.70452 39.59668 
310 "BN13" 31.26726 3.282216 3.256275 4.388068 2.875208 1.419625 
311 "AC1" 83.45006 0.00000 64.52888 34.79367 17.65105 37.47383 
312 "AW9" 39.84741 23.32494 0.00000 7.954647 6.920343 1.776510 
313 "BR11" 78.39475 51.18334 28.25818 33.69008 29.55224 10.87088 
314 "AA2" 0.00000 55.95941 98.79911 28.06667 27.31057 95.80498 
315 "BT13" 52.72908 0.00000 64.52888 17.49001 8.729230 36.66301 
316 "AD1" 38.91051 0.00000 40.46235 8.551292 4.612065 14.05421 
317 "AP8" 48.62593 29.91073 100.0000 29.67780 17.54459 96.37374 
318 "AJ12" 45.95102 83.23796 64.24506 38.27855 54.14393 43.99504 
319 "CB5" 46.34623 68.77546 78.58549 34.03980 39.47041 61.03811 
320 "AN4" 25.66415 66.50950 70.70115 25.53066 33.71279 48.93591 
321 "A16" 16.30732 51.89136 0.00000 10.14171 17.90267 3.781230 
322 "AK1" 6.387427 32.37964 51.62585 8.345965 8.810125 23.61334 
323 "C2" 72.68788 46.97795 38.85252 29.75173 25.39858 15.90377 
324 "AZ8" 86.82078 39.05699 31.87304 36.59570 25.82142 11.67966 
325 "AG6" 77.45937 28.59388 32.97169 27.87320 18.16505 11.21971 
326 "BW3" 49.48043 15.48638 26.19364 11.27591 7.272908 6.896470 
327 "AX8" 100.0000 90.54704 0.00000 70.09334 78.57061 12.33437 
328 "W18" 41.66018 82.49790 7.528801 29.93839 49.90552 9.535070 
329 "BE2" 12.57649 17.98428 8.825818 2.702074 3.288094 2.129278 
330 "AA10" 57.02907 64.97749 55.92584 30.96029 35.83842 31.72808 
331 "BW18" 44.69520 69.96567 23.20592 24.49699 36.53817 10.74351 
332 "CA10" 97.24880 50.25406 0.00000 46.98253 36.07981 5.349608 
333 "AM17" 48.30091 43.11589 26.09598 15.61564 16.60621 8.430544 
334 "BR10" 67.85687 69.20577 78.59464 43.90374 44.87165 61.57560 
335 "BT11" 85.53750 97.71115 37.79507 65.35867 83.78990 24.64055 
336 "BI14" 0.00000 94.01236 37.81643 33.88261 63.38028 22.37180 
337 "S14" 53.70565 90.46159 91.62890 54.06315 68.52069 88.06653 
338 "BO12" 36.21576 25.79232 21.07118 7.972947 7.362637 5.284352 
339 "AR6" 0.00000 53.09682 67.15038 16.93303 21.18311 42.32778 
340 "T7" 2.439918 80.17548 67.90723 30.04524 46.99574 47.58226 
341 "BI2" 39.00969 31.52514 57.86221 14.27125 11.49178 29.88601 
342 "S11" 100.0000 85.70230 71.67620 75.23123 75.34412 55.68385 
343 "BP11" 66.89403 59.18364 81.79294 39.82303 35.94708 65.16328 
344 "BX15" 60.61952 14.79210 36.27680 16.91583 9.987913 12.03897 
345 "BG18" 53.34859 28.11475 28.34974 14.50084 11.20192 8.379375 
346 "BH2" 75.55200 0.00000 18.41764 23.19516 12.38522 4.688127 
347 "AE5" 68.49928 56.04334 30.61723 29.50665 29.95328 12.23907 
348 "AE1" 40.54017 31.48852 4.568551 9.506135 9.625371 2.550380 
349 "B16" 19.52850 63.37377 47.26635 18.40369 28.46343 23.14933 
350 "AT1" 35.86328 27.60967 33.02358 9.101513 8.248340 10.32117 
351 "S2" 0.00000 11.81659 46.29740 4.703954 3.222003 18.22491 
352 "BK1" 89.35531 11.63043 15.35210 33.44820 18.35775 4.555173 
353 "BW1" 58.66484 34.13748 19.10582 17.30067 14.35599 5.566636 
354 "BR12" 19.80468 24.66621 32.97017 5.668503 5.827133 10.00725 
355 "BC13" 86.19059 85.76791 76.21424 64.84285 69.90857 61.68551 
356 "BT5" 38.02701 100.0000 100.0000 59.15371 81.46263 107.1593 
357 "E15" 84.34424 98.60838 98.60533 80.37253 90.81989 104.9015 
358 "G6" 0.00000 42.51011 90.67369 20.66270 17.42475 78.16340 
359 "M1" 36.15167 24.19165 81.19478 18.23355 11.10152 60.53214 
360 "I3" 0.00000 77.43496 51.26879 24.90978 42.35217 28.89494 
361 "BR8" 7.013046 72.86488 87.79736 31.89436 41.13068 76.87475 
