Pre-made_Targets/Patch Width 8-11mm - Expert (Use rig-guide-ruler)/Generated Targets/CM-Expert-A4-1530p-5pages-w11.0mm-17x18/CM-Expert-A4-1530p-5pages.ti1
CTI1   

DESCRIPTOR "Argyll Calibration Target chart information 1"
ORIGINATOR "Argyll targen"
CREATED "Mon Feb  9 15:55:53 2026"
APPROX_WHITE_POINT "95.106486 100.000000 108.844025"
COLOR_REP "iRGB"
TOTAL_INK_LIMIT "300.0"
WHITE_COLOR_PATCHES "9"
BLACK_COLOR_PATCHES "9"
COMP_GREY_STEPS "216"
IFP_PATCHES "1298"

NUMBER_OF_FIELDS 7
BEGIN_DATA_FORMAT
SAMPLE_ID RGB_R RGB_G RGB_B XYZ_X XYZ_Y XYZ_Z 
END_DATA_FORMAT

NUMBER_OF_SETS 1530
BEGIN_DATA
1 100.0000 100.0000 100.0000 95.10649 100.0000 108.8440 
2 100.0000 100.0000 100.0000 95.10649 100.0000 108.8440 
3 100.0000 100.0000 100.0000 95.10649 100.0000 108.8440 
4 100.0000 100.0000 100.0000 95.10649 100.0000 108.8440 
5 100.0000 100.0000 100.0000 95.10649 100.0000 108.8440 
6 100.0000 100.0000 100.0000 95.10649 100.0000 108.8440 
7 100.0000 100.0000 100.0000 95.10649 100.0000 108.8440 
8 100.0000 100.0000 100.0000 95.10649 100.0000 108.8440 
9 100.0000 100.0000 100.0000 95.10649 100.0000 108.8440 
10 0.00000 0.00000 0.00000 1.000000 1.000000 1.000000 
11 0.00000 0.00000 0.00000 1.000000 1.000000 1.000000 
12 0.00000 0.00000 0.00000 1.000000 1.000000 1.000000 
13 0.00000 0.00000 0.00000 1.000000 1.000000 1.000000 
14 0.00000 0.00000 0.00000 1.000000 1.000000 1.000000 
15 0.00000 0.00000 0.00000 1.000000 1.000000 1.000000 
16 0.00000 0.00000 0.00000 1.000000 1.000000 1.000000 
17 0.00000 0.00000 0.00000 1.000000 1.000000 1.000000 
18 0.00000 0.00000 0.00000 1.000000 1.000000 1.000000 
19 99.53488 99.53488 99.53488 94.11383 98.95573 107.7065 
20 99.06977 99.06977 99.06977 93.12731 97.91791 106.5759 
21 98.60465 98.60465 98.60465 92.14692 96.88653 105.4524 
22 98.13953 98.13953 98.13953 91.17263 95.86159 104.3359 
23 97.67442 97.67442 97.67442 90.20445 94.84306 103.2264 
24 97.20930 97.20930 97.20930 89.24236 93.83094 102.1239 
25 96.74419 96.74419 96.74419 88.28635 92.82522 101.0283 
26 96.27907 96.27907 96.27907 87.33641 91.82588 99.93969 
27 95.81395 95.81395 95.81395 86.39253 90.83292 98.85802 
28 95.34884 95.34884 95.34884 85.45470 89.84632 97.78328 
29 94.88372 94.88372 94.88372 84.52290 88.86607 96.71546 
30 94.41860 94.41860 94.41860 83.59712 87.89215 95.65454 
31 93.95349 93.95349 93.95349 82.67736 86.92456 94.60051 
32 93.48837 93.48837 93.48837 81.76360 85.96329 93.55337 
33 93.02326 93.02326 93.02326 80.85584 85.00832 92.51309 
34 92.55814 92.55814 92.55814 79.95405 84.05964 91.47966 
35 92.09302 92.09302 92.09302 79.05823 83.11724 90.45307 
36 91.62791 91.62791 91.62791 78.16837 82.18111 89.43331 
37 91.16279 91.16279 91.16279 77.28445 81.25123 88.42036 
38 90.69767 90.69767 90.69767 76.40647 80.32759 87.41421 
39 90.23256 90.23256 90.23256 75.53442 79.41019 86.41485 
40 89.76744 89.76744 89.76744 74.66827 78.49900 85.42226 
41 89.30233 89.30233 89.30233 73.80802 77.59402 84.43644 
42 88.83721 88.83721 88.83721 72.95366 76.69524 83.45736 
43 88.37209 88.37209 88.37209 72.10518 75.80263 82.48502 
44 87.90698 87.90698 87.90698 71.26257 74.91620 81.51940 
45 87.44186 87.44186 87.44186 70.42580 74.03593 80.56049 
46 86.97674 86.97674 86.97674 69.59488 73.16180 79.60827 
47 86.51163 86.51163 86.51163 68.76979 72.29381 78.66274 
48 86.04651 86.04651 86.04651 67.95052 71.43193 77.72387 
49 85.58140 85.58140 85.58140 67.13706 70.57617 76.79166 
50 85.11628 85.11628 85.11628 66.32939 69.72650 75.86609 
51 84.65116 84.65116 84.65116 65.52750 68.88292 74.94714 
52 84.18605 84.18605 84.18605 64.73139 68.04540 74.03481 
53 83.72093 83.72093 83.72093 63.94103 67.21395 73.12908 
54 83.25581 83.25581 83.25581 63.15642 66.38854 72.22993 
55 82.79070 82.79070 82.79070 62.37755 65.56916 71.33736 
56 82.32558 82.32558 82.32558 61.60440 64.75581 70.45135 
57 81.86047 81.86047 81.86047 60.83696 63.94846 69.57188 
58 81.39535 81.39535 81.39535 60.07522 63.14711 68.69894 
59 80.93023 80.93023 80.93023 59.31916 62.35175 67.83252 
60 80.46512 80.46512 80.46512 58.56879 61.56235 66.97260 
61 80.00000 80.00000 80.00000 57.82407 60.77891 66.11917 
62 79.53488 79.53488 79.53488 57.08500 60.00141 65.27222 
63 79.06977 79.06977 79.06977 56.35157 59.22984 64.43172 
64 78.60465 78.60465 78.60465 55.62377 58.46419 63.59768 
65 78.13953 78.13953 78.13953 54.90158 57.70445 62.77006 
66 77.67442 77.67442 77.67442 54.18499 56.95060 61.94887 
67 77.20930 77.20930 77.20930 53.47399 56.20263 61.13408 
68 76.74419 76.74419 76.74419 52.76857 55.46052 60.32567 
69 76.27907 76.27907 76.27907 52.06871 54.72427 59.52365 
70 75.81395 75.81395 75.81395 51.37439 53.99385 58.72798 
71 75.34884 75.34884 75.34884 50.68562 53.26926 57.93866 
72 74.88372 74.88372 74.88372 50.00237 52.55048 57.15567 
73 74.41860 74.41860 74.41860 49.32464 51.83751 56.37900 
74 73.95349 73.95349 73.95349 48.65240 51.13031 55.60863 
75 73.48837 73.48837 73.48837 47.98565 50.42889 54.84455 
76 73.02326 73.02326 73.02326 47.32438 49.73323 54.08675 
77 72.55814 72.55814 72.55814 46.66856 49.04331 53.33520 
78 72.09302 72.09302 72.09302 46.01819 48.35913 52.58989 
79 71.62791 71.62791 71.62791 45.37326 47.68066 51.85081 
80 71.16279 71.16279 71.16279 44.73375 47.00790 51.11795 
81 70.69767 70.69767 70.69767 44.09965 46.34082 50.39128 
82 70.23256 70.23256 70.23256 43.47095 45.67943 49.67080 
83 69.76744 69.76744 69.76744 42.84763 45.02369 48.95649 
84 69.30233 69.30233 69.30233 42.22967 44.37361 48.24833 
85 68.83721 68.83721 68.83721 41.61708 43.72915 47.54630 
86 68.37209 68.37209 68.37209 41.00982 43.09032 46.85040 
87 67.90698 67.90698 67.90698 40.40790 42.45710 46.16061 
88 67.44186 67.44186 67.44186 39.81129 41.82947 45.47691 
89 66.97674 66.97674 66.97674 39.21998 41.20741 44.79928 
90 66.51163 66.51163 66.51163 38.63396 40.59092 44.12772 
91 66.04651 66.04651 66.04651 38.05322 39.97998 43.46220 
92 65.58140 65.58140 65.58140 37.47774 39.37457 42.80271 
93 65.11628 65.11628 65.11628 36.90751 38.77469 42.14924 
94 64.65116 64.65116 64.65116 36.34251 38.18031 41.50176 
95 64.18605 64.18605 64.18605 35.78273 37.59142 40.86026 
96 63.72093 63.72093 63.72093 35.22815 37.00801 40.22474 
97 63.25581 63.25581 63.25581 34.67877 36.43006 39.59516 
98 62.79070 62.79070 62.79070 34.13457 35.85756 38.97151 
99 62.32558 62.32558 62.32558 33.59554 35.29049 38.35379 
100 61.86047 61.86047 61.86047 33.06165 34.72885 37.74196 
101 61.39535 61.39535 61.39535 32.53290 34.17260 37.13603 
102 60.93023 60.93023 60.93023 32.00927 33.62174 36.53596 
103 60.46512 60.46512 60.46512 31.49075 33.07626 35.94174 
104 60.00000 60.00000 60.00000 30.97732 32.53613 35.35337 
105 59.53488 59.53488 59.53488 30.46897 32.00135 34.77081 
106 59.06977 59.06977 59.06977 29.96568 31.47189 34.19406 
107 58.60465 58.60465 58.60465 29.46745 30.94775 33.62309 
108 58.13953 58.13953 58.13953 28.97425 30.42890 33.05789 
109 57.67442 57.67442 57.67442 28.48607 29.91534 32.49845 
110 57.20930 57.20930 57.20930 28.00290 29.40704 31.94475 
111 56.74419 56.74419 56.74419 27.52472 28.90400 31.39676 
112 56.27907 56.27907 56.27907 27.05151 28.40618 30.85448 
113 55.81395 55.81395 55.81395 26.58327 27.91359 30.31788 
114 55.34884 55.34884 55.34884 26.11997 27.42620 29.78695 
115 54.88372 54.88372 54.88372 25.66161 26.94400 29.26167 
116 54.41860 54.41860 54.41860 25.20816 26.46697 28.74203 
117 53.95349 53.95349 53.95349 24.75961 25.99510 28.22800 
118 53.48837 53.48837 53.48837 24.31595 25.52837 27.71958 
119 53.02326 53.02326 53.02326 23.87715 25.06676 27.21673 
120 52.55814 52.55814 52.55814 23.44322 24.61026 26.71945 
121 52.09302 52.09302 52.09302 23.01412 24.15885 26.22771 
122 51.62791 51.62791 51.62791 22.58985 23.71252 25.74151 
123 51.16279 51.16279 51.16279 22.17039 23.27124 25.26081 
124 50.69767 50.69767 50.69767 21.75571 22.83501 24.78561 
125 50.23256 50.23256 50.23256 21.34582 22.40380 24.31588 
126 49.76744 49.76744 49.76744 20.94069 21.97760 23.85160 
127 49.30233 49.30233 49.30233 20.54030 21.55639 23.39277 
128 48.83721 48.83721 48.83721 20.14464 21.14016 22.93935 
129 48.37209 48.37209 48.37209 19.75370 20.72888 22.49134 
130 47.90698 47.90698 47.90698 19.36745 20.32255 22.04870 
131 47.44186 47.44186 47.44186 18.98588 19.92114 21.61144 
132 46.97674 46.97674 46.97674 18.60898 19.52464 21.17951 
133 46.51163 46.51163 46.51163 18.23672 19.13303 20.75292 
134 46.04651 46.04651 46.04651 17.86910 18.74629 20.33163 
135 45.58140 45.58140 45.58140 17.50609 18.36440 19.91563 
136 45.11628 45.11628 45.11628 17.14768 17.98736 19.50490 
137 44.65116 44.65116 44.65116 16.79385 17.61513 19.09942 
138 44.18605 44.18605 44.18605 16.44459 17.24770 18.69917 
139 43.72093 43.72093 43.72093 16.09987 16.88506 18.30413 
140 43.25581 43.25581 43.25581 15.75968 16.52718 17.91428 
141 42.79070 42.79070 42.79070 15.42401 16.17405 17.52961 
142 42.32558 42.32558 42.32558 15.09283 15.82566 17.15008 
143 41.86047 41.86047 41.86047 14.76613 15.48197 16.77569 
144 41.39535 41.39535 41.39535 14.44389 15.14297 16.40642 
145 40.93023 40.93023 40.93023 14.12610 14.80865 16.04223 
146 40.46512 40.46512 40.46512 13.81273 14.47899 15.68312 
147 40.00000 40.00000 40.00000 13.50377 14.15396 15.32905 
148 39.53488 39.53488 39.53488 13.19920 13.83356 14.98002 
149 39.06977 39.06977 39.06977 12.89900 13.51775 14.63600 
150 38.60465 38.60465 38.60465 12.60316 13.20652 14.29697 
151 38.13953 38.13953 38.13953 12.31165 12.89985 13.96291 
152 37.67442 37.67442 37.67442 12.02446 12.59773 13.63379 
153 37.20930 37.20930 37.20930 11.74157 12.30012 13.30961 
154 36.74419 36.74419 36.74419 11.46295 12.00703 12.99032 
155 36.27907 36.27907 36.27907 11.18860 11.71841 12.67592 
156 35.81395 35.81395 35.81395 10.91850 11.43426 12.36639 
157 35.34884 35.34884 35.34884 10.65261 11.15455 12.06169 
158 34.88372 34.88372 34.88372 10.39094 10.87926 11.76181 
159 34.41860 34.41860 34.41860 10.13344 10.60838 11.46673 
160 33.95349 33.95349 33.95349 9.880116 10.34188 11.17642 
161 33.48837 33.48837 33.48837 9.630936 10.07974 10.89087 
162 33.02326 33.02326 33.02326 9.385883 9.821947 10.61004 
163 32.55814 32.55814 32.55814 9.144938 9.568473 10.33393 
164 32.09302 32.09302 32.09302 8.908080 9.319298 10.06249 
165 31.62791 31.62791 31.62791 8.675290 9.074403 9.795718 
166 31.16279 31.16279 31.16279 8.446546 8.833765 9.533583 
167 30.69767 30.69767 30.69767 8.221830 8.597363 9.276063 
168 30.23256 30.23256 30.23256 8.001120 8.365176 9.023134 
169 29.76744 29.76744 29.76744 7.784395 8.137182 8.774772 
170 29.30233 29.30233 29.30233 7.571636 7.913359 8.530955 
171 28.83721 28.83721 28.83721 7.362820 7.693685 8.291656 
172 28.37209 28.37209 28.37209 7.157927 7.478138 8.056853 
173 27.90698 27.90698 27.90698 6.956935 7.266694 7.826521 
174 27.44186 27.44186 27.44186 6.759823 7.059333 7.600634 
175 26.97674 26.97674 26.97674 6.566569 6.856029 7.379170 
176 26.51163 26.51163 26.51163 6.377152 6.656762 7.162101 
177 26.04651 26.04651 26.04651 6.191548 6.461507 6.949403 
178 25.58140 25.58140 25.58140 6.009736 6.270241 6.741051 
179 25.11628 25.11628 25.11628 5.831694 6.082941 6.537018 
180 24.65116 24.65116 24.65116 5.657399 5.899582 6.337279 
181 24.18605 24.18605 24.18605 5.486827 5.720141 6.141808 
182 23.72093 23.72093 23.72093 5.319956 5.544593 5.950578 
183 23.25581 23.25581 23.25581 5.156763 5.372914 5.763562 
184 22.79070 22.79070 22.79070 4.997224 5.205078 5.580733 
185 22.32558 22.32558 22.32558 4.841314 5.041062 5.402064 
186 21.86047 21.86047 21.86047 4.689011 4.880839 5.227528 
187 21.39535 21.39535 21.39535 4.540290 4.724385 5.057097 
188 20.93023 20.93023 20.93023 4.395127 4.571673 4.890743 
189 20.46512 20.46512 20.46512 4.253496 4.422677 4.728437 
190 20.00000 20.00000 20.00000 4.115373 4.277372 4.570151 
191 19.53488 19.53488 19.53488 3.980733 4.135730 4.415856 
192 19.06977 19.06977 19.06977 3.849549 3.997725 4.265523 
193 18.60465 18.60465 18.60465 3.721797 3.863330 4.119121 
194 18.13953 18.13953 18.13953 3.597449 3.732516 3.976621 
195 17.67442 17.67442 17.67442 3.476480 3.605257 3.837994 
196 17.20930 17.20930 17.20930 3.358863 3.481524 3.703207 
197 16.74419 16.74419 16.74419 3.244571 3.361288 3.572230 
198 16.27907 16.27907 16.27907 3.133576 3.244521 3.445032 
199 15.81395 15.81395 15.81395 3.025850 3.131194 3.321581 
200 15.34884 15.34884 15.34884 2.921366 3.021276 3.201844 
201 14.88372 14.88372 14.88372 2.820095 2.914739 3.085790 
202 14.41860 14.41860 14.41860 2.722008 2.811551 2.973384 
203 13.95349 13.95349 13.95349 2.627075 2.711683 2.864593 
204 13.48837 13.48837 13.48837 2.535268 2.615102 2.759384 
205 13.02326 13.02326 13.02326 2.446556 2.521776 2.657722 
206 12.55814 12.55814 12.55814 2.360908 2.431675 2.559572 
207 12.09302 12.09302 12.09302 2.278294 2.344765 2.464898 
208 11.62791 11.62791 11.62791 2.198682 2.261013 2.373664 
209 11.16279 11.16279 11.16279 2.122040 2.180385 2.285834 
210 10.69767 10.69767 10.69767 2.048335 2.102848 2.201369 
211 10.23256 10.23256 10.23256 1.977534 2.028366 2.120234 
212 9.767442 9.767442 9.767442 1.909605 1.956904 2.042388 
213 9.302326 9.302326 9.302326 1.844511 1.888426 1.967792 
214 8.837209 8.837209 8.837209 1.782220 1.822895 1.896407 
215 8.372093 8.372093 8.372093 1.722694 1.760274 1.828192 
216 7.906977 7.906977 7.906977 1.665898 1.700525 1.763105 
217 7.441860 7.441860 7.441860 1.611795 1.643608 1.701104 
218 6.976744 6.976744 6.976744 1.560347 1.589484 1.642145 
219 6.511628 6.511628 6.511628 1.511515 1.538113 1.586185 
220 6.046512 6.046512 6.046512 1.465260 1.489453 1.533178 
221 5.581395 5.581395 5.581395 1.421541 1.443462 1.483078 
222 5.116279 5.116279 5.116279 1.380318 1.400095 1.435837 
223 4.651163 4.651163 4.651163 1.341548 1.359308 1.391407 
224 4.186047 4.186047 4.186047 1.305187 1.321056 1.349737 
225 3.720930 3.720930 3.720930 1.271025 1.285118 1.310588 
226 3.255814 3.255814 3.255814 1.237146 1.249478 1.271765 
227 2.790698 2.790698 2.790698 1.203268 1.213838 1.232941 
228 2.325581 2.325581 2.325581 1.169390 1.178199 1.194118 
229 1.860465 1.860465 1.860465 1.135512 1.142559 1.155294 
230 1.395349 1.395349 1.395349 1.101634 1.106919 1.116471 
231 0.930233 0.930233 0.930233 1.067756 1.071279 1.077647 
232 0.465116 0.465116 0.465116 1.033878 1.035640 1.038824 
233 0.00000 0.00000 100.0000 18.87111 8.147314 95.12896 
234 100.0000 0.00000 0.00000 41.83017 22.05217 2.913230 
235 0.00000 100.0000 0.00000 36.40521 71.80052 12.80184 
236 0.00000 100.0000 83.22179 48.19805 76.51691 74.91592 
237 100.0000 35.16568 76.28712 55.12316 33.11590 55.20375 
238 0.00000 34.50625 68.37406 12.05284 10.94667 42.17339 
239 100.0000 100.0000 57.63590 82.44743 94.93718 42.16749 
240 89.37961 52.57257 52.55814 45.36198 35.91912 27.74797 
241 45.72042 65.06720 41.46858 24.25779 32.71134 19.33096 
242 100.0000 68.81217 36.70748 59.08178 53.37851 18.44652 
243 38.81783 0.00000 27.10743 7.160229 4.052778 6.860467 
244 48.11673 41.50446 0.00000 14.13066 15.31876 3.072369 
245 40.05258 13.03417 0.00000 6.985094 4.894778 1.436582 
246 67.06950 0.00000 24.75866 18.52560 9.933078 6.477891 
247 63.29678 100.0000 58.44686 56.41256 81.49476 41.79385 
248 70.57601 46.02421 100.0000 43.83925 30.43026 98.11519 
249 65.53899 73.13730 96.28367 50.69055 50.68001 93.93673 
250 35.72724 88.37413 98.80252 49.42279 63.66022 101.7035 
251 0.00000 60.56644 55.92572 17.39334 25.97575 30.53941 
252 30.93491 0.00000 53.94842 8.693961 4.445249 24.90957 
253 45.94466 44.26174 58.60224 19.52184 18.57991 31.75699 
254 71.73186 41.67224 56.73785 30.48044 23.23110 30.13960 
255 63.42141 48.87981 37.84659 25.02681 23.85358 15.22703 
256 54.73451 39.07702 40.93217 18.60802 16.43695 16.12179 
257 95.55063 27.59004 33.02307 41.60169 25.00106 11.84321 
258 57.10042 68.29445 0.00000 27.68179 37.04087 6.551656 
259 64.92771 17.20416 61.98901 23.48311 13.20127 34.23739 
260 0.00000 23.33293 0.00000 2.573963 4.147485 1.524659 
261 71.59687 34.17750 0.00000 23.62036 17.68928 3.030145 
262 0.00000 93.20366 58.44478 36.54971 63.49264 39.36286 
263 0.00000 35.02513 45.13484 7.632062 9.352225 18.35339 
264 0.00000 32.54654 92.18604 18.91951 13.06535 80.27629 
265 0.00000 68.16783 91.61620 30.60326 36.76099 83.14885 
266 0.00000 85.88268 83.80628 38.06056 55.94511 72.46090 
267 56.94557 76.84229 75.81388 41.69656 49.86520 58.44064 
268 0.00000 68.00355 7.662691 15.99409 30.79041 6.595039 
269 90.47079 70.02362 91.61302 64.05402 55.37389 84.97386 
270 73.51890 70.95620 52.05292 41.92575 45.88034 29.38794 
271 70.03537 85.09059 44.20544 46.80956 60.73262 25.50817 
272 66.52869 32.27152 26.84360 21.39358 15.85998 8.281912 
273 81.84450 71.40750 28.35948 44.69862 48.00276 13.89661 
274 76.71351 11.23880 46.29717 27.10861 14.72019 19.26452 
275 71.81741 48.96582 0.00000 27.60971 25.47051 4.322037 
276 69.53298 4.586765 0.00000 19.14762 10.54479 1.886620 
277 35.57522 52.24718 54.99150 18.28289 21.73804 28.75071 
278 59.48265 65.55634 32.98886 29.06245 35.63584 14.53867 
279 6.892620 5.281305 25.63845 2.343245 1.802419 6.093740 
280 24.94883 19.49487 0.00000 4.186055 4.300692 1.469326 
281 67.27291 95.62766 0.00000 49.73088 73.59560 12.44650 
282 49.79982 48.98713 87.02043 29.95550 25.18169 72.51191 
283 60.58612 0.00000 84.44067 26.47281 12.72442 65.80444 
284 29.49363 51.79968 75.80836 21.63506 22.67532 54.24063 
285 27.26382 41.46454 0.00000 8.542591 12.42215 2.807554 
286 75.09299 57.45544 55.34930 37.41941 34.44600 30.54731 
287 91.11816 31.43771 47.88006 40.39710 25.14340 21.84956 
288 65.11453 43.03613 70.92048 30.31375 23.31331 46.97413 
289 94.50528 0.00000 88.16209 50.34194 24.88738 73.42364 
290 33.96568 38.05066 27.23537 10.16807 11.88763 8.267243 
291 28.98661 11.50736 15.35218 4.597972 3.470955 3.201078 
292 50.34398 0.00000 8.072675 10.00014 5.625435 2.101612 
293 84.65376 0.00000 100.0000 46.86972 22.58349 96.44093 
294 73.82312 88.37115 98.80252 65.73276 72.06666 102.4671 
295 94.63320 66.45744 75.81046 60.72012 51.66095 57.78026 
296 83.80648 98.24047 83.31519 74.19844 87.84060 75.88865 
297 67.77770 100.0000 93.58409 68.80388 86.72725 94.57013 
298 48.46973 29.46187 73.79299 20.67737 13.81393 49.64920 
299 44.04291 28.03001 43.47295 12.74870 10.08559 16.98700 
300 2.511421 33.99370 29.01067 5.651487 8.227315 8.561869 
301 16.68809 2.251191 74.41914 11.20680 5.292730 49.40287 
302 9.866529 45.00574 26.68749 8.478848 13.70551 8.482878 
303 100.0000 0.00000 60.10069 47.54398 24.33733 33.00846 
304 91.90097 63.79063 50.67595 51.55409 45.76829 27.62380 
305 69.89256 37.01612 42.79210 25.96590 19.48843 17.61516 
306 82.15051 37.40148 86.31933 44.05918 27.78297 71.03438 
307 0.00000 63.31133 31.82730 15.17178 26.97765 13.00827 
308 94.47604 38.07330 19.10569 41.66932 28.19943 6.955222 
309 66.96590 56.19147 63.99615 33.90676 31.70452 39.59668 
310 31.26764 3.282973 3.255814 4.388068 2.875208 1.419625 
311 83.45035 0.00000 64.52910 34.79367 17.65105 37.47383 
312 39.84804 23.32553 0.00000 7.954647 6.920343 1.776510 
313 78.39498 51.18387 28.25783 33.69008 29.55224 10.87088 
314 0.00000 55.95905 98.79931 28.06667 27.31057 95.80498 
315 52.72889 0.00000 64.52910 17.49001 8.729230 36.66301 
316 38.91016 0.00000 40.46299 8.551292 4.612065 14.05421 
317 48.62639 29.91118 100.0000 29.67780 17.54459 96.37374 
318 45.95075 83.23748 64.24564 38.27855 54.14393 43.99504 
319 46.34566 68.77588 78.58531 34.03980 39.47041 61.03811 
320 25.66428 66.50896 70.70079 25.53066 33.71279 48.93591 
321 16.30783 51.89208 0.00000 10.14171 17.90267 3.781230 
322 6.386769 32.37933 51.62594 8.345965 8.810125 23.61334 
323 72.68765 46.97726 38.85274 29.75173 25.39858 15.90377 
324 86.82100 39.05715 31.87335 36.59570 25.82142 11.67966 
325 77.45923 28.59432 32.97110 27.87320 18.16505 11.21971 
326 49.48110 15.48680 26.19411 11.27591 7.272908 6.896470 
327 100.0000 90.54687 0.00000 70.09334 78.57061 12.33437 
328 41.65960 82.49757 7.529289 29.93839 49.90552 9.535070 
329 12.57603 17.98487 8.825635 2.702074 3.288094 2.129278 
330 57.02860 64.97786 55.92515 30.96029 35.83842 31.72808 
331 44.69580 69.96551 23.20585 24.49699 36.53817 10.74351 
332 97.24819 50.25450 0.00000 46.98253 36.07981 5.349608 
333 48.30150 43.11641 26.09545 15.61564 16.60621 8.430544 
334 67.85666 69.20578 78.59460 43.90374 44.87165 61.57560 
335 85.53766 97.71046 37.79482 65.35867 83.78990 24.64055 
336 0.00000 94.01202 37.81623 33.88261 63.38028 22.37180 
337 53.70564 90.46127 91.62817 54.06315 68.52069 88.06653 
338 36.21539 25.79174 21.07081 7.972947 7.362637 5.284352 
339 0.00000 53.09693 67.15102 16.93303 21.18311 42.32778 
340 2.439579 80.17617 67.90680 30.04524 46.99574 47.58226 
341 39.00936 31.52499 57.86177 14.27125 11.49178 29.88601 
342 100.0000 85.70252 71.67572 75.23123 75.34412 55.68385 
343 66.89396 59.18336 81.79305 39.82303 35.94708 65.16328 
344 60.62003 14.79281 36.27688 16.91583 9.987913 12.03897 
345 53.34827 28.11435 28.35012 14.50084 11.20192 8.379375 
346 75.55270 0.00000 18.41704 23.19516 12.38522 4.688127 
347 68.49942 56.04267 30.61727 29.50665 29.95328 12.23907 
348 40.54033 31.48801 4.568558 9.506135 9.625371 2.550380 
349 19.52833 63.37302 47.26692 18.40369 28.46343 23.14933 
350 35.86270 27.60902 33.02308 9.101513 8.248340 10.32117 
351 0.00000 11.81632 46.29700 4.703954 3.222003 18.22491 
352 89.35565 11.63086 15.35218 33.44820 18.35775 4.555173 
353 58.66484 34.13791 19.10622 17.30067 14.35599 5.566636 
354 19.80428 24.66621 32.97040 5.668503 5.827133 10.00725 
355 86.19080 85.76836 76.21445 64.84285 69.90857 61.68551 
356 38.02666 100.0000 100.0000 59.15371 81.46263 107.1593 
357 84.34474 98.60829 98.60465 80.37253 90.81989 104.9015 
358 0.00000 42.51007 90.67383 20.66270 17.42475 78.16340 
359 36.15094 24.19113 81.19544 18.23355 11.10152 60.53214 
360 0.00000 77.43453 51.26932 24.90978 42.35217 28.89494 
361 7.013108 72.86452 87.79755 31.89436 41.13068 76.87475 
362 71.80902 30.49938 59.07159 28.54349 18.54481 31.77561 
363 77.43076 65.20044 51.13581 41.47728 41.51251 27.74097 
364 67.17188 44.42066 43.25380 26.36927 22.47803 18.50273 
365 67.20766 35.35168 74.31442 30.49013 20.53761 51.17879 
366 58.76326 20.72042 0.00000 14.67783 9.912128 1.999914 
367 62.25632 57.88448 19.54351 26.09783 29.34493 8.119553 
368 62.89713 50.47036 0.00000 23.16322 23.90444 4.253928 
369 40.24565 55.16489 0.771357 15.88860 22.59986 4.441183 
370 36.61996 81.61669 42.88687 30.62157 49.14199 23.16169 
371 19.24457 17.20166 61.98902 9.260830 5.867870 33.57089 
372 16.02698 4.629512 0.00000 2.028033 1.719790 1.084796 
373 52.05438 0.00000 100.0000 28.40705 13.06408 95.57580 
374 78.13319 76.77490 1.873427 43.90213 52.04899 8.730218 
375 28.93547 14.36222 37.10831 6.451417 4.531146 12.02800 
376 92.58804 53.85267 85.93083 56.85923 41.54759 72.33752 
377 58.95048 72.86432 87.79755 44.16118 47.45533 77.44952 
378 0.582350 65.78016 100.0000 32.70563 35.78518 99.73523 
379 38.93451 0.00000 0.00000 6.125123 3.642530 1.240154 
380 80.30955 59.47526 96.41141 53.37848 42.52235 92.47964 
381 87.89849 82.64424 98.60651 71.78807 69.63100 101.2675 
382 100.0000 81.77721 80.57109 75.25573 71.35254 68.15324 
383 40.47843 75.01621 68.36932 32.66918 43.91939 47.44613 
384 100.0000 32.56717 60.47075 50.68772 30.49968 34.43954 
385 93.97808 48.75044 71.33436 51.98352 36.97019 49.03277 
386 99.04829 88.17692 59.31472 73.12090 77.04832 40.98199 
387 70.30633 96.95624 71.28762 60.81073 79.85454 56.78190 
388 0.00000 26.55073 28.84451 4.237890 5.540840 8.043912 
389 56.49269 20.93841 20.93023 14.32007 9.690415 5.356081 
390 0.00000 2.574554 13.02187 1.345207 1.250928 2.470158 
391 56.55847 36.75470 4.814146 16.43226 14.79473 3.203285 
392 50.54207 100.0000 35.25545 47.17382 77.14199 22.82304 
393 33.24161 49.73037 40.93108 14.67100 18.87668 16.79936 
394 32.66001 45.79054 25.99696 11.80999 15.76725 8.430309 
395 79.94842 80.27239 44.72372 50.17087 57.97607 25.18700 
396 32.59383 62.44685 27.94184 17.99184 27.90817 11.24460 
397 44.22652 39.05234 31.87335 13.66738 13.99778 10.60495 
398 79.70953 33.46231 51.78045 32.82210 21.74176 24.96019 
399 52.29814 42.48832 90.67383 30.29003 22.38001 78.61285 
400 94.46534 53.02311 35.62212 47.34636 37.45454 15.36078 
401 67.72383 94.78417 39.00725 51.59650 73.35231 24.10785 
402 0.00000 17.48136 14.64856 2.249343 2.960571 3.074929 
