Pre-made_Targets/Patch Width 8-11mm - Expert (Use rig-guide-ruler)/Designed Targets/CM-Expert-13x18cm-507p-3pages-w9.5mm-13x13/13x18-profile.ti1
CTI1   

DESCRIPTOR "Argyll Calibration Target chart information 1"
ORIGINATOR "Argyll targen"
CREATED "Tue Nov 01 12:05:16 2022"
APPROX_WHITE_POINT "95.106486 100.000000 108.844025"
COLOR_REP "iRGB"
WHITE_COLOR_PATCHES "4"
BLACK_COLOR_PATCHES "4"
COMP_GREY_STEPS "128"
OFPS_PATCHES "373"

NUMBER_OF_FIELDS 7
BEGIN_DATA_FORMAT
SAMPLE_ID RGB_R RGB_G RGB_B XYZ_X XYZ_Y XYZ_Z 
END_DATA_FORMAT

NUMBER_OF_SETS 507
BEGIN_DATA
1 100 100 100 95.1065 100 108.844 
2 28.3465 28.3465 28.3465 7.14675 7.46638 8.04404 
3 68.6165 32.5673 36.8247 23.5594 16.9513 13.3554 
4 0.00000 100 73.2723 45.2695 75.3457 59.4908 
5 25.6973 81.6694 46.9854 28.9326 48.2508 26.1877 
6 79.5276 79.5276 79.5276 57.0734 59.9892 65.2589 
7 33.8583 33.8583 33.8583 9.82877 10.2879 11.1176 
8 89.285 86.6803 71.6421 66.6149 71.8629 55.4194 
9 88.4993 55.4447 72.7134 50.1515 39.4139 51.5103 
10 98.4252 98.4252 98.4252 91.7703 96.4903 105.021 
11 97.6378 97.6378 97.6378 90.1285 94.7631 103.139 
12 96.8504 96.8504 96.8504 88.5041 93.0543 101.278 
13 96.063 96.063 96.063 86.8972 91.3638 99.4363 
14 95.2756 95.2756 95.2756 85.3076 89.6915 97.6147 
15 94.4882 94.4882 94.4882 83.7352 88.0375 95.8128 
16 93.7008 93.7008 93.7008 82.1802 86.4015 94.0307 
17 92.9134 92.9134 92.9134 80.6423 84.7837 92.2684 
18 92.126 92.126 92.126 79.1215 83.1838 90.5256 
19 91.3386 91.3386 91.3386 77.6178 81.6019 88.8024 
20 90.5512 90.5512 90.5512 76.1312 80.038 87.0987 
21 89.7638 89.7638 89.7638 74.6615 78.4919 85.4145 
22 88.9764 88.9764 88.9764 73.2087 76.9635 83.7496 
23 88.189 88.189 88.189 71.7727 75.4529 82.1041 
24 87.4016 87.4016 87.4016 70.3536 73.96 80.4778 
25 86.6142 86.6142 86.6142 68.9512 72.4846 78.8706 
26 85.8268 85.8268 85.8268 67.5655 71.0269 77.2826 
27 85.0394 85.0394 85.0394 66.1964 69.5866 75.7137 
28 84.252 84.252 84.252 64.8439 68.1637 74.1637 
29 83.4646 83.4646 83.4646 63.5079 66.7583 72.6327 
30 82.6772 82.6772 82.6772 62.1883 65.3701 71.1205 
31 81.8898 81.8898 81.8898 60.8851 63.9991 69.6271 
32 81.1024 81.1024 81.1024 59.5983 62.6454 68.1524 
33 80.315 80.315 80.315 58.3277 61.3088 66.6964 
34 0.00000 0.00000 0.00000 1 1 1 
35 78.7402 78.7402 78.7402 55.8352 58.6866 63.84 
36 77.9528 77.9528 77.9528 54.6131 57.401 62.4395 
37 77.1654 77.1654 77.1654 53.4071 56.1323 61.0574 
38 76.378 76.378 76.378 52.217 54.8803 59.6936 
39 75.5906 75.5906 75.5906 51.0429 53.6451 58.3481 
40 74.8031 74.8031 74.8031 49.8846 52.4266 57.0207 
41 74.0157 74.0157 74.0157 48.7421 51.2246 55.7114 
42 73.2283 73.2283 73.2283 47.6153 50.0393 54.4201 
43 72.4409 72.4409 72.4409 46.5042 48.8704 53.1468 
44 71.6535 71.6535 71.6535 45.4087 47.7179 51.8914 
45 70.8661 70.8661 70.8661 44.3287 46.5818 50.6538 
46 70.0787 70.0787 70.0787 43.2642 45.4619 49.4339 
47 69.2913 69.2913 69.2913 42.2151 44.3583 48.2317 
48 68.5039 68.5039 68.5039 41.1814 43.2708 47.047 
49 67.7165 67.7165 67.7165 40.163 42.1994 45.8799 
50 66.9291 66.9291 66.9291 39.1598 41.1441 44.7303 
51 66.1417 66.1417 66.1417 38.1717 40.1046 43.598 
52 65.3543 65.3543 65.3543 37.1987 39.081 42.4829 
53 64.5669 64.5669 64.5669 36.2407 38.0733 41.3851 
54 63.7795 63.7795 63.7795 35.2977 37.0812 40.3045 
55 62.9921 62.9921 62.9921 34.3696 36.1048 39.2409 
56 62.2047 62.2047 62.2047 33.4563 35.144 38.1942 
57 61.4173 61.4173 61.4173 32.5578 34.1988 37.1645 
58 60.6299 60.6299 60.6299 31.6739 33.2689 36.1516 
59 59.8425 59.8425 59.8425 30.8046 32.3545 35.1555 
60 59.0551 59.0551 59.0551 29.9499 31.4553 34.176 
61 58.2677 58.2677 58.2677 29.1097 30.5714 33.2131 
62 57.4803 57.4803 57.4803 28.2838 29.7026 32.2667 
63 56.6929 56.6929 56.6929 27.4723 28.8489 31.3367 
64 55.9055 55.9055 55.9055 26.6751 28.0101 30.4231 
65 55.1181 55.1181 55.1181 25.892 27.1864 29.5257 
66 54.3307 54.3307 54.3307 25.123 26.3774 28.6445 
67 53.5433 53.5433 53.5433 24.3681 25.5832 27.7793 
68 52.7559 52.7559 52.7559 23.6271 24.8037 26.9302 
69 51.9685 51.9685 51.9685 22.9001 24.0389 26.097 
70 51.1811 51.1811 51.1811 22.1868 23.2885 25.2796 
71 50.3937 50.3937 50.3937 21.4873 22.5526 24.478 
72 49.6063 49.6063 49.6063 20.8014 21.8311 23.692 
73 48.8189 48.8189 48.8189 20.1292 21.1239 22.9216 
74 48.0315 48.0315 48.0315 19.4704 20.4309 22.1667 
75 47.2441 47.2441 47.2441 18.8251 19.752 21.4271 
76 46.4567 46.4567 46.4567 18.1931 19.0871 20.7029 
77 45.6693 45.6693 45.6693 17.5743 18.4362 19.9938 
78 44.8819 44.8819 44.8819 16.9688 17.7992 19.2999 
79 44.0945 44.0945 44.0945 16.3764 17.1759 18.621 
80 43.3071 43.3071 43.3071 15.797 16.5664 17.957 
81 42.5197 42.5197 42.5197 15.2305 15.9705 17.3078 
82 41.7323 41.7323 41.7323 14.6769 15.3881 16.6734 
83 40.9449 40.9449 40.9449 14.136 14.8191 16.0536 
84 40.1575 40.1575 40.1575 13.6079 14.2635 15.4484 
85 39.3701 39.3701 39.3701 13.0923 13.7211 14.8576 
86 38.5827 38.5827 38.5827 12.5893 13.1919 14.2811 
87 37.7953 37.7953 37.7953 12.0987 12.6758 13.7188 
88 37.0079 37.0079 37.0079 11.6204 12.1726 13.1707 
89 36.2205 36.2205 36.2205 11.1543 11.6824 12.6367 
90 35.4331 35.4331 35.4331 10.7005 11.2049 12.1165 
91 34.6457 34.6457 34.6457 10.2586 10.7401 11.6102 
92 0.00000 0.00000 0.00000 1 1 1 
93 33.0709 33.0709 33.0709 9.41078 9.84814 10.6386 
94 32.2835 32.2835 32.2835 9.00457 9.4208 10.1731 
95 31.4961 31.4961 31.4961 8.61004 9.00576 9.72094 
96 30.7087 30.7087 30.7087 8.22709 8.6029 9.28209 
97 29.9213 29.9213 29.9213 7.85563 8.21212 8.8564 
98 29.1339 29.1339 29.1339 7.49555 7.83331 8.44376 
99 100 100 100 95.1065 100 108.844 
100 27.5591 27.5591 27.5591 6.80912 7.1112 7.65713 
101 26.7717 26.7717 26.7717 6.48257 6.76767 7.28291 
102 25.9843 25.9843 25.9843 6.16699 6.43567 6.92126 
103 25.1969 25.1969 25.1969 5.86227 6.1151 6.57205 
104 24.4094 24.4094 24.4094 5.56829 5.80584 6.23516 
105 23.622 23.622 23.622 5.28495 5.50777 5.91047 
106 22.8346 22.8346 22.8346 5.01214 5.22077 5.59783 
107 22.0472 22.0472 22.0472 4.74974 4.94473 5.29712 
108 21.2598 21.2598 21.2598 4.49763 4.67951 5.00821 
109 20.4724 20.4724 20.4724 4.2557 4.42499 4.73096 
110 19.685 19.685 19.685 4.02382 4.18106 4.46523 
111 18.8976 18.8976 18.8976 3.80187 3.94757 4.21089 
112 18.1102 18.1102 18.1102 3.58973 3.7244 3.96778 
113 17.3228 17.3228 17.3228 3.38727 3.5114 3.73575 
114 16.5354 16.5354 16.5354 3.19435 3.30845 3.51468 
115 15.748 15.748 15.748 3.01084 3.11541 3.30439 
116 14.9606 14.9606 14.9606 2.83662 2.93212 3.10473 
117 14.1732 14.1732 14.1732 2.67153 2.75845 2.91554 
118 13.3858 13.3858 13.3858 2.51544 2.59425 2.73667 
119 12.5984 12.5984 12.5984 2.36821 2.43935 2.56794 
120 11.811 11.811 11.811 2.22967 2.29361 2.40917 
121 11.0236 11.0236 11.0236 2.09968 2.15686 2.26021 
122 10.2362 10.2362 10.2362 1.97808 2.02894 2.12086 
123 9.44882 9.44882 9.44882 1.86471 1.90967 1.99094 
124 8.66142 8.66142 8.66142 1.7594 1.79889 1.87025 
125 7.87402 7.87402 7.87402 1.66198 1.6964 1.75861 
126 7.08661 7.08661 7.08661 1.57226 1.60202 1.6558 
127 6.29921 6.29921 6.29921 1.49007 1.51556 1.56161 
128 5.51181 5.51181 5.51181 1.41522 1.43681 1.47583 
129 4.72441 4.72441 4.72441 1.34749 1.36556 1.39822 
130 3.93701 3.93701 3.93701 1.28669 1.3016 1.32854 
131 3.14961 3.14961 3.14961 1.22941 1.24134 1.2629 
132 2.3622 2.3622 2.3622 1.17206 1.181 1.19717 
133 1.5748 1.5748 1.5748 1.11471 1.12067 1.13145 
134 0.787402 0.787402 0.787402 1.05735 1.06033 1.06572 
135 100 100 0.00000 77.2354 92.8527 14.7151 
136 100 0.00000 100 59.7013 29.1995 97.0422 
137 0.00000 100 100 54.2763 78.9478 106.931 
138 0.00000 100 0.00000 36.4052 71.8005 12.8018 
139 0.00000 0.00000 100 18.8711 8.14731 95.129 
140 100 0.00000 0.00000 41.8302 22.0522 2.91323 
141 0.00000 34.5643 100 22.3375 15.0791 96.2844 
142 100 50.9435 0.00000 49.7212 37.8321 5.5436 
143 100 0.00000 66.9839 49.09 24.9556 41.1514 
144 0.00000 100 47.3456 39.8059 73.1606 30.7136 
145 40.9948 100 0.00000 42.1193 74.7467 13.0696 
146 40.5721 0.00000 100 24.4613 11.0296 95.3909 
147 0.00000 75.047 0.00000 19.5259 38.0467 7.17536 
148 100 41.5982 100 64.8119 39.4193 98.7457 
149 0.00000 0.00000 40.779 3.47324 1.98914 14.0268 
150 45.3424 0.00000 0.00000 8.08139 4.65119 1.33182 
151 100 100 40.1507 79.6288 93.8099 27.3215 
152 61.9388 100 100 68.2258 86.1402 107.584 
153 0.00000 51.4433 100 26.9309 24.2646 97.8156 
154 100 0.00000 32.4897 43.3702 22.6681 11.025 
155 0.00000 50.0947 0.00000 8.60923 16.2163 3.53643 
156 0.00000 80.3818 49.2659 26.3133 45.6926 27.7167 
157 59.521 39.8037 0.00000 18.4349 16.899 3.15071 
158 71.4589 0.00000 49.7868 23.9412 12.3902 21.8596 
159 43.1022 100 59.0089 48.2489 77.2724 42.0067 
160 100 57.7661 58.6807 57.6286 44.9715 34.9276 
161 68.0823 41.256 100 41.0892 27.0562 97.6087 
162 100 100 100 95.1065 100 108.844 
163 100 62.7137 100 72.1336 54.0607 101.186 
164 0.00000 33.5779 48.6164 7.86537 8.96916 21.0514 
165 100 26.0247 0.00000 43.7801 25.9515 3.56322 
166 60.6751 100 0.00000 49.7356 78.6737 13.4265 
167 17.9544 62.9927 100 32.5317 33.8235 99.3657 
168 36.9636 0.00000 49.6413 9.36246 4.8761 21.0517 
169 48.8263 100 40.1522 47.1012 77.0385 25.7982 
170 20.8571 60.7085 0.00000 14.0365 24.8977 4.92634 
171 0.00000 0.00000 79.8604 11.7488 5.29885 57.6151 
172 20.3986 100 100 55.6793 79.6712 106.997 
173 0.00000 67.8873 100 33.6878 37.7765 100.068 
174 71.5846 0.00000 0.00000 20.2264 10.9132 1.90091 
175 20.0816 0.00000 100 20.2332 8.84961 95.1928 
176 100 100 61.9855 83.3511 95.2986 46.9274 
177 81.1296 0.00000 100 44.3145 21.266 96.3212 
178 41.4518 56.5112 0.00000 16.7396 23.7931 4.57076 
179 100 20.011 19.3488 43.5595 24.6208 6.23286 
180 100 81.3255 19.6749 64.5866 66.6409 13.3292 
181 0.00000 48.7111 80.6579 19.1541 19.7191 61.2805 
182 21.0567 0.00000 0.00000 2.49003 1.76826 1.06982 
183 46.7012 82.4924 100 49.3202 57.8407 103.118 
184 100 100 20.2984 77.8437 93.096 17.9194 
185 0.00000 24.4434 0.00000 2.72339 4.4463 1.57447 
186 62.3133 80.2157 0.00000 36.6444 51.2992 8.83189 
187 100 41.4017 38.4838 49.0788 33.0454 16.1295 
188 0.00000 0.00000 17.1314 1.44428 1.17768 3.34005 
189 80.8017 100 100 79.4891 91.9476 108.112 
190 0.00000 60.8162 20.0743 13.2142 24.4719 8.01079 
191 80.1733 100 80.4124 72.0961 88.9402 71.4605 
192 41.8904 17.9264 100 25.8091 13.1437 95.728 
193 100 25.3661 81.8814 55.0535 30.306 63.4167 
194 21.2217 100 0.00000 37.9175 72.5803 12.8727 
195 74.0494 100 40.509 59.579 83.4669 26.6186 
196 71.4186 0.00000 81.5571 31.3959 15.3688 61.25 
197 36.3286 17.1852 0.00000 6.31835 5.05591 1.5028 
198 0.00000 26.7901 79.7431 13.7789 9.41515 58.1172 
199 21.8154 0.00000 78.6978 12.995 5.98166 55.8568 
200 66.312 81.7129 100 57.512 61.346 103.363 
201 40.0453 100 19.9383 42.4314 74.8396 16.1547 
202 56.6107 0.00000 35.9116 14.3434 7.66082 11.5137 
203 19.9974 81.1286 0.00000 24.4135 45.8149 8.41744 
204 0.00000 88.3671 84.7141 40.0227 59.3979 74.5672 
205 23.9635 0.00000 16.4206 3.32339 2.15035 3.25711 
206 100 62.9792 38.6247 56.5848 48.0285 18.7148 
207 100 76.4016 0.00000 61.1127 60.6118 9.34078 
208 0.00000 40.3477 15.3178 6.15454 10.726 4.51198 
209 24.3396 29.5417 100 23.3555 14.1897 96.0591 
210 34.4948 52.0301 50.8642 17.2111 21.159 24.8487 
211 100 0.00000 15.2654 42.1915 22.1967 4.81664 
212 0.00000 61.1606 46.2497 15.9977 25.8177 21.9545 
213 100 46.2667 79.4362 58.8631 39.1218 60.9928 
214 54.2976 29.0653 73.331 22.7647 14.8045 49.073 
215 45.8808 52.6218 100 34.5997 28.8215 98.2913 
216 52.7232 0.00000 60.8121 16.6677 8.40009 32.3439 
217 38.3317 90.8486 38.4924 36.6266 61.3786 22.2599 
218 100 83.5168 100 83.2514 76.2932 104.892 
219 74.6366 35.777 18.8682 26.3584 19.5397 6.02455 
220 22.6042 0.00000 60.2806 8.45846 4.18035 31.3737 
221 23.2235 81.6849 100 43.0735 53.8759 102.681 
222 100 59.6662 18.8102 53.4985 44.5416 9.40536 
223 59.6542 73.7085 41.0485 34.1457 44.2108 20.7433 
224 25.1985 100 37.4701 40.585 73.7162 23.803 
225 42.8848 16.3999 70.431 16.2171 9.11443 44.3145 
226 0.00000 77.8763 32.1334 22.6319 41.8491 15.6392 
227 0.00000 0.00000 59.7098 6.63244 3.25262 30.6666 
228 100 77.0102 60.6983 67.2978 63.6384 40.2135 
229 0.00000 83.8642 100 42.6424 55.6833 103.053 
230 0.00000 100 27.2416 37.4831 72.2316 18.4793 
231 0.00000 62.5844 64.0482 19.9499 28.3774 39.7514 
232 81.8961 100 22.5445 63.1355 85.4968 17.9347 
233 83.0766 28.2568 100 48.0064 26.5799 97.1525 
234 100 100 82.0125 88.6461 97.4163 74.8165 
235 0.00000 29.5267 26.9433 4.56535 6.44273 7.3911 
236 26.9816 50.7709 63.5666 17.7146 20.4958 37.7777 
237 100 18.9718 64.8091 49.64 26.8743 38.8094 
238 17.2087 18.097 0.00000 2.99639 3.4734 1.37229 
239 79.4202 30.4241 0.00000 27.923 18.8412 3.02589 
240 19.7486 0.00000 36.2526 4.25182 2.45319 11.2374 
241 81.4248 43.7487 59.7736 37.9863 27.8598 33.8345 
242 100 20.0936 100 60.8837 31.564 97.4363 
243 80.5614 100 0.00000 61.4499 84.7136 13.9754 
244 33.5252 69.2628 74.0358 29.317 37.5429 54.1223 
245 25.8183 100 69.2938 46.4463 76.0723 54.1338 
246 0.00000 20.2784 61.5845 8.23194 5.81691 33.1559 
247 18.985 39.7028 0.00000 6.85696 10.8926 2.60108 
248 83.4186 100 57.7653 68.7297 87.8613 41.6588 
249 33.3633 53.3091 35.2159 15.2429 21.0573 13.6566 
250 61.1763 60.3844 0.00000 26.0117 30.871 5.44865 
251 81.1943 55.819 100 53.987 40.5407 99.5323 
252 61.3721 100 20.0076 50.6671 79.0855 16.5607 
253 56.1184 33.5922 50.6539 19.4347 14.9 23.3375 
254 82.8716 0.00000 37.9437 29.8136 15.6106 13.4435 
255 43.8333 0.00000 78.106 17.8136 8.48631 55.1713 
256 41.7315 79.1072 0.00000 27.7805 45.7471 8.22702 
257 60.3446 39.902 23.2893 19.6427 17.4662 7.34656 
258 0.00000 17.0821 100 19.7467 9.89823 95.4208 
259 100 37.7286 59.7224 51.6254 32.625 33.9803 
260 57.4206 18.9653 0.00000 13.8719 9.21169 1.90715 
261 63.5804 100 60.2652 56.9318 81.7192 43.771 
262 47.6028 35.1666 100 30.3245 19.3848 96.6949 
263 0.00000 17.4656 38.9924 4.16195 3.72308 13.1562 
264 100 65.6971 81.039 66.7162 54.046 66.0152 
265 79.9653 0.00000 65.0805 32.441 16.4233 38.0265 
266 100 82.309 42.6989 67.3474 68.7174 24.8719 
267 100 0.00000 83.3422 53.6615 26.7839 65.2298 
268 40.204 100 81.6101 53.174 79.1412 72.4992 
269 51.3391 79.3115 15.0635 31.5748 47.8423 10.2823 
270 55.0513 72.575 57.1011 34.0687 42.9725 34.1326 
271 26.5055 15.7216 40.404 6.51163 4.6807 14.1356 
272 42.5511 23.4354 11.5876 8.99769 7.45336 3.01112 
273 81.5746 58.2707 46.8543 40.6602 36.7615 23.2473 
274 43.1921 44.9684 85.6831 26.0097 21.3916 69.6403 
275 89.6634 30.9327 29.8703 36.9359 23.4741 10.2472 
276 41.0903 0.00000 23.4281 7.54307 4.28101 5.48686 
277 0.00000 45.0011 62.7863 13.3334 15.5985 36.1514 
278 100 83.76 78.9039 75.9971 73.6395 65.9195 
279 91.3519 70.3114 24.985 51.18 50.5414 12.681 
280 0.00000 0.00000 0.00000 1 1 1 
281 72.0919 58.0695 74.6615 40.2723 35.7582 54.1037 
282 89.7984 6.61812 69.2841 41.0091 21.0155 43.7798 
283 56.7377 53.7366 19.0294 21.9054 24.8672 7.33179 
284 82.7216 13.3813 0.00000 28.1498 15.8442 2.43544 
285 27.273 70.0285 10.9184 19.5495 34.1015 7.49075 
286 0.00000 45.2031 38.2368 9.25981 14.0624 14.4084 
287 61.1036 82.0218 72.2946 45.7531 56.6388 54.482 
288 100 0.00000 49.6923 45.6046 23.5617 22.7937 
289 100 39.6031 19.0744 46.9779 31.4801 7.30022 
290 23.1141 25.4439 80.8825 15.7074 10.0715 59.9609 
291 35.7983 39.7794 56.1759 14.8766 14.4855 28.7048 
292 38.2268 35.4893 0.00000 9.59298 10.8648 2.45162 
293 72.7594 81.1269 43.9493 45.8979 56.5554 24.5602 
294 69.0748 89.5221 31.2176 47.7221 65.8057 18.4889 
295 40.9385 100 100 59.9738 81.8855 107.198 
296 60.8646 0.00000 100 32.2933 15.0678 95.7579 
297 69.8287 30.2912 86.7857 34.7983 20.8518 71.0055 
298 40.0062 21.1675 28.6922 8.92794 6.88613 7.98931 
299 24.877 74.7643 85.4592 33.9467 43.803 73.16 
300 0.00000 85.2151 15.2173 26.0023 50.4227 11.1072 
301 75.0156 27.9961 52.7011 28.8873 18.2304 25.3335 
302 62.3648 64.268 100 46.1561 41.6917 100.167 
303 82.2612 0.00000 14.595 27.5823 14.6673 3.9892 
304 36.4906 57.8007 18.8014 16.3921 24.2961 7.44931 
305 38.2234 65.6052 85.9049 32.3323 36.0741 72.5275 
306 76.309 65.95 29.5466 38.3411 40.7285 13.3554 
307 59.6575 100 81.0863 60.3719 82.8713 71.9898 
308 8.98569 93.1385 8.23124 31.61 61.4809 11.7645 
309 82.7135 46.938 0.00000 34.1874 27.9263 4.44964 
310 0.00000 84.9774 66.2001 32.5611 52.7983 46.4161 
311 18.3504 70.3647 50.2653 22.066 35.2278 26.7819 
312 15.5022 100 83.7729 49.223 77.025 75.8857 
313 6.99356 35.8234 71.2296 13.3001 11.9205 46.0917 
314 83.5994 83.1403 0.00000 51.531 61.6514 10.0461 
315 36.8923 67.2856 100 37.9758 39.5573 100.186 
316 62.9848 0.00000 19.0506 16.0145 8.67907 4.52314 
317 53.2799 15.492 90.54 26.029 13.3458 76.8431 
318 27.0973 11.2132 71.036 12.1342 6.41508 44.8267 
319 93.097 87.3635 58.8253 67.2272 73.2029 40.0255 
320 0.00000 68.9886 81.8882 27.7278 36.2556 66.0156 
321 88.1566 17.0546 76.6895 42.3692 22.4905 54.427 
322 38.5687 37.8833 71.9075 18.7206 15.381 47.4051 
323 76.2319 15.7221 44.144 26.808 15.0876 17.7052 
324 8.64916 51.1376 51.394 13.3449 18.7036 25.051 
325 100 21.7128 41.1216 45.7176 25.7986 16.6294 
326 72.0114 50.8809 23.9564 29.1893 27.1179 8.94135 
327 50.6065 91.9833 70.9126 47.4989 67.4891 54.5855 
328 60.19 22.684 22.2825 16.3141 11.0237 5.93843 
329 82.2482 64.8891 0.00000 40.6442 41.3356 6.69796 
330 18.0187 15.4515 100 20.7157 10.184 95.4249 
331 62.8417 72.0402 25.1884 33.234 42.6087 12.1716 
332 12.6455 78.3078 40.5375 24.4169 43.0335 20.6847 
333 42.7604 23.6523 44.7411 11.8771 8.65839 17.6973 
334 28.8952 49.2197 7.99075 11.2252 17.1284 4.24765 
335 69.2619 10.4405 64.7793 25.9858 13.6664 37.4697 
336 70.8576 52.1734 38.7729 30.3278 28.1974 16.3632 
337 23.7462 45.9012 100 27.053 21.7214 97.3182 
338 60.1645 51.6014 91.3157 36.7401 29.7873 80.9103 
339 0.00000 15.5935 16.683 2.16684 2.65593 3.47812 
340 41.0827 60.7155 63.4643 24.7585 29.6852 39.0602 
341 32.8057 11.2173 87.7112 18.2908 9.01103 71.2363 
342 27.0439 91.6667 84.625 44.7331 65.2617 75.2986 
343 29.9965 91.832 10.0891 33.3505 60.9645 11.8231 
344 11.4661 34.601 38.9136 7.2231 9.10536 13.9839 
345 80.7148 80.743 24.8986 48.8812 57.9775 14.2052 
346 45.0127 78.9995 42.6161 31.4703 47.2411 22.5571 
347 10.2769 55.3165 89.4904 24.7581 25.651 77.339 
348 87.8242 35.4677 81.5005 46.3283 28.4974 62.9056 
349 18.1659 100 54.481 42.1439 74.2263 37.1293 
350 49.048 91.2354 89.432 52.0076 68.3664 84.0416 
351 9.00694 89.9248 30.2306 30.5043 57.3556 17.2936 
352 13.6721 24.3948 52.08 7.57665 6.45541 23.6116 
353 44.8432 29.2794 59.2036 15.9122 11.7129 31.2638 
354 21.4159 56.7106 47.6227 15.9488 23.1006 22.5323 
355 64.8087 87.7731 9.81491 42.9346 61.6986 11.4203 
356 32.9399 40.4248 20.1485 10.0298 12.7255 5.93291 
357 99.2126 99.2126 99.2126 93.4296 98.2359 106.922 
358 56.1092 63.9552 74.2699 34.347 36.4044 53.9743 
359 45.1973 72.9454 27.6079 26.527 39.838 12.9564 
360 78.2542 21.3757 31.1192 27.2031 16.3206 9.96975 
361 49.005 61.9564 44.3701 24.4308 30.702 21.0127 
362 56.0878 34.0672 88.2278 29.0366 18.8924 73.5071 
363 10.8021 73.0724 9.72922 19.0882 36.2111 7.74424 
364 16.5244 100 19.4571 37.918 72.5155 15.8057 
365 15.553 17.7675 66.1427 9.85332 6.14442 38.5354 
366 89.024 70.4487 52.7247 52.747 51.0615 30.4361 
367 66.6408 18.9743 100 36.3319 18.7264 96.2514 
368 74.7349 65.2676 91.0568 50.1938 44.8459 82.6201 
369 54.1757 27.3292 36.1337 15.4693 11.4282 12.3099 
370 27.3982 27.8825 9.84973 5.90327 6.82819 2.78411 
371 45.4192 33.3634 21.1966 11.9898 11.3721 5.88577 
372 100 100 100 95.1065 100 108.844 
373 93.0431 47.1256 90.1466 56.4579 37.8599 79.2394 
374 84.5696 59.2188 60.0924 45.6061 39.6014 36.0478 
375 22.0471 63.9072 62.4875 21.8132 30.2467 38.187 
376 20.9653 55.651 21.3691 12.7122 21.1551 7.79003 
377 62.9279 89.8318 92.3412 58.1205 69.9268 89.4848 
378 83.2135 79.646 100 66.975 64.3639 103.447 
379 46.879 47.4657 65.0251 22.1778 21.1866 39.4193 
380 80.7055 41.7448 38.4732 33.482 25.1363 15.4177 
381 71.2854 19.2498 76.6938 30.9553 16.9288 53.961 
382 63.0289 70.3578 85.3159 44.0109 45.5423 72.7178 
383 34.3367 69.7217 53.7028 25.1309 36.2574 29.9507 
384 63.6361 8.79361 7.50624 16.2167 9.26576 2.41048 
385 46.5094 58.7143 30.2341 20.5616 26.8927 11.9387 
386 28.4106 22.3762 61.8605 11.2192 7.71901 33.6787 
387 57.6312 87.2079 57.6036 44.0737 61.1378 37.6308 
388 10.2688 67.1327 72.6503 24.5773 33.6015 51.6469 
389 48.5586 78.185 81.6765 40.8159 50.3574 67.7022 
390 88.5178 69.7274 87.5928 60.9252 53.703 77.4058 
391 13.0149 8.74999 86.7699 14.8735 7.08501 69.3696 
392 36.1247 85.9114 73.4829 39.402 57.0186 56.5608 
393 10.953 63.3587 36.4193 16.1391 27.4527 15.5343 
394 15.5655 37.4718 26.1189 6.94702 10.0382 7.62851 
395 20.2817 43.0605 79.352 18.4833 16.9511 58.7075 
396 71.4666 54.4342 56.9635 34.349 31.1327 31.6914 
397 16.0065 21.8899 34.5756 5.04051 4.94591 10.728 
398 27.0573 86.2343 30.2647 30.0746 53.4038 16.5694 
399 55.8886 66.6371 11.0416 26.5598 35.2558 7.36387 
400 96.6934 15.9113 6.92585 39.7019 22.0862 3.58432 
401 94.2216 85.8079 31.3024 63.1255 70.0162 18.5317 
402 80.8652 54.0565 83.9448 47.2583 36.7818 68.5115 
403 68.6436 24.2281 9.6018 20.3747 13.484 3.27153 
404 47.5543 45.2957 8.71226 15.1158 17.3545 4.17601 
405 55.5783 15.2554 60.9181 18.599 10.4546 32.7568 
406 54.6516 90.7037 29.322 41.2252 63.7062 17.537 
407 19.697 47.8713 35.8877 11.1043 16.2303 13.3247 
408 23.0513 79.6026 65.6094 30.8476 46.9632 44.6511 
409 86.1891 54.1053 13.9498 39.4594 34.142 6.99093 
410 89.3909 7.2545 88.8136 46.5385 23.2301 74.4853 
411 7.65811 10.0295 74.1335 10.7313 5.49415 49.0551 
412 33.7337 51.2479 76.7037 22.6145 22.8721 55.5625 
413 27.8559 29.5629 46.2805 9.33065 8.65635 19.0172 
414 61.0142 45.0848 62.7947 26.8542 22.6054 36.8015 
415 33.7319 9.79243 12.0775 5.38691 3.74377 2.56853 
416 8.18339 90.4387 57.6334 34.7018 59.6066 37.8598 
417 73.3455 61.4238 12.1611 33.418 35.3112 7.20016 
418 18.0809 58.1811 78.2457 22.9287 26.7632 58.6451 
419 58.9051 90.0677 43.494 44.2525 64.4185 25.8309 
420 59.3258 45.9627 41.7737 22.6119 21.2245 17.4107 
421 93.2804 41.5937 69.1543 48.7666 32.3103 45.3808 
422 60.8945 15.228 46.9869 18.4951 10.6915 19.4886 
423 76.0835 11.5319 92.1437 38.3172 19.1845 80.3548 
424 86.2292 26.2433 14.6239 32.505 20.1477 4.79385 
425 90.3036 40.3773 9.23755 38.3531 27.3624 4.95337 
426 49.0907 8.9431 12.7311 9.96359 6.03562 2.88617 
427 22.1101 41.9222 47.7611 11.2964 13.6186 21.0601 
428 66.6124 9.99855 32.9955 19.3277 10.7925 10.2593 
429 84.0295 27.8636 66.1492 37.8305 22.489 40.2249 
430 34.3462 35.0751 90.7829 22.8693 15.9194 77.961 
431 74.4452 91.877 16.7814 51.6231 70.4054 13.9747 
432 12.552 80.4206 77.654 33.3159 48.5989 61.4047 
433 92.3939 68.556 9.99626 50.4402 48.9445 8.58925 
434 50.8161 11.8019 27.4371 11.6064 7.02796 7.33733 
435 6.73369 11.9382 52.0872 5.88227 3.73265 23.1818 
436 89.3027 8.27317 46.4544 36.1216 19.1279 19.7647 
437 0.00000 0.00000 0.00000 1 1 1 
438 50.987 71.0227 92.8708 41.6073 44.502 86.4664 
439 72.1995 88.0746 60.66 52.9765 66.5259 41.4826 
440 39.643 3.0572 65.3779 13.2869 6.66377 37.5136 
441 8.44194 72.2077 60.6346 24.1405 37.4831 37.3671 
442 49.4478 93.5069 14.6841 40.2686 66.3236 13.3109 
443 10.7227 36.7436 57.8734 10.6521 11.2103 30.0344 
444 86.4801 97.4985 37.6858 65.8978 83.824 24.5521 
445 89.5727 21.4615 90.17 48.278 25.7305 77.3723 
446 88.53 17.0047 56.3716 37.8087 20.6932 28.8924 
447 15.114 44.1126 13.7435 7.90237 13.1172 4.55368 
448 42.5232 85.6989 56.5249 37.1294 56.0935 35.9165 
449 36.2251 13.0846 54.7959 10.6224 6.23566 25.9708 
450 11.8157 85.3799 92.0339 41.0863 56.6892 87.2386 
451 54.8325 29.8456 8.49429 14.3844 11.6932 3.09397 
452 18.3727 6.5912 47.7378 5.81091 3.37031 19.3517 
453 40.8266 26.0731 80.8807 19.6815 12.2576 60.1706 
454 35.9608 67.981 39.003 22.4539 33.8584 18.0165 
455 9.64899 10.0716 28.355 2.91414 2.38435 7.28968 
456 70.6534 41.8938 49.4066 28.5893 22.4934 23.2387 
457 74.1768 39.753 72.5512 35.1287 24.485 49.1927 
458 60.4885 59.3627 33.9763 26.9457 30.5323 14.1872 
459 73.4816 10.4166 20.7803 22.3958 12.5194 5.43098 
460 78.557 41.7779 91.4352 44.4099 29.3497 80.648 
461 73.1991 83.8678 90.0725 59.0783 64.5976 84.125 
462 90.7377 89.6138 12.1197 61.6018 73.1928 13.0208 
