Pre-made_Targets/Patch Width 8-11mm - Expert (Use rig-guide-ruler)/Designed Targets/CM-Expert-13x18cm-507p-3pages-w9.5mm-13x13/13x18-profile.ti2
CTI2

DESCRIPTOR "Argyll Calibration Target chart information 2"
ORIGINATOR "Argyll printtarg"
CREATED "Tue Nov 01 12:05:44 2022"
TARGET_INSTRUMENT "X-Rite ColorMunki"
COMP_GREY_STEPS "128"
APPROX_WHITE_POINT "95.106486 100.000000 108.844025"
COLOR_REP "iRGB"
PAPER_SIZE "120.0x180.0"
RANDOM_START "317"
STEPS_IN_PASS "13"
PASSES_IN_STRIPS2 "13,13,13"
STRIP_INDEX_PATTERN "A-Z, A-Z"
PATCH_INDEX_PATTERN "0-9,@-9,@-9;1-999"
INDEX_ORDER "STRIP_THEN_PATCH"

NUMBER_OF_FIELDS 8
BEGIN_DATA_FORMAT
SAMPLE_ID SAMPLE_LOC RGB_R RGB_G RGB_B XYZ_X XYZ_Y XYZ_Z
END_DATA_FORMAT

NUMBER_OF_SETS 507
BEGIN_DATA
1 "T3" 100 100 100 95.1065 100 108.844
2 "E2" 28.3467 28.3467 28.3467 7.14675 7.46638 8.04404
3 "N12" 68.6168 32.5673 36.8246 23.5594 16.9513 13.3554
4 "P2" 0.00000 100 73.2723 45.2695 75.3457 59.4908
5 "AE11" 25.6977 81.6693 46.9856 28.9326 48.2508 26.1877
6 "AD7" 79.527 79.527 79.527 57.0734 59.9892 65.2589
7 "H8" 33.8582 33.8582 33.8582 9.82877 10.2879 11.1176
8 "N3" 89.2851 86.6804 71.6426 66.6149 71.8629 55.4194
9 "K12" 88.4993 55.4452 72.7138 50.1515 39.4139 51.5103
10 "AE10" 98.4253 98.4253 98.4253 91.7703 96.4903 105.021
11 "D12" 97.6379 97.6379 97.6379 90.1285 94.7631 103.139
12 "K10" 96.8505 96.8505 96.8505 88.5041 93.0543 101.278
13 "AG11" 96.0632 96.0632 96.0632 86.8972 91.3638 99.4363
14 "M12" 95.2758 95.2758 95.2758 85.3076 89.6915 97.6147
15 "A12" 94.4884 94.4884 94.4884 83.7352 88.0375 95.8128
16 "R9" 93.7011 93.7011 93.7011 82.1802 86.4015 94.0307
17 "AM7" 92.9137 92.9137 92.9137 80.6423 84.7837 92.2684
18 "AJ6" 92.1263 92.1263 92.1263 79.1215 83.1838 90.5256
19 "AF10" 91.339 91.339 91.339 77.6178 81.6019 88.8024
20 "Y7" 90.5516 90.5516 90.5516 76.1312 80.038 87.0987
21 "O11" 89.7642 89.7642 89.7642 74.6615 78.4919 85.4145
22 "J8" 88.9769 88.9769 88.9769 73.2087 76.9635 83.7496
23 "AM4" 88.1895 88.1895 88.1895 71.7727 75.4529 82.1041
24 "C12" 87.4022 87.4022 87.4022 70.3536 73.96 80.4778
25 "Z6" 86.6148 86.6148 86.6148 68.9512 72.4846 78.8706
26 "R4" 85.8274 85.8274 85.8274 67.5655 71.0269 77.2826
27 "N5" 85.0401 85.0401 85.0401 66.1964 69.5866 75.7137
28 "AF12" 84.2527 84.2527 84.2527 64.8439 68.1637 74.1637
29 "AG7" 83.4653 83.4653 83.4653 63.5079 66.7583 72.6327
30 "D4" 82.678 82.678 82.678 62.1883 65.3701 71.1205
31 "AG9" 81.8891 81.8891 81.8891 60.8851 63.9991 69.6271
32 "X9" 81.1017 81.1017 81.1017 59.5983 62.6454 68.1524
33 "I11" 80.3143 80.3143 80.3143 58.3277 61.3088 66.6964
34 "B3" 0.00000 0.00000 0.00000 1 1 1
35 "AJ10" 78.7396 78.7396 78.7396 55.8352 58.6866 63.84
36 "F12" 77.9522 77.9522 77.9522 54.6131 57.401 62.4395
37 "Q12" 77.1649 77.1649 77.1649 53.4071 56.1323 61.0574
38 "G12" 76.3775 76.3775 76.3775 52.217 54.8803 59.6936
39 "AD9" 75.5901 75.5901 75.5901 51.0429 53.6451 58.3481
40 "C3" 74.8028 74.8028 74.8028 49.8846 52.4266 57.0207
41 "P4" 74.0154 74.0154 74.0154 48.7421 51.2246 55.7114
42 "AI5" 73.228 73.228 73.228 47.6153 50.0393 54.4201
43 "H4" 72.4407 72.4407 72.4407 46.5042 48.8704 53.1468
44 "AE12" 71.6533 71.6533 71.6533 45.4087 47.7179 51.8914
45 "J2" 70.8659 70.8659 70.8659 44.3287 46.5818 50.6538
46 "O4" 70.0786 70.0786 70.0786 43.2642 45.4619 49.4339
47 "K3" 69.2912 69.2912 69.2912 42.2151 44.3583 48.2317
48 "AD4" 68.5039 68.5039 68.5039 41.1814 43.2708 47.047
49 "AJ3" 67.7165 67.7165 67.7165 40.163 42.1994 45.8799
50 "AH10" 66.9291 66.9291 66.9291 39.1598 41.1441 44.7303
51 "AA9" 66.1418 66.1418 66.1418 38.1717 40.1046 43.598
52 "C10" 65.3544 65.3544 65.3544 37.1987 39.081 42.4829
53 "V9" 64.567 64.567 64.567 36.2407 38.0733 41.3851
54 "AK5" 63.7797 63.7797 63.7797 35.2977 37.0812 40.3045
55 "AM11" 62.9923 62.9923 62.9923 34.3696 36.1048 39.2409
56 "W12" 62.2049 62.2049 62.2049 33.4563 35.144 38.1942
57 "AK10" 61.4176 61.4176 61.4176 32.5578 34.1988 37.1645
58 "Y4" 60.6302 60.6302 60.6302 31.6739 33.2689 36.1516
59 "O9" 59.8428 59.8428 59.8428 30.8046 32.3545 35.1555
60 "F8" 59.0555 59.0555 59.0555 29.9499 31.4553 34.176
61 "C5" 58.2681 58.2681 58.2681 29.1097 30.5714 33.2131
62 "AH12" 57.4807 57.4807 57.4807 28.2838 29.7026 32.2667
63 "W9" 56.6934 56.6934 56.6934 27.4723 28.8489 31.3367
64 "L8" 55.906 55.906 55.906 26.6751 28.0101 30.4231
65 "AI10" 55.1186 55.1186 55.1186 25.892 27.1864 29.5257
66 "B4" 54.3313 54.3313 54.3313 25.123 26.3774 28.6445
67 "W3" 53.5439 53.5439 53.5439 24.3681 25.5832 27.7793
68 "B9" 52.7565 52.7565 52.7565 23.6271 24.8037 26.9302
69 "AH5" 51.9692 51.9692 51.9692 22.9001 24.0389 26.097
70 "E5" 51.1818 51.1818 51.1818 22.1868 23.2885 25.2796
71 "P9" 50.3944 50.3944 50.3944 21.4873 22.5526 24.478
72 "U3" 49.6056 49.6056 49.6056 20.8014 21.8311 23.692
73 "L5" 48.8182 48.8182 48.8182 20.1292 21.1239 22.9216
74 "AF6" 48.0308 48.0308 48.0308 19.4704 20.4309 22.1667
75 "T6" 47.2435 47.2435 47.2435 18.8251 19.752 21.4271
76 "E13" 46.4561 46.4561 46.4561 18.1931 19.0871 20.7029
77 "C1" 45.6687 45.6687 45.6687 17.5743 18.4362 19.9938
78 "I13" 44.8814 44.8814 44.8814 16.9688 17.7992 19.2999
79 "T4" 44.094 44.094 44.094 16.3764 17.1759 18.621
80 "Z1" 43.3066 43.3066 43.3066 15.797 16.5664 17.957
81 "L13" 42.5193 42.5193 42.5193 15.2305 15.9705 17.3078
82 "AE8" 41.7319 41.7319 41.7319 14.6769 15.3881 16.6734
83 "J11" 40.9445 40.9445 40.9445 14.136 14.8191 16.0536
84 "M6" 40.1572 40.1572 40.1572 13.6079 14.2635 15.4484
85 "Y13" 39.3698 39.3698 39.3698 13.0923 13.7211 14.8576
86 "AG12" 38.5824 38.5824 38.5824 12.5893 13.1919 14.2811
87 "AH3" 37.7951 37.7951 37.7951 12.0987 12.6758 13.7188
88 "Y9" 37.0077 37.0077 37.0077 11.6204 12.1726 13.1707
89 "T13" 36.2203 36.2203 36.2203 11.1543 11.6824 12.6367
90 "E11" 35.433 35.433 35.433 10.7005 11.2049 12.1165
91 "O12" 34.6456 34.6456 34.6456 10.2586 10.7401 11.6102
92 "C8" 0.00000 0.00000 0.00000 1 1 1
93 "K9" 33.0709 33.0709 33.0709 9.41078 9.84814 10.6386
94 "AB2" 32.2835 32.2835 32.2835 9.00457 9.4208 10.1731
95 "F1" 31.4961 31.4961 31.4961 8.61004 9.00576 9.72094
96 "D3" 30.7088 30.7088 30.7088 8.22709 8.6029 9.28209
97 "AK1" 29.9214 29.9214 29.9214 7.85563 8.21212 8.8564
98 "N6" 29.1341 29.1341 29.1341 7.49555 7.83331 8.44376
99 "AL12" 100 100 100 95.1065 100 108.844
100 "AJ5" 27.5593 27.5593 27.5593 6.80912 7.1112 7.65713
101 "AL13" 26.772 26.772 26.772 6.48257 6.76767 7.28291
102 "U10" 25.9846 25.9846 25.9846 6.16699 6.43567 6.92126
103 "S3" 25.1972 25.1972 25.1972 5.86227 6.1151 6.57205
104 "AA12" 24.4099 24.4099 24.4099 5.56829 5.80584 6.23516
105 "AC5" 23.6225 23.6225 23.6225 5.28495 5.50777 5.91047
106 "A11" 22.8351 22.8351 22.8351 5.01214 5.22077 5.59783
107 "Z12" 22.0478 22.0478 22.0478 4.74974 4.94473 5.29712
108 "A2" 21.2604 21.2604 21.2604 4.49763 4.67951 5.00821
109 "U5" 20.473 20.473 20.473 4.2557 4.42499 4.73096
110 "A9" 19.6857 19.6857 19.6857 4.02382 4.18106 4.46523
111 "O3" 18.8983 18.8983 18.8983 3.80187 3.94757 4.21089
112 "O1" 18.1109 18.1109 18.1109 3.58973 3.7244 3.96778
113 "V7" 17.322 17.322 17.322 3.38727 3.5114 3.73575
114 "J7" 16.5347 16.5347 16.5347 3.19435 3.30845 3.51468
115 "AA10" 15.7473 15.7473 15.7473 3.01084 3.11541 3.30439
116 "AM1" 14.9599 14.9599 14.9599 2.83662 2.93212 3.10473
117 "AG1" 14.1726 14.1726 14.1726 2.67153 2.75845 2.91554
118 "B1" 13.3852 13.3852 13.3852 2.51544 2.59425 2.73667
119 "Z8" 12.5978 12.5978 12.5978 2.36821 2.43935 2.56794
120 "AI12" 11.8105 11.8105 11.8105 2.22967 2.29361 2.40917
121 "AG6" 11.0231 11.0231 11.0231 2.09968 2.15686 2.26021
122 "AL9" 10.2358 10.2358 10.2358 1.97808 2.02894 2.12086
123 "F10" 9.44839 9.44839 9.44839 1.86471 1.90967 1.99094
124 "T2" 8.66102 8.66102 8.66102 1.7594 1.79889 1.87025
125 "AF4" 7.87366 7.87366 7.87366 1.66198 1.6964 1.75861
126 "P3" 7.08629 7.08629 7.08629 1.57226 1.60202 1.6558
127 "D9" 6.29892 6.29892 6.29892 1.49007 1.51556 1.56161
128 "D7" 5.51156 5.51156 5.51156 1.41522 1.43681 1.47583
129 "V12" 4.72419 4.72419 4.72419 1.34749 1.36556 1.39822
130 "D13" 3.93683 3.93683 3.93683 1.28669 1.3016 1.32854
131 "I5" 3.14946 3.14946 3.14946 1.22941 1.24134 1.2629
132 "AE3" 2.3621 2.3621 2.3621 1.17206 1.181 1.19717
133 "Z3" 1.57473 1.57473 1.57473 1.11471 1.12067 1.13145
134 "E8" 0.787366 0.787366 0.787366 1.05735 1.06033 1.06572
135 "AE4" 100 100 0.00000 77.2354 92.8527 14.7151
136 "B10" 100 0.00000 100 59.7013 29.1995 97.0422
137 "N7" 0.00000 100 100 54.2763 78.9478 106.931
138 "S13" 0.00000 100 0.00000 36.4052 71.8005 12.8018
139 "AK4" 0.00000 0.00000 100 18.8711 8.14731 95.129
140 "M8" 100 0.00000 0.00000 41.8302 22.0522 2.91323
141 "E6" 0.00000 34.5647 100 22.3375 15.0791 96.2844
142 "AM13" 100 50.9438 0.00000 49.7212 37.8321 5.5436
143 "AM8" 100 0.00000 66.9841 49.09 24.9556 41.1514
144 "N13" 0.00000 100 47.3457 39.8059 73.1606 30.7136
145 "Y1" 40.9949 100 0.00000 42.1193 74.7467 13.0696
146 "A8" 40.5722 0.00000 100 24.4613 11.0296 95.3909
147 "F2" 0.00000 75.0469 0.00000 19.5259 38.0467 7.17536
148 "AH13" 100 41.5976 100 64.8119 39.4193 98.7457
149 "Q7" 0.00000 0.00000 40.7797 3.47324 1.98914 14.0268
150 "W1" 45.3422 0.00000 0.00000 8.08139 4.65119 1.33182
151 "AJ8" 100 100 40.1511 79.6288 93.8099 27.3215
152 "AL1" 61.9394 100 100 68.2258 86.1402 107.584
153 "AD5" 0.00000 51.4427 100 26.9309 24.2646 97.8156
154 "AI6" 100 0.00000 32.4895 43.3702 22.6681 11.025
155 "U11" 0.00000 50.0954 0.00000 8.60923 16.2163 3.53643
156 "A5" 0.00000 80.3815 49.2653 26.3133 45.6926 27.7167
157 "AK2" 59.5209 39.8032 0.00000 18.4349 16.899 3.15071
158 "K5" 71.4595 0.00000 49.7871 23.9412 12.3902 21.8596
159 "G8" 43.1022 100 59.0082 48.2489 77.2724 42.0067
160 "X7" 100 57.7661 58.6801 57.6286 44.9715 34.9276
161 "L12" 68.0827 41.2558 100 41.0892 27.0562 97.6087
162 "AC6" 100 100 100 95.1065 100 108.844
163 "N8" 100 62.7131 100 72.1336 54.0607 101.186
164 "M2" 0.00000 33.5775 48.6168 7.86537 8.96916 21.0514
165 "S8" 100 26.0243 0.00000 43.7801 25.9515 3.56322
166 "D6" 60.6744 100 0.00000 49.7356 78.6737 13.4265
167 "B6" 17.9538 62.9923 100 32.5317 33.8235 99.3657
168 "J4" 36.9635 0.00000 49.6407 9.36246 4.8761 21.0517
169 "X3" 48.8258 100 40.1526 47.1012 77.0385 25.7982
170 "AM12" 20.8576 60.708 0.00000 14.0365 24.8977 4.92634
171 "H10" 0.00000 0.00000 79.8611 11.7488 5.29885 57.6151
172 "AC12" 20.3983 100 100 55.6793 79.6712 106.997
173 "R1" 0.00000 67.8874 100 33.6878 37.7765 100.068
174 "Y5" 71.5846 0.00000 0.00000 20.2264 10.9132 1.90091
175 "U4" 20.0809 0.00000 100 20.2332 8.84961 95.1928
176 "AF11" 100 100 61.9852 83.3511 95.2986 46.9274
177 "AL2" 81.1292 0.00000 100 44.3145 21.266 96.3212
178 "K11" 41.4511 56.5118 0.00000 16.7396 23.7931 4.57076
179 "E9" 100 20.0107 19.3484 43.5595 24.6208 6.23286
180 "AG2" 100 81.326 19.675 64.5866 66.6409 13.3292
181 "M1" 0.00000 48.7114 80.6577 19.1541 19.7191 61.2805
182 "AC13" 21.0575 0.00000 0.00000 2.49003 1.76826 1.06982
183 "H11" 46.7018 82.4918 100 49.3202 57.8407 103.118
184 "H3" 100 100 20.2991 77.8437 93.096 17.9194
185 "R5" 0.00000 24.4434 0.00000 2.72339 4.4463 1.57447
186 "AH9" 62.3133 80.2152 0.00000 36.6444 51.2992 8.83189
187 "C11" 100 41.4023 38.4833 49.0788 33.0454 16.1295
188 "W8" 0.00000 0.00000 17.1313 1.44428 1.17768 3.34005
189 "G10" 80.8011 100 100 79.4891 91.9476 108.112
190 "AH11" 0.00000 60.8164 20.0748 13.2142 24.4719 8.01079
191 "N1" 80.174 100 80.412 72.0961 88.9402 71.4605
192 "AB5" 41.8906 17.9263 100 25.8091 13.1437 95.728
193 "T10" 100 25.3666 81.8814 55.0535 30.306 63.4167
194 "K2" 21.2222 100 0.00000 37.9175 72.5803 12.8727
195 "AF2" 74.049 100 40.5097 59.579 83.4669 26.6186
196 "AC4" 71.4183 0.00000 81.5564 31.3959 15.3688 61.25
197 "R2" 36.3287 17.1847 0.00000 6.31835 5.05591 1.5028
198 "AA4" 0.00000 26.7903 79.7436 13.7789 9.41515 58.1172
199 "J3" 21.8158 0.00000 78.6984 12.995 5.98166 55.8568
200 "I4" 66.3127 81.7136 100 57.512 61.346 103.363
201 "AC10" 40.0458 100 19.939 42.4314 74.8396 16.1547
202 "AI13" 56.611 0.00000 35.9121 14.3434 7.66082 11.5137
203 "E1" 19.9969 81.1292 0.00000 24.4135 45.8149 8.41744
204 "Y6" 0.00000 88.3665 84.7135 40.0227 59.3979 74.5672
205 "AL11" 23.9628 0.00000 16.4202 3.32339 2.15035 3.25711
206 "F7" 100 62.9786 38.6252 56.5848 48.0285 18.7148
207 "Z10" 100 76.4019 0.00000 61.1127 60.6118 9.34078
208 "AD11" 0.00000 40.3479 15.3185 6.15454 10.726 4.51198
209 "S6" 24.3397 29.5415 100 23.3555 14.1897 96.0591
210 "AI1" 34.4945 52.0302 50.8644 17.2111 21.159 24.8487
211 "AC1" 100 0.00000 15.2651 42.1915 22.1967 4.81664
212 "AF1" 0.00000 61.1612 46.2501 15.9977 25.8177 21.9545
213 "A4" 100 46.2669 79.4369 58.8631 39.1218 60.9928
214 "AF8" 54.2977 29.0654 73.3303 22.7647 14.8045 49.073
215 "AM3" 45.8808 52.6223 100 34.5997 28.8215 98.2913
216 "R11" 52.723 0.00000 60.8118 16.6677 8.40009 32.3439
217 "P5" 38.3322 90.8492 38.4924 36.6266 61.3786 22.2599
218 "S4" 100 83.5172 100 83.2514 76.2932 104.892
219 "K1" 74.6365 35.7763 18.8678 26.3584 19.5397 6.02455
220 "Q13" 22.6047 0.00000 60.2808 8.45846 4.18035 31.3737
221 "AJ13" 23.2242 81.6846 100 43.0735 53.8759 102.681
222 "H7" 100 59.6658 18.8098 53.4985 44.5416 9.40536
223 "W7" 59.6536 73.7087 41.0483 34.1457 44.2108 20.7433
224 "AC3" 25.1987 100 37.4701 40.585 73.7162 23.803
225 "A3" 42.8855 16.4004 70.4311 16.2171 9.11443 44.3145
226 "Y12" 0.00000 77.8759 32.134 22.6319 41.8491 15.6392
227 "M7" 0.00000 0.00000 59.7101 6.63244 3.25262 30.6666
228 "G6" 100 77.0108 60.6989 67.2978 63.6384 40.2135
229 "E12" 0.00000 83.8636 100 42.6424 55.6833 103.053
230 "C13" 0.00000 100 27.2419 37.4831 72.2316 18.4793
231 "D1" 0.00000 62.5849 64.0482 19.9499 28.3774 39.7514
232 "W10" 81.8967 100 22.5452 63.1355 85.4968 17.9347
233 "AJ2" 83.0762 28.2567 100 48.0064 26.5799 97.1525
234 "P11" 100 100 82.0127 88.6461 97.4163 74.8165
235 "J5" 0.00000 29.5262 26.9429 4.56535 6.44273 7.3911
236 "AK7" 26.981 50.7713 63.566 17.7146 20.4958 37.7777
237 "AH4" 100 18.9715 64.8096 49.64 26.8743 38.8094
238 "R13" 17.2091 18.0972 0.00000 2.99639 3.4734 1.37229
239 "F6" 79.4202 30.4234 0.00000 27.923 18.8412 3.02589
240 "AD3" 19.7482 0.00000 36.2524 4.25182 2.45319 11.2374
241 "H12" 81.4252 43.7491 59.7742 37.9863 27.8598 33.8345
242 "AA13" 100 20.0931 100 60.8837 31.564 97.4363
243 "O10" 80.5615 100 0.00000 61.4499 84.7136 13.9754
244 "X1" 33.5256 69.2622 74.0352 29.317 37.5429 54.1223
245 "AA2" 25.8183 100 69.2943 46.4463 76.0723 54.1338
246 "K4" 0.00000 20.2777 61.5839 8.23194 5.81691 33.1559
247 "AD8" 18.9853 39.7024 0.00000 6.85696 10.8926 2.60108
248 "AL10" 83.418 100 57.7646 68.7297 87.8613 41.6588
249 "K6" 33.3639 53.3089 35.2163 15.2429 21.0573 13.6566
250 "Q11" 61.1765 60.3845 0.00000 26.0117 30.871 5.44865
251 "AF7" 81.1948 55.819 100 53.987 40.5407 99.5323
252 "A10" 61.3718 100 20.0076 50.6671 79.0855 16.5607
253 "G9" 56.1181 33.5927 50.6538 19.4347 14.9 23.3375
254 "AI4" 82.8717 0.00000 37.9431 29.8136 15.6106 13.4435
255 "W13" 43.8331 0.00000 78.1064 17.8136 8.48631 55.1713
256 "X8" 41.7319 79.1073 0.00000 27.7805 45.7471 8.22702
257 "P1" 60.3449 39.9023 23.2898 19.6427 17.4662 7.34656
258 "F9" 0.00000 17.0825 100 19.7467 9.89823 95.4208
259 "AB12" 100 37.7279 59.7223 51.6254 32.625 33.9803
260 "AB4" 57.4212 18.9654 0.00000 13.8719 9.21169 1.90715
261 "X5" 63.5798 100 60.2655 56.9318 81.7192 43.771
262 "T7" 47.602 35.1659 100 30.3245 19.3848 96.6949
263 "AF9" 0.00000 17.4655 38.9929 4.16195 3.72308 13.1562
264 "N10" 100 65.6977 81.0391 66.7162 54.046 66.0152
265 "B5" 79.9649 0.00000 65.0813 32.441 16.4233 38.0265
266 "D11" 100 82.3087 42.6993 67.3474 68.7174 24.8719
267 "AA8" 100 0.00000 83.3417 53.6615 26.7839 65.2298
268 "AD6" 40.2045 100 81.6098 53.174 79.1412 72.4992
269 "I6" 51.339 79.3118 15.0637 31.5748 47.8423 10.2823
270 "AK8" 55.0515 72.575 57.1008 34.0687 42.9725 34.1326
271 "L10" 26.5049 15.7214 40.4044 6.51163 4.6807 14.1356
272 "AG3" 42.5513 23.4348 11.5877 8.99769 7.45336 3.01112
273 "L2" 81.5747 58.2712 46.8544 40.6602 36.7615 23.2473
274 "S11" 43.1922 44.9683 85.6825 26.0097 21.3916 69.6403
275 "C4" 89.6635 30.9331 29.8711 36.9359 23.4741 10.2472
276 "G2" 41.091 0.00000 23.4287 7.54307 4.28101 5.48686
277 "V13" 0.00000 45.0004 62.7863 13.3334 15.5985 36.1514
278 "B7" 100 83.7598 78.9044 75.9971 73.6395 65.9195
279 "N9" 91.3512 70.312 24.9851 51.18 50.5414 12.681
280 "Q2" 0.00000 0.00000 0.00000 1 1 1
281 "AD12" 72.0912 58.0697 74.6609 40.2723 35.7582 54.1037
282 "AM10" 89.7978 6.61784 69.2836 41.0091 21.0155 43.7798
283 "Z11" 56.7376 53.7362 19.0295 21.9054 24.8672 7.33179
284 "U2" 82.7222 13.3806 0.00000 28.1498 15.8442 2.43544
285 "F13" 27.2724 70.0282 10.9178 19.5495 34.1015 7.49075
286 "R3" 0.00000 45.2033 38.2361 9.25981 14.0624 14.4084
287 "AH1" 61.1032 82.0218 72.2942 45.7531 56.6388 54.482
288 "T5" 100 0.00000 49.6925 45.6046 23.5617 22.7937
289 "T8" 100 39.6033 19.0738 46.9779 31.4801 7.30022
290 "V10" 23.1144 25.4444 80.882 15.7074 10.0715 59.9609
291 "AD1" 35.7977 39.7787 56.1761 14.8766 14.4855 28.7048
292 "U6" 38.2269 35.4894 0.00000 9.59298 10.8648 2.45162
293 "G7" 72.7596 81.1276 43.949 45.8979 56.5554 24.5602
294 "J6" 69.0745 89.5216 31.2169 47.7221 65.8057 18.4889
295 "E4" 40.9384 100 100 59.9738 81.8855 107.198
296 "E3" 60.8652 0.00000 100 32.2933 15.0678 95.7579
297 "B8" 69.8283 30.2907 86.7857 34.7983 20.8518 71.0055
298 "AA6" 40.0061 21.1673 28.6915 8.92794 6.88613 7.98931
299 "AL7" 24.8768 74.7646 85.4597 33.9467 43.803 73.16
300 "X13" 0.00000 85.2155 15.2178 26.0023 50.4227 11.1072
301 "AA3" 75.0149 27.9957 52.7016 28.8873 18.2304 25.3335
302 "F4" 62.3651 64.2679 100 46.1561 41.6917 100.167
303 "O7" 82.2614 0.00000 14.5953 27.5823 14.6673 3.9892
304 "G11" 36.4904 57.8012 18.8006 16.3921 24.2961 7.44931
305 "AK3" 38.2238 65.6046 85.9052 32.3323 36.0741 72.5275
306 "AC9" 76.3088 65.9495 29.546 38.3411 40.7285 13.3554
307 "G5" 59.6582 100 81.0864 60.3719 82.8713 71.9898
308 "Y3" 8.98604 93.138 8.23072 31.61 61.4809 11.7645
309 "AF5" 82.7131 46.9383 0.00000 34.1874 27.9263 4.44964
310 "AI11" 0.00000 84.9775 66.1997 32.5611 52.7983 46.4161
311 "AE9" 18.3505 70.3655 50.2647 22.066 35.2278 26.7819
312 "W4" 15.5016 100 83.7736 49.223 77.025 75.8857
313 "A1" 6.99321 35.8236 71.2291 13.3001 11.9205 46.0917
314 "Z13" 83.5996 83.1403 0.00000 51.531 61.6514 10.0461
315 "AM2" 36.8917 67.2862 100 37.9758 39.5573 100.186
316 "C9" 62.9847 0.00000 19.0509 16.0145 8.67907 4.52314
317 "AC8" 53.2799 15.4925 90.5394 26.029 13.3458 76.8431
318 "E7" 27.097 11.2139 71.0353 12.1342 6.41508 44.8267
319 "Y8" 93.0968 87.364 58.8251 67.2272 73.2029 40.0255
320 "B12" 0.00000 68.9891 81.8875 27.7278 36.2556 66.0156
321 "AA7" 88.1559 17.055 76.6888 42.3692 22.4905 54.427
322 "U7" 38.5687 37.8836 71.9081 18.7206 15.381 47.4051
323 "K8" 76.2325 15.7214 44.1444 26.808 15.0876 17.7052
324 "AC7" 8.64881 51.1376 51.3939 13.3449 18.7036 25.051
325 "Z7" 100 21.7121 41.1215 45.7176 25.7986 16.6294
326 "M11" 72.0119 50.8812 23.9567 29.1893 27.1179 8.94135
327 "Q9" 50.6065 91.9829 70.9133 47.4989 67.4891 54.5855
328 "A6" 60.1907 22.6841 22.2827 16.3141 11.0237 5.93843
329 "L3" 82.2477 64.889 0.00000 40.6442 41.3356 6.69796
330 "I9" 18.0194 15.4513 100 20.7157 10.184 95.4249
331 "J13" 62.8412 72.0409 25.1881 33.234 42.6087 12.1716
332 "B2" 12.6452 78.3078 40.5371 24.4169 43.0335 20.6847
333 "R10" 42.7604 23.653 44.741 11.8771 8.65839 17.6973
334 "AM5" 28.8945 49.2195 7.99115 11.2252 17.1284 4.24765
335 "V1" 69.2622 10.4402 64.7791 25.9858 13.6664 37.4697
336 "U1" 70.8583 52.1736 38.7732 30.3278 28.1974 16.3632
337 "T12" 23.7461 45.9007 100 27.053 21.7214 97.3182
338 "Z9" 60.1648 51.6014 91.3161 36.7401 29.7873 80.9103
339 "J1" 0.00000 15.5932 16.6827 2.16684 2.65593 3.47812
340 "I2" 41.0834 60.7156 63.4638 24.7585 29.6852 39.0602
341 "AD13" 32.8054 11.2169 87.7119 18.2908 9.01103 71.2363
342 "AL3" 27.0436 91.667 84.625 44.7331 65.2617 75.2986
343 "AJ4" 29.9962 91.8318 10.0893 33.3505 60.9645 11.8231
344 "R6" 11.4656 34.6014 38.9136 7.2231 9.10536 13.9839
345 "AH2" 80.7141 80.7431 24.8981 48.8812 57.9775 14.2052
346 "I1" 45.0126 78.999 42.6154 31.4703 47.2411 22.5571
347 "C7" 10.277 55.317 89.4911 24.7581 25.651 77.339
348 "E10" 87.8248 35.4681 81.5 46.3283 28.4974 62.9056
349 "I3" 18.1659 100 54.4808 42.1439 74.2263 37.1293
350 "J10" 49.0486 91.2352 89.4316 52.0076 68.3664 84.0416
351 "AB11" 9.0074 89.9245 30.2312 30.5043 57.3556 17.2936
352 "H1" 13.6721 24.3946 52.0806 7.57665 6.45541 23.6116
353 "AE1" 44.8432 29.279 59.2035 15.9122 11.7129 31.2638
354 "Q4" 21.416 56.7102 47.6234 15.9488 23.1006 22.5323
355 "U9" 64.8081 87.7729 9.8146 42.9346 61.6986 11.4203
356 "U12" 32.9397 40.4242 20.148 10.0298 12.7255 5.93291
357 "S2" 99.2126 99.2126 99.2126 93.4296 98.2359 106.922
358 "G3" 56.1089 63.9551 74.2702 34.347 36.4044 53.9743
359 "R7" 45.1972 72.9458 27.6081 26.527 39.838 12.9564
360 "D5" 78.2544 21.3764 31.1192 27.2031 16.3206 9.96975
361 "Q8" 49.0043 61.9562 44.3702 24.4308 30.702 21.0127
362 "AA5" 56.0876 34.0673 88.2277 29.0366 18.8924 73.5071
363 "AB10" 10.8019 73.0724 9.72915 19.0882 36.2111 7.74424
364 "T1" 16.524 100 19.4568 37.918 72.5155 15.8057
365 "Q5" 15.5535 17.7676 66.1433 9.85332 6.14442 38.5354
366 "M10" 89.0242 70.4494 52.7245 52.747 51.0615 30.4361
367 "AL5" 66.6407 18.9746 100 36.3319 18.7264 96.2514
368 "V2" 74.7356 65.2674 91.0567 50.1938 44.8459 82.6201
369 "AC11" 54.1756 27.3289 36.1334 15.4693 11.4282 12.3099
370 "S9" 27.3976 27.8828 9.8497 5.90327 6.82819 2.78411
371 "Z5" 45.4185 33.3639 21.1963 11.9898 11.3721 5.88577
372 "AB3" 100 100 100 95.1065 100 108.844
373 "AF13" 93.0434 47.126 90.1472 56.4579 37.8599 79.2394
374 "AL4" 84.5701 59.2187 60.0931 45.6061 39.6014 36.0478
375 "Q3" 22.0478 63.9078 62.4872 21.8132 30.2467 38.187
376 "AG13" 20.9659 55.6512 21.3687 12.7122 21.1551 7.79003
377 "O6" 62.9282 89.8314 92.3415 58.1205 69.9268 89.4848
378 "T9" 83.2136 79.646 100 66.975 64.3639 103.447
379 "S1" 46.8788 47.4662 65.0248 22.1778 21.1866 39.4193
380 "I10" 80.705 41.7441 38.4726 33.482 25.1363 15.4177
381 "L11" 71.2856 19.2493 76.6934 30.9553 16.9288 53.961
382 "AI8" 63.0289 70.3578 85.3162 44.0109 45.5423 72.7178
383 "AB1" 34.3374 69.7215 53.7026 25.1309 36.2574 29.9507
384 "AJ11" 63.6362 8.79377 7.50591 16.2167 9.26576 2.41048
385 "N2" 46.5095 58.7137 30.2342 20.5616 26.8927 11.9387
386 "C6" 28.4108 22.3758 61.8601 11.2192 7.71901 33.6787
387 "P8" 57.6318 87.2084 57.6043 44.0737 61.1378 37.6308
388 "Z4" 10.2693 67.1321 72.6497 24.5773 33.6015 51.6469
389 "H2" 48.5588 78.1857 81.677 40.8159 50.3574 67.7022
390 "I7" 88.5176 69.7276 87.5929 60.9252 53.703 77.4058
391 "H13" 13.0144 8.74952 86.7704 14.8735 7.08501 69.3696
392 "S5" 36.1242 85.9113 73.4829 39.402 57.0186 56.5608
393 "AK13" 10.9529 63.3585 36.4187 16.1391 27.4527 15.5343
394 "V4" 15.5657 37.4716 26.1189 6.94702 10.0382 7.62851
395 "AE2" 20.2823 43.061 79.3515 18.4833 16.9511 58.7075
396 "X4" 71.4672 54.4335 56.9635 34.349 31.1327 31.6914
397 "AG10" 16.0067 21.8906 34.5754 5.04051 4.94591 10.728
398 "A7" 27.0573 86.2348 30.2647 30.0746 53.4038 16.5694
399 "H9" 55.8892 66.6377 11.0414 26.5598 35.2558 7.36387
400 "Z2" 96.6934 15.9106 6.92607 39.7019 22.0862 3.58432
401 "H6" 94.2214 85.8076 31.3024 63.1255 70.0162 18.5317
402 "P12" 80.8652 54.0566 83.9445 47.2583 36.7818 68.5115
403 "P10" 68.6442 24.2283 9.6025 20.3747 13.484 3.27153
404 "F11" 47.5547 45.2964 8.7129 15.1158 17.3545 4.17601
405 "H5" 55.5779 15.256 60.9186 18.599 10.4546 32.7568
406 "G1" 54.6517 90.7042 29.3217 41.2252 63.7062 17.537
407 "AJ7" 19.6963 47.8706 35.8877 11.1043 16.2303 13.3247
408 "B13" 23.0518 79.6033 65.6092 30.8476 46.9632 44.6511
409 "AK6" 86.1891 54.1054 13.9498 39.4594 34.142 6.99093
410 "L1" 89.3904 7.25414 88.8136 46.5385 23.2301 74.4853
411 "N11" 7.6585 10.0298 74.1329 10.7313 5.49415 49.0551
412 "AM6" 33.7331 51.2474 76.7041 22.6145 22.8721 55.5625
413 "F3" 27.8553 29.5628 46.2806 9.33065 8.65635 19.0172
414 "Y2" 61.0147 45.0843 62.7955 26.8542 22.6054 36.8015
415 "A13" 33.7316 9.79171 12.0775 5.38691 3.74377 2.56853
416 "AL6" 8.18341 90.4387 57.6333 34.7018 59.6066 37.8598
417 "J12" 73.3455 61.4237 12.1614 33.418 35.3112 7.20016
418 "B11" 18.0804 58.1811 78.2452 22.9287 26.7632 58.6451
419 "AG4" 58.9044 90.0679 43.4943 44.2525 64.4185 25.8309
420 "S7" 59.3256 45.9632 41.7731 22.6119 21.2245 17.4107
421 "X2" 93.2799 41.593 69.1539 48.7666 32.3103 45.3808
