Pre-made_Targets/Patch Width 12-15mm - Intermediate (Easy with ruler)/Generated Targets/CM-Interm-A4-910p-5pages-w14.0mm-13x14/CM-Interm-A4-910p-5pages.ti1
CTI1   

DESCRIPTOR "Argyll Calibration Target chart information 1"
ORIGINATOR "Argyll targen"
CREATED "Mon Feb  9 15:37:32 2026"
APPROX_WHITE_POINT "95.106486 100.000000 108.844025"
COLOR_REP "iRGB"
TOTAL_INK_LIMIT "300.0"
WHITE_COLOR_PATCHES "6"
BLACK_COLOR_PATCHES "6"
COMP_GREY_STEPS "144"
IFP_PATCHES "756"

NUMBER_OF_FIELDS 7
BEGIN_DATA_FORMAT
SAMPLE_ID RGB_R RGB_G RGB_B XYZ_X XYZ_Y XYZ_Z 
END_DATA_FORMAT

NUMBER_OF_SETS 910
BEGIN_DATA
1 100.0000 100.0000 100.0000 95.10649 100.0000 108.8440 
2 100.0000 100.0000 100.0000 95.10649 100.0000 108.8440 
3 100.0000 100.0000 100.0000 95.10649 100.0000 108.8440 
4 100.0000 100.0000 100.0000 95.10649 100.0000 108.8440 
5 100.0000 100.0000 100.0000 95.10649 100.0000 108.8440 
6 100.0000 100.0000 100.0000 95.10649 100.0000 108.8440 
7 0.00000 0.00000 0.00000 1.000000 1.000000 1.000000 
8 0.00000 0.00000 0.00000 1.000000 1.000000 1.000000 
9 0.00000 0.00000 0.00000 1.000000 1.000000 1.000000 
10 0.00000 0.00000 0.00000 1.000000 1.000000 1.000000 
11 0.00000 0.00000 0.00000 1.000000 1.000000 1.000000 
12 0.00000 0.00000 0.00000 1.000000 1.000000 1.000000 
13 99.30070 99.30070 99.30070 93.61636 98.43238 107.1364 
14 98.60140 98.60140 98.60140 92.14008 96.87934 105.4446 
15 97.90210 97.90210 97.90210 90.67762 95.34084 103.7686 
16 97.20280 97.20280 97.20280 89.22895 93.81683 102.1085 
17 96.50350 96.50350 96.50350 87.79402 92.30729 100.4641 
18 95.80420 95.80420 95.80420 86.37279 90.81216 98.83540 
19 95.10490 95.10490 95.10490 84.96524 89.33141 97.22237 
20 94.40559 94.40559 94.40559 83.57131 87.86500 95.62496 
21 93.70629 93.70629 93.70629 82.19098 86.41289 94.04313 
22 93.00699 93.00699 93.00699 80.82421 84.97504 92.47684 
23 92.30769 92.30769 92.30769 79.47095 83.55141 90.92603 
24 91.60839 91.60839 91.60839 78.13116 82.14196 89.39067 
25 90.90909 90.90909 90.90909 76.80482 80.74665 87.87071 
26 90.20979 90.20979 90.20979 75.49188 79.36544 86.36610 
27 89.51049 89.51049 89.51049 74.19230 77.99828 84.87681 
28 88.81119 88.81119 88.81119 72.90604 76.64514 83.40279 
29 88.11189 88.11189 88.11189 71.63307 75.30597 81.94399 
30 87.41259 87.41259 87.41259 70.37334 73.98073 80.50036 
31 86.71329 86.71329 86.71329 69.12681 72.66939 79.07187 
32 86.01399 86.01399 86.01399 67.89345 71.37189 77.65847 
33 85.31469 85.31469 85.31469 66.67321 70.08820 76.26010 
34 84.61538 84.61538 84.61538 65.46606 68.81828 74.87673 
35 83.91608 83.91608 83.91608 64.27195 67.56207 73.50830 
36 83.21678 83.21678 83.21678 63.09084 66.31955 72.15478 
37 82.51748 82.51748 82.51748 61.92270 65.09066 70.81611 
38 81.81818 81.81818 81.81818 60.76747 63.87537 69.49225 
39 81.11888 81.11888 81.11888 59.62513 62.67362 68.18315 
40 80.41958 80.41958 80.41958 58.49563 61.48538 66.88876 
41 79.72028 79.72028 79.72028 57.37892 60.31061 65.60904 
42 79.02098 79.02098 79.02098 56.27497 59.14925 64.34393 
43 78.32168 78.32168 78.32168 55.18373 58.00127 63.09340 
44 77.62238 77.62238 77.62238 54.10516 56.86662 61.85738 
45 76.92308 76.92308 76.92308 53.03923 55.74525 60.63584 
46 76.22378 76.22378 76.22378 51.98587 54.63713 59.42872 
47 75.52448 75.52448 75.52448 50.94507 53.54220 58.23598 
48 74.82517 74.82517 74.82517 49.91676 52.46042 57.05756 
49 74.12587 74.12587 74.12587 48.90091 51.39175 55.89342 
50 73.42657 73.42657 73.42657 47.89747 50.33613 54.74350 
51 72.72727 72.72727 72.72727 46.90641 49.29353 53.60776 
52 72.02797 72.02797 72.02797 45.92767 48.26389 52.48615 
53 71.32867 71.32867 71.32867 44.96121 47.24718 51.37861 
54 70.62937 70.62937 70.62937 44.00699 46.24334 50.28509 
55 69.93007 69.93007 69.93007 43.06496 45.25233 49.20555 
56 69.23077 69.23077 69.23077 42.13508 44.27409 48.13992 
57 68.53147 68.53147 68.53147 41.21730 43.30859 47.08817 
58 67.83217 67.83217 67.83217 40.31158 42.35577 46.05023 
59 67.13287 67.13287 67.13287 39.41787 41.41559 45.02606 
60 66.43357 66.43357 66.43357 38.53613 40.48800 44.01560 
61 65.73427 65.73427 65.73427 37.66630 39.57294 43.01880 
62 65.03497 65.03497 65.03497 36.80835 38.67038 42.03561 
63 64.33566 64.33566 64.33566 35.96223 37.78026 41.06597 
64 63.63636 63.63636 63.63636 35.12788 36.90252 40.10982 
65 62.93706 62.93706 62.93706 34.30527 36.03713 39.16713 
66 62.23776 62.23776 62.23776 33.49434 35.18403 38.23782 
67 61.53846 61.53846 61.53846 32.69504 34.34318 37.32184 
68 60.83916 60.83916 60.83916 31.90734 33.51451 36.41915 
69 60.13986 60.13986 60.13986 31.13117 32.69798 35.52968 
70 59.44056 59.44056 59.44056 30.36650 31.89355 34.65338 
71 58.74126 58.74126 58.74126 29.61326 31.10114 33.79019 
72 58.04196 58.04196 58.04196 28.87142 30.32073 32.94005 
73 57.34266 57.34266 57.34266 28.14092 29.55224 32.10291 
74 56.64336 56.64336 56.64336 27.42171 28.79563 31.27872 
75 55.94406 55.94406 55.94406 26.71375 28.05085 30.46740 
76 55.24476 55.24476 55.24476 26.01697 27.31785 29.66892 
77 54.54545 54.54545 54.54545 25.33134 26.59656 28.88319 
78 53.84615 53.84615 53.84615 24.65679 25.88694 28.11018 
79 53.14685 53.14685 53.14685 23.99328 25.18893 27.34981 
80 52.44755 52.44755 52.44755 23.34076 24.50247 26.60203 
81 51.74825 51.74825 51.74825 22.69916 23.82752 25.86678 
82 51.04895 51.04895 51.04895 22.06845 23.16400 25.14399 
83 50.34965 50.34965 50.34965 21.44856 22.51188 24.43361 
84 49.65035 49.65035 49.65035 20.83944 21.87109 23.73558 
85 48.95105 48.95105 48.95105 20.24104 21.24157 23.04983 
86 48.25175 48.25175 48.25175 19.65331 20.62328 22.37629 
87 47.55245 47.55245 47.55245 19.07618 20.01614 21.71492 
88 46.85315 46.85315 46.85315 18.50961 19.42010 21.06563 
89 46.15385 46.15385 46.15385 17.95353 18.83511 20.42838 
90 45.45455 45.45455 45.45455 17.40789 18.26109 19.80309 
91 44.75524 44.75524 44.75524 16.87263 17.69801 19.18970 
92 44.05594 44.05594 44.05594 16.34771 17.14578 18.58814 
93 43.35664 43.35664 43.35664 15.83305 16.60436 17.99835 
94 42.65734 42.65734 42.65734 15.32860 16.07368 17.42027 
95 41.95804 41.95804 41.95804 14.83430 15.55368 16.85381 
96 41.25874 41.25874 41.25874 14.35010 15.04430 16.29893 
97 40.55944 40.55944 40.55944 13.87592 14.54547 15.75554 
98 39.86014 39.86014 39.86014 13.41173 14.05713 15.22357 
99 39.16084 39.16084 39.16084 12.95744 13.57922 14.70297 
100 38.46154 38.46154 38.46154 12.51300 13.11168 14.19365 
101 37.76224 37.76224 37.76224 12.07835 12.65442 13.69556 
102 37.06294 37.06294 37.06294 11.65343 12.20741 13.20860 
103 36.36364 36.36364 36.36364 11.23817 11.77055 12.73272 
104 35.66434 35.66434 35.66434 10.83251 11.34380 12.26784 
105 34.96503 34.96503 34.96503 10.43638 10.92707 11.81389 
106 34.26573 34.26573 34.26573 10.04972 10.52031 11.37079 
107 33.56643 33.56643 33.56643 9.672468 10.12343 10.93846 
108 32.86713 32.86713 32.86713 9.304550 9.736384 10.51684 
109 32.16783 32.16783 32.16783 8.945901 9.359086 10.10583 
110 31.46853 31.46853 31.46853 8.596454 8.991468 9.705375 
111 30.76923 30.76923 30.76923 8.256140 8.633458 9.315382 
112 30.06993 30.06993 30.06993 7.924890 8.284983 8.935776 
113 29.37063 29.37063 29.37063 7.602633 7.945968 8.566476 
114 28.67133 28.67133 28.67133 7.289297 7.616339 8.207401 
115 27.97203 27.97203 27.97203 6.984812 7.296021 7.858467 
116 27.27273 27.27273 27.27273 6.689104 6.984936 7.519592 
117 26.57343 26.57343 26.57343 6.402099 6.683007 7.190690 
118 25.87413 25.87413 25.87413 6.123722 6.390155 6.871676 
119 25.17483 25.17483 25.17483 5.853898 6.106300 6.562464 
120 24.47552 24.47552 24.47552 5.592551 5.831362 6.262965 
121 23.77622 23.77622 23.77622 5.339601 5.565259 5.973090 
122 23.07692 23.07692 23.07692 5.094970 5.307908 5.692749 
123 22.37762 22.37762 22.37762 4.858579 5.059224 5.421849 
124 21.67832 21.67832 21.67832 4.630346 4.819123 5.160299 
125 20.97902 20.97902 20.97902 4.410188 4.587517 4.908002 
126 20.27972 20.27972 20.27972 4.198021 4.364317 4.664864 
127 19.58042 19.58042 19.58042 3.993761 4.149436 4.430787 
128 18.88112 18.88112 18.88112 3.797321 3.942781 4.205671 
129 18.18182 18.18182 18.18182 3.608614 3.744261 3.989416 
130 17.48252 17.48252 17.48252 3.427548 3.553780 3.781919 
131 16.78322 16.78322 16.78322 3.254035 3.371244 3.583076 
132 16.08392 16.08392 16.08392 3.087980 3.196554 3.392780 
133 15.38462 15.38462 15.38462 2.929289 3.029611 3.210924 
134 14.68531 14.68531 14.68531 2.777866 2.870314 3.037396 
135 13.98601 13.98601 13.98601 2.633612 2.718559 2.872084 
136 13.28671 13.28671 13.28671 2.496427 2.574241 2.714874 
137 12.58741 12.58741 12.58741 2.366209 2.437251 2.565646 
138 11.88811 11.88811 11.88811 2.242852 2.307480 2.424282 
139 11.18881 11.18881 11.18881 2.126250 2.184814 2.290658 
140 10.48951 10.48951 10.48951 2.016291 2.069138 2.164648 
141 9.790210 9.790210 9.790210 1.912864 1.960332 2.046122 
142 9.090909 9.090909 9.090909 1.815852 1.858276 1.934949 
143 8.391608 8.391608 8.391608 1.725136 1.762843 1.830991 
144 7.692308 7.692308 7.692308 1.640595 1.673906 1.734108 
145 6.993007 6.993007 6.993007 1.562101 1.591330 1.644156 
146 6.293706 6.293706 6.293706 1.489524 1.514980 1.560985 
147 5.594406 5.594406 5.594406 1.422730 1.444712 1.484440 
148 4.895105 4.895105 4.895105 1.361579 1.380381 1.414362 
149 4.195804 4.195804 4.195804 1.305925 1.321833 1.350583 
150 3.496503 3.496503 3.496503 1.254678 1.267921 1.291855 
151 2.797203 2.797203 2.797203 1.203742 1.214337 1.233484 
152 2.097902 2.097902 2.097902 1.152807 1.160753 1.175113 
153 1.398601 1.398601 1.398601 1.101871 1.107168 1.116742 
154 0.699301 0.699301 0.699301 1.050936 1.053584 1.058371 
155 0.00000 0.00000 100.0000 18.87111 8.147314 95.12896 
156 0.00000 100.0000 0.00000 36.40521 71.80052 12.80184 
157 0.00000 100.0000 83.21698 48.19651 76.51629 74.90784 
158 100.0000 0.00000 0.00000 41.83017 22.05217 2.913230 
159 99.55541 100.0000 57.95522 82.09919 94.75028 42.48261 
160 83.96141 0.00000 56.85538 33.54408 17.19471 28.93286 
161 69.41076 34.99223 35.82296 24.39117 18.12000 12.95252 
162 29.79973 54.34130 24.31720 13.89069 21.02197 8.700404 
163 72.71016 50.94570 12.64588 29.06030 27.15008 5.940588 
164 0.00000 16.39973 47.51131 5.239756 3.996928 19.31801 
165 34.26014 8.988033 26.72326 6.264287 4.042159 6.748685 
166 60.93524 63.68847 91.61264 41.96847 39.51928 83.07594 
167 0.00000 81.32600 97.83384 40.18611 52.16001 97.95141 
168 0.00000 48.37087 43.72018 10.92263 16.25525 18.45468 
169 70.54816 73.91208 55.94099 42.39993 48.35521 33.55751 
170 58.24315 94.57991 56.04689 49.28311 71.62582 37.79291 
171 100.0000 0.00000 40.30510 44.24307 23.01717 15.62220 
172 82.34290 39.52242 20.28303 32.50110 23.97884 6.961349 
173 66.57544 0.00000 6.215220 17.45456 9.473442 2.248602 
174 49.76112 0.00000 62.66755 15.91449 7.965291 34.40452 
175 70.58693 100.0000 98.70231 72.38785 88.34670 105.0491 
176 0.00000 36.31218 94.49562 20.55498 14.96473 85.04994 
177 0.00000 57.80220 82.52381 22.96262 26.40736 65.41152 
178 57.26214 70.61760 0.00000 28.91381 39.39701 6.941572 
179 89.67868 58.74942 75.86859 53.24117 42.80886 56.55154 
180 85.64954 51.42440 100.0000 55.67105 39.07363 99.16045 
181 99.60246 34.99003 34.96504 46.80936 29.68891 13.51977 
182 68.78294 63.69759 23.14100 32.24066 36.11359 10.23140 
183 35.05110 32.32954 11.67744 8.364667 9.253271 3.406922 
184 85.51287 100.0000 0.00000 65.04844 86.56906 14.14401 
185 29.22112 7.270361 0.00000 4.058229 2.907672 1.207165 
186 0.00000 100.0000 99.08313 53.90583 78.79966 104.9794 
187 51.41858 25.56593 93.74974 27.60223 15.72484 83.35835 
188 22.90012 70.26598 52.54243 23.00525 35.59261 28.84792 
189 48.51576 69.22024 69.23077 32.47137 39.28368 47.68560 
190 73.30707 58.02327 47.54981 35.18447 33.77998 23.52120 
191 59.78301 45.46130 52.66317 24.35873 21.71317 26.20914 
192 82.45753 31.37920 49.59181 33.98887 21.79151 22.97738 
193 51.49497 0.00000 22.10816 11.03088 6.089150 5.207059 
194 50.40839 29.54442 9.815811 12.58241 10.68271 3.171505 
195 44.58159 0.00000 0.00000 7.829718 4.521425 1.320029 
196 53.72541 1.414755 44.41011 14.21756 7.529623 17.10753 
197 0.00000 32.07206 42.33594 6.648899 8.012538 16.09394 
198 0.00000 16.00890 0.00000 1.779014 2.557810 1.259673 
199 45.01808 84.84631 18.90491 32.90909 53.60800 12.26577 
200 5.377770 75.00441 71.00142 27.94063 41.39464 50.69925 
201 23.15918 15.82169 1.721428 3.575642 3.457398 1.463526 
202 73.11065 52.88984 52.47956 33.96072 30.20724 27.17338 
203 41.24309 51.11811 40.56092 17.18271 20.85939 16.80113 
204 15.20304 16.55248 28.67014 3.841064 3.554242 7.604389 
205 60.37361 0.00000 16.95831 14.62125 7.972710 3.915155 
206 17.66868 0.00000 8.149582 2.205855 1.606473 1.745669 
207 82.08821 15.94119 26.72217 28.93479 16.43071 7.945581 
208 0.00000 24.52528 23.12528 3.515533 4.781237 5.690849 
209 100.0000 83.06406 58.49369 70.47752 70.72622 39.02398 
210 0.00000 62.42195 0.128222 13.30689 25.60749 5.111080 
211 0.00000 50.06236 91.57075 23.23244 22.04772 80.61072 
212 57.29887 68.93414 79.71747 38.79070 41.99679 63.04850 
213 28.02743 19.11171 65.25417 11.53438 7.236744 37.56562 
214 97.68277 56.19610 55.91867 54.35878 42.44704 31.76489 
215 96.60819 64.57605 44.02248 54.92277 48.14942 22.51632 
216 55.95822 38.40675 64.81063 23.22951 18.09026 38.50670 
217 32.96444 22.50972 20.55564 6.716371 6.054382 4.940856 
218 16.78555 33.03318 8.348191 5.271814 7.872007 2.818037 
219 31.37393 39.51364 59.77120 14.50531 14.11428 32.41537 
220 40.92683 57.81295 82.52380 28.66089 29.35169 65.67974 
221 100.0000 83.18601 0.00000 65.17085 68.72700 10.69352 
222 59.08422 50.02202 91.57073 35.79336 28.50453 81.19549 
223 100.0000 0.00000 100.0000 59.70128 29.19948 97.04219 
224 45.64774 86.79241 92.30713 48.76936 62.02421 88.38656 
225 78.37812 70.39673 81.65130 51.90674 49.77860 66.96527 
226 0.00000 55.39965 65.56647 17.39345 22.70583 40.62466 
227 0.00000 100.0000 64.18713 43.01080 74.44234 47.59417 
228 80.10504 65.33731 37.91021 41.45926 41.81591 17.86789 
229 80.66452 38.83118 72.71144 39.24969 26.27271 49.54514 
230 47.44265 54.15696 20.98807 18.46454 23.30549 7.783686 
231 57.15630 47.73792 29.13714 20.78377 21.23581 10.33244 
232 40.83773 53.17894 57.75078 20.56471 23.33757 31.72540 
233 71.36376 0.00000 85.45436 32.61208 15.85142 67.82636 
234 100.0000 70.54603 22.17854 58.68825 54.61136 12.08623 
235 35.66837 57.69271 0.143704 15.61717 23.89427 4.659822 
236 64.85399 85.20839 73.07917 49.89148 61.75582 56.35111 
237 19.67147 25.05315 19.45987 4.681064 5.517467 4.624390 
238 76.91330 92.09557 67.30265 60.27789 74.30274 50.49051 
239 39.11471 70.97067 79.02305 33.02759 40.57197 61.98561 
240 27.05858 67.12660 67.13287 25.17625 34.06813 44.35787 
241 85.27937 84.45731 55.24420 58.36963 65.87451 35.40698 
242 100.0000 78.84703 74.59028 71.74780 67.12205 58.39679 
243 44.98683 38.66171 31.46953 13.78475 13.92388 10.38471 
244 46.37554 19.59390 21.62887 10.24584 7.361551 5.339539 
245 23.98445 0.00000 33.96990 4.603176 2.662559 9.980846 
246 25.15195 71.58389 37.80023 21.88192 36.26535 17.76008 
247 79.70254 79.54325 0.00000 46.55458 55.81122 9.180885 
248 58.22670 20.66249 0.00000 14.42368 9.771238 1.986104 
249 93.26094 19.95809 79.71799 47.72146 25.58408 59.41083 
250 34.97085 38.82577 72.59205 18.19535 15.41879 48.39174 
251 57.58090 76.06176 39.14336 34.24275 46.21097 19.86961 
252 19.64425 20.96235 4.828647 3.655533 4.262623 1.844401 
253 47.40645 88.11384 64.18931 41.97239 60.80218 45.01852 
254 0.00000 0.365750 73.48573 9.932024 4.588280 47.99644 
255 11.24085 42.53173 60.54385 12.65629 14.28891 33.39425 
256 100.0000 88.97830 95.17324 84.96947 82.76813 96.09160 
257 50.99797 40.56287 40.32119 17.38129 16.35763 15.76215 
258 8.667079 45.43767 28.97272 8.717746 13.99247 9.496310 
259 57.95419 28.41541 42.19091 18.03468 12.92459 16.34052 
260 14.15529 11.85611 4.896544 2.257863 2.331513 1.550872 
261 100.0000 51.54604 0.00000 49.92490 38.23937 5.611497 
262 30.98006 63.70231 23.14099 17.84335 28.69342 9.557372 
263 63.00936 23.67529 19.36737 17.66308 11.93018 5.152355 
264 84.99619 76.85681 64.83023 55.54806 57.34477 44.40548 
265 37.69838 0.00000 86.62196 18.69633 8.631409 69.20565 
266 100.0000 43.57310 72.59293 56.15213 36.80296 50.52161 
267 48.64472 76.86476 100.0000 46.65221 51.47874 102.0300 
268 89.11024 95.27755 86.56188 77.04262 85.79361 80.92134 
269 48.23600 92.50878 83.90896 50.76931 69.30339 74.54355 
270 0.00000 28.69634 72.03235 11.90341 9.152719 46.73462 
271 87.27922 51.23163 60.13675 44.70498 34.72789 35.20319 
272 77.18479 59.63574 83.57219 46.78400 39.74504 68.47998 
273 84.40798 42.89332 36.36558 36.21464 27.02683 14.36330 
274 84.32719 69.24373 13.12673 44.51670 46.38297 8.927836 
275 65.80405 39.20389 28.76443 22.65720 18.71950 9.582255 
276 11.58108 0.693856 22.48691 2.275351 1.600239 4.926460 
277 64.83882 9.624549 40.30290 19.17995 10.59114 14.54219 
278 89.47715 61.07158 52.53524 48.71348 42.51166 28.82286 
279 91.31810 0.00000 16.95831 34.66163 18.30560 4.854212 
280 100.0000 61.71788 95.26336 69.83697 52.45245 91.21679 
281 69.77641 70.76902 77.20460 45.37695 46.84777 59.74765 
282 73.82053 88.98437 95.17324 64.73559 72.34171 95.14468 
283 25.22938 40.32035 35.69331 9.769462 12.40541 12.54530 
284 18.22478 5.599259 1.858210 2.321651 1.914759 1.241716 
285 81.68140 93.14980 91.60757 71.61765 80.44254 89.40412 
286 44.37401 81.18737 79.71919 40.56629 52.95835 65.07361 
287 0.00000 12.48465 18.32952 2.009853 2.215002 3.817473 
288 85.73897 100.0000 61.58275 71.24805 89.06830 45.90493 
289 88.14039 37.02114 44.36548 38.62522 25.99195 19.35246 
290 83.26790 50.34054 22.24804 36.39160 30.57744 8.644107 
291 82.21095 28.15602 20.20599 30.09687 19.31862 6.165625 
292 37.43607 27.74418 37.30486 9.985926 8.683319 12.76144 
293 29.96373 38.00308 48.63722 11.81048 12.42581 21.52825 
294 65.40581 100.0000 15.57089 52.51248 80.06219 15.51037 
295 92.99855 31.15381 0.00000 38.42629 24.45254 3.555849 
296 41.02337 50.07129 29.70555 15.60702 19.66463 10.55949 
297 64.54721 61.40440 53.80275 32.63158 34.40311 29.29271 
298 78.07252 0.00000 33.95437 26.02789 13.70940 10.97645 
299 84.20761 63.70471 23.14099 42.31931 41.31489 10.70458 
300 35.19732 4.966625 17.24438 5.738723 3.596537 3.608781 
301 0.00000 85.98169 34.35989 27.87403 51.97555 18.48537 
302 34.76066 38.29190 0.00000 9.336202 11.66722 2.620032 
303 24.92297 25.06814 87.99006 18.24724 11.03375 72.12987 
304 21.62514 16.65096 22.32499 4.133153 3.771806 5.194165 
305 0.00000 9.935844 4.430861 1.412879 1.727202 1.441221 
306 99.26954 86.57051 44.58012 69.67995 73.96408 27.13759 
307 66.46659 31.63570 76.81458 30.04413 19.12354 54.61437 
308 76.86437 28.66274 28.67132 27.09891 17.82812 9.135234 
309 47.59412 24.51319 16.79507 11.01919 8.688396 4.203329 
310 25.62739 42.40155 0.00000 8.503624 12.76783 2.876331 
311 55.18611 54.16943 68.39866 28.45066 27.65646 44.56707 
312 0.00000 56.77202 31.06940 12.39547 21.53926 11.73289 
313 62.40426 84.85220 0.00000 39.58869 57.11929 9.800262 
314 68.51604 43.83434 62.25204 30.32675 23.88475 36.23992 
315 6.041158 40.48504 85.39161 18.52404 15.75156 68.44047 
316 49.62026 48.29138 72.59780 25.30995 22.96368 49.48144 
317 83.93280 77.14010 100.0000 66.03776 61.70727 102.9834 
318 79.41421 7.056163 0.00000 25.46497 13.93189 2.207707 
319 77.51163 86.45011 36.85726 51.42277 64.54622 21.09435 
320 54.98176 46.03391 0.00000 18.08458 19.22240 3.617641 
321 48.10204 100.0000 42.39388 47.12982 77.01954 27.32309 
322 0.00000 83.26748 52.26272 28.60235 49.46161 30.97287 
323 12.41663 43.59449 46.46684 10.49195 13.89556 20.11439 
324 0.00000 7.118657 62.21966 7.383434 3.899511 33.55346 
325 80.63504 48.71941 46.59567 36.54743 29.58239 21.87218 
326 100.0000 52.77924 38.45736 52.53710 39.96615 17.26674 
327 30.49663 22.22396 42.27272 8.193485 6.526341 15.68123 
328 56.43780 62.00544 14.61426 24.83241 31.24396 7.337846 
329 23.77515 0.00000 3.522367 2.931387 1.990194 1.344841 
330 62.02063 37.98356 42.95668 21.97129 17.75537 17.60876 
331 89.55881 55.53126 0.00000 42.31377 36.42868 5.662846 
332 37.20948 61.74196 52.47760 21.91990 29.12154 27.59617 
333 78.96832 36.38866 59.77142 34.44902 23.31827 33.14184 
334 0.00000 84.29713 65.47828 31.95181 51.85144 45.37584 
335 95.97146 76.71046 64.19612 64.25292 61.72629 44.03153 
336 48.25209 32.77073 72.03453 20.73247 14.79610 47.36195 
337 6.793667 30.61050 19.24563 4.486481 6.743097 4.810891 
338 51.85836 16.62159 39.57908 13.61364 8.471811 13.95185 
339 78.52358 100.0000 42.39095 62.73521 85.06578 28.05228 
340 70.65404 15.01563 64.01507 26.93601 14.64529 36.69337 
341 48.15892 97.91035 99.83581 60.60950 79.75764 106.4040 
342 0.00000 82.98569 86.01540 36.91809 52.50291 75.65009 
343 0.00000 44.92217 74.14093 16.12005 16.67680 50.94058 
344 0.00000 39.08347 3.484508 5.528204 9.978035 2.747212 
345 95.88453 0.00000 51.37252 42.16753 21.75695 24.10301 
346 30.11855 38.60883 41.32334 10.92441 12.30308 15.99433 
347 87.65623 24.97241 41.74455 35.68520 21.25070 16.70709 
348 52.05804 52.29644 38.76053 21.11225 23.50920 15.93576 
349 36.00512 24.96866 2.991854 7.189526 6.853274 2.020818 
350 62.02093 48.59838 43.71999 24.98464 23.61212 19.13401 
351 85.27401 40.61886 0.00000 34.32240 25.39284 3.953499 
352 34.63126 53.77833 52.07485 18.06686 22.48940 26.14943 
353 100.0000 44.69043 96.18471 64.14247 40.49953 91.06267 
354 29.26084 85.20934 73.07917 37.29445 55.26168 55.76102 
355 92.64436 88.10231 69.58941 69.79764 74.98742 53.08483 
356 0.00000 28.54686 55.51585 8.147401 7.610893 27.07366 
357 39.67138 27.26062 18.33182 8.972909 8.226448 4.611735 
358 43.52997 18.73995 46.49683 11.79950 7.730206 18.87916 
359 63.32653 89.00979 41.83496 45.44900 63.96886 24.50136 
360 71.48764 16.60480 75.94452 30.60337 16.38735 52.75629 
361 69.29034 76.04413 69.59044 45.86485 51.53705 49.82009 
362 34.81897 16.77573 0.00000 5.906142 4.787176 1.472638 
363 42.48688 55.26114 88.78568 30.22851 28.46946 76.30477 
364 2.653241 27.22369 43.88110 6.106511 6.463846 16.93654 
365 0.00000 36.70361 71.54144 13.33132 12.21467 46.57366 
366 65.80848 72.17546 90.51013 48.18148 48.87891 82.47947 
367 68.00778 63.81298 41.27165 33.60992 36.69310 19.47220 
368 46.34653 29.37220 35.84053 12.79249 10.54910 12.11208 
369 69.21219 56.22871 0.00000 28.61877 29.75806 5.096512 
370 37.20484 0.00000 46.82159 8.979615 4.730266 18.70679 
371 63.05908 16.42673 47.51132 19.75430 11.48425 19.99884 
372 53.28174 33.53911 31.73464 15.75626 13.27287 10.28603 
373 64.03214 35.62162 0.00000 19.70141 16.11895 2.933427 
374 46.82842 65.56315 46.34369 25.55170 33.63849 23.03494 
375 78.72621 53.17422 37.40294 35.50448 31.40506 15.86260 
376 57.52873 22.43399 79.71790 25.02410 14.31355 58.43058 
377 30.78321 43.82295 72.59271 18.54222 17.51382 48.77879 
378 63.97343 25.86327 35.68751 19.77680 13.32363 12.19216 
379 8.255970 3.703286 32.96108 2.995120 1.995816 9.403660 
380 18.36708 77.13995 100.0000 39.72660 48.14102 101.7505 
381 67.90281 60.29617 64.81288 36.24549 35.31248 41.14829 
382 56.20236 38.73705 0.00000 16.66628 15.60312 2.993713 
383 100.0000 100.0000 35.52664 79.08765 93.59348 24.47115 
384 40.79158 53.13494 100.0000 33.17186 28.35314 98.27608 
385 67.18355 41.27037 98.21945 39.87777 26.51979 93.81876 
386 0.00000 46.76486 60.26369 13.30886 16.41882 33.46200 
387 3.167359 47.40938 71.32214 16.20354 17.90141 47.21970 
388 87.26939 59.44415 62.03781 48.16496 41.00901 38.36081 
389 100.0000 45.66032 61.02620 53.97242 36.87984 36.11525 
390 89.20767 72.24635 76.82766 59.38609 55.21999 60.05634 
391 88.55859 23.63533 24.56739 34.49030 20.56126 7.617975 
392 60.65268 30.99065 11.91090 17.32641 13.50173 3.794571 
393 63.17831 0.00000 100.0000 33.44388 15.66109 95.81181 
394 32.09693 36.86449 23.88383 9.226725 11.02769 6.860980 
395 90.08905 70.41285 87.42050 62.46915 55.01944 77.27070 
396 57.27656 0.00000 8.149585 12.87800 7.109065 2.245747 
397 45.99386 39.11934 100.0000 30.66087 20.88785 96.96731 
398 78.61785 68.29703 65.53160 46.64026 46.01788 43.54147 
399 91.86661 40.60891 40.67100 41.99517 29.06074 17.15106 
400 39.49650 70.90713 13.12393 22.88272 36.47488 8.154183 
401 30.33496 28.13277 22.87457 7.100696 7.437447 5.929234 
402 20.25849 28.68577 28.67130 5.947736 6.928188 8.145214 
