Pre-made_Targets/Patch Width 12-15mm - Intermediate (Easy with ruler)/Generated Targets/CM-Interm-A4-910p-5pages-w14.0mm-13x14/CM-Interm-A4-910p-5pages.ti2
CTI2   

DESCRIPTOR "Argyll Calibration Target chart information 2"
ORIGINATOR "Argyll printtarg"
CREATED "Mon Feb  9 15:37:42 2026"
TARGET_INSTRUMENT "X-Rite ColorMunki"
COMP_GREY_STEPS "144"
APPROX_WHITE_POINT "95.106486 100.000000 108.844025"
TOTAL_INK_LIMIT "300.0"
COLOR_REP "iRGB"
PAPER_SIZE "210.0x297.0"
RANDOM_START "802"
STEPS_IN_PASS "14"
PASSES_IN_STRIPS2 "13,13,13,13,13"
STRIP_INDEX_PATTERN "A-Z, A-Z"
PATCH_INDEX_PATTERN "0-9,@-9,@-9;1-999"
INDEX_ORDER "STRIP_THEN_PATCH"

NUMBER_OF_FIELDS 8
BEGIN_DATA_FORMAT
SAMPLE_ID SAMPLE_LOC RGB_R RGB_G RGB_B XYZ_X XYZ_Y XYZ_Z 
END_DATA_FORMAT

NUMBER_OF_SETS 910
BEGIN_DATA
1 "W5" 100.0000 100.0000 100.0000 95.10649 100.0000 108.8440 
2 "E9" 100.0000 100.0000 100.0000 95.10649 100.0000 108.8440 
3 "AJ10" 100.0000 100.0000 100.0000 95.10649 100.0000 108.8440 
4 "AR5" 100.0000 100.0000 100.0000 95.10649 100.0000 108.8440 
5 "AI13" 100.0000 100.0000 100.0000 95.10649 100.0000 108.8440 
6 "BE7" 100.0000 100.0000 100.0000 95.10649 100.0000 108.8440 
7 "L1" 0.00000 0.00000 0.00000 1.000000 1.000000 1.000000 
8 "BF1" 0.00000 0.00000 0.00000 1.000000 1.000000 1.000000 
9 "R5" 0.00000 0.00000 0.00000 1.000000 1.000000 1.000000 
10 "BE3" 0.00000 0.00000 0.00000 1.000000 1.000000 1.000000 
11 "H2" 0.00000 0.00000 0.00000 1.000000 1.000000 1.000000 
12 "AJ14" 0.00000 0.00000 0.00000 1.000000 1.000000 1.000000 
13 "BM4" 99.30114 99.30114 99.30114 93.61636 98.43238 107.1364 
14 "BH8" 98.60075 98.60075 98.60075 92.14008 96.87934 105.4446 
15 "F10" 97.90188 97.90188 97.90188 90.67762 95.34084 103.7686 
16 "M2" 97.20302 97.20302 97.20302 89.22895 93.81683 102.1085 
17 "N12" 96.50416 96.50416 96.50416 87.79402 92.30729 100.4641 
18 "AN12" 95.80377 95.80377 95.80377 86.37279 90.81216 98.83540 
19 "AJ2" 95.10491 95.10491 95.10491 84.96524 89.33141 97.22237 
20 "AF8" 94.40604 94.40604 94.40604 83.57131 87.86500 95.62496 
21 "BJ11" 93.70565 93.70565 93.70565 82.19098 86.41289 94.04313 
22 "AG6" 93.00679 93.00679 93.00679 80.82421 84.97504 92.47684 
23 "G10" 92.30793 92.30793 92.30793 79.47095 83.55141 90.92603 
24 "AO2" 91.60906 91.60906 91.60906 78.13116 82.14196 89.39067 
25 "Q9" 90.90867 90.90867 90.90867 76.80482 80.74665 87.87071 
26 "U12" 90.20981 90.20981 90.20981 75.49188 79.36544 86.36610 
27 "N8" 89.51095 89.51095 89.51095 74.19230 77.99828 84.87681 
28 "AB3" 88.81056 88.81056 88.81056 72.90604 76.64514 83.40279 
29 "D13" 88.11170 88.11170 88.11170 71.63307 75.30597 81.94399 
30 "AV6" 87.41283 87.41283 87.41283 70.37334 73.98073 80.50036 
31 "D3" 86.71397 86.71397 86.71397 69.12681 72.66939 79.07187 
32 "BG5" 86.01358 86.01358 86.01358 67.89345 71.37189 77.65847 
33 "AM10" 85.31472 85.31472 85.31472 66.67321 70.08820 76.26010 
34 "AM12" 84.61585 84.61585 84.61585 65.46606 68.81828 74.87673 
35 "AY13" 83.91547 83.91547 83.91547 64.27195 67.56207 73.50830 
36 "Z6" 83.21660 83.21660 83.21660 63.09084 66.31955 72.15478 
37 "X4" 82.51774 82.51774 82.51774 61.92270 65.09066 70.81611 
38 "BD11" 81.81888 81.81888 81.81888 60.76747 63.87537 69.49225 
39 "BM2" 81.11849 81.11849 81.11849 59.62513 62.67362 68.18315 
40 "G8" 80.41962 80.41962 80.41962 58.49563 61.48538 66.88876 
41 "AZ9" 79.72076 79.72076 79.72076 57.37892 60.31061 65.60904 
42 "AV2" 79.02037 79.02037 79.02037 56.27497 59.14925 64.34393 
43 "AX9" 78.32151 78.32151 78.32151 55.18373 58.00127 63.09340 
44 "E4" 77.62264 77.62264 77.62264 54.10516 56.86662 61.85738 
45 "AE13" 76.92378 76.92378 76.92378 53.03923 55.74525 60.63584 
46 "S11" 76.22339 76.22339 76.22339 51.98587 54.63713 59.42872 
47 "AQ10" 75.52453 75.52453 75.52453 50.94507 53.54220 58.23598 
48 "BA13" 74.82567 74.82567 74.82567 49.91676 52.46042 57.05756 
49 "AL11" 74.12528 74.12528 74.12528 48.90091 51.39175 55.89342 
50 "H5" 73.42641 73.42641 73.42641 47.89747 50.33613 54.74350 
51 "AU9" 72.72755 72.72755 72.72755 46.90641 49.29353 53.60776 
52 "V3" 72.02869 72.02869 72.02869 45.92767 48.26389 52.48615 
53 "U9" 71.32830 71.32830 71.32830 44.96121 47.24718 51.37861 
54 "O6" 70.62943 70.62943 70.62943 44.00699 46.24334 50.28509 
55 "G2" 69.93057 69.93057 69.93057 43.06496 45.25233 49.20555 
56 "AQ12" 69.23018 69.23018 69.23018 42.13508 44.27409 48.13992 
57 "J9" 68.53132 68.53132 68.53132 41.21730 43.30859 47.08817 
58 "AQ8" 67.83246 67.83246 67.83246 40.31158 42.35577 46.05023 
59 "BB2" 67.13359 67.13359 67.13359 39.41787 41.41559 45.02606 
60 "H13" 66.43320 66.43320 66.43320 38.53613 40.48800 44.01560 
61 "AZ7" 65.73434 65.73434 65.73434 37.66630 39.57294 43.01880 
62 "M8" 65.03548 65.03548 65.03548 36.80835 38.67038 42.03561 
63 "BL5" 64.33509 64.33509 64.33509 35.96223 37.78026 41.06597 
64 "BI2" 63.63622 63.63622 63.63622 35.12788 36.90252 40.10982 
65 "O8" 62.93736 62.93736 62.93736 34.30527 36.03713 39.16713 
66 "L9" 62.23850 62.23850 62.23850 33.49434 35.18403 38.23782 
67 "Y6" 61.53811 61.53811 61.53811 32.69504 34.34318 37.32184 
68 "O12" 60.83925 60.83925 60.83925 31.90734 33.51451 36.41915 
69 "I9" 60.14038 60.14038 60.14038 31.13117 32.69798 35.52968 
70 "BK13" 59.43999 59.43999 59.43999 30.36650 31.89355 34.65338 
71 "AR13" 58.74113 58.74113 58.74113 29.61326 31.10114 33.79019 
72 "AU5" 58.04227 58.04227 58.04227 28.87142 30.32073 32.94005 
73 "AW9" 57.34340 57.34340 57.34340 28.14092 29.55224 32.10291 
74 "AK4" 56.64302 56.64302 56.64302 27.42171 28.79563 31.27872 
75 "BD5" 55.94415 55.94415 55.94415 26.71375 28.05085 30.46740 
76 "V7" 55.24529 55.24529 55.24529 26.01697 27.31785 29.66892 
77 "L7" 54.54490 54.54490 54.54490 25.33134 26.59656 28.88319 
78 "I11" 53.84604 53.84604 53.84604 24.65679 25.88694 28.11018 
79 "AQ6" 53.14717 53.14717 53.14717 23.99328 25.18893 27.34981 
80 "L5" 52.44831 52.44831 52.44831 23.34076 24.50247 26.60203 
81 "AX7" 51.74792 51.74792 51.74792 22.69916 23.82752 25.86678 
82 "H7" 51.04906 51.04906 51.04906 22.06845 23.16400 25.14399 
83 "AQ4" 50.35019 50.35019 50.35019 21.44856 22.51188 24.43361 
84 "W11" 49.64981 49.64981 49.64981 20.83944 21.87109 23.73558 
85 "AU13" 48.95094 48.95094 48.95094 20.24104 21.24157 23.04983 
86 "AU11" 48.25208 48.25208 48.25208 19.65331 20.62328 22.37629 
87 "AK2" 47.55169 47.55169 47.55169 19.07618 20.01614 21.71492 
88 "BD9" 46.85283 46.85283 46.85283 18.50961 19.42010 21.06563 
89 "AQ2" 46.15396 46.15396 46.15396 17.95353 18.83511 20.42838 
90 "AY8" 45.45510 45.45510 45.45510 17.40789 18.26109 19.80309 
91 "BD3" 44.75471 44.75471 44.75471 16.87263 17.69801 19.18970 
92 "AK6" 44.05585 44.05585 44.05585 16.34771 17.14578 18.58814 
93 "AS11" 43.35698 43.35698 43.35698 15.83305 16.60436 17.99835 
94 "AD13" 42.65660 42.65660 42.65660 15.32860 16.07368 17.42027 
95 "AW11" 41.95773 41.95773 41.95773 14.83430 15.55368 16.85381 
96 "L3" 41.25887 41.25887 41.25887 14.35010 15.04430 16.29893 
97 "M10" 40.56001 40.56001 40.56001 13.87592 14.54547 15.75554 
98 "BK8" 39.85962 39.85962 39.85962 13.41173 14.05713 15.22357 
99 "AK10" 39.16075 39.16075 39.16075 12.95744 13.57922 14.70297 
100 "AX5" 38.46189 38.46189 38.46189 12.51300 13.11168 14.19365 
101 "AS8" 37.76150 37.76150 37.76150 12.07835 12.65442 13.69556 
102 "AE3" 37.06264 37.06264 37.06264 11.65343 12.20741 13.20860 
103 "I5" 36.36378 36.36378 36.36378 11.23817 11.77055 12.73272 
104 "T2" 35.66491 35.66491 35.66491 10.83251 11.34380 12.26784 
105 "H11" 34.96452 34.96452 34.96452 10.43638 10.92707 11.81389 
106 "BM11" 34.26566 34.26566 34.26566 10.04972 10.52031 11.37079 
107 "X12" 33.56680 33.56680 33.56680 9.672468 10.12343 10.93846 
108 "BE14" 32.86641 32.86641 32.86641 9.304550 9.736384 10.51684 
109 "BC1" 32.16754 32.16754 32.16754 8.945901 9.359086 10.10583 
110 "AG10" 31.46868 31.46868 31.46868 8.596454 8.991468 9.705375 
111 "BI4" 30.76982 30.76982 30.76982 8.256140 8.633458 9.315382 
112 "AS1" 30.06943 30.06943 30.06943 7.924890 8.284983 8.935776 
113 "AU1" 29.37057 29.37057 29.37057 7.602633 7.945968 8.566476 
114 "AL5" 28.67170 28.67170 28.67170 7.289297 7.616339 8.207401 
115 "D1" 27.97131 27.97131 27.97131 6.984812 7.296021 7.858467 
116 "U2" 27.27245 27.27245 27.27245 6.689104 6.984936 7.519592 
117 "I3" 26.57359 26.57359 26.57359 6.402099 6.683007 7.190690 
118 "E6" 25.87472 25.87472 25.87472 6.123722 6.390155 6.871676 
119 "BF3" 25.17433 25.17433 25.17433 5.853898 6.106300 6.562464 
120 "BJ1" 24.47547 24.47547 24.47547 5.592551 5.831362 6.262965 
121 "C14" 23.77661 23.77661 23.77661 5.339601 5.565259 5.973090 
122 "AI10" 23.07622 23.07622 23.07622 5.094970 5.307908 5.692749 
123 "AM14" 22.37736 22.37736 22.37736 4.858579 5.059224 5.421849 
124 "BJ8" 21.67849 21.67849 21.67849 4.630346 4.819123 5.160299 
125 "BM13" 20.97963 20.97963 20.97963 4.410188 4.587517 4.908002 
126 "N4" 20.27924 20.27924 20.27924 4.198021 4.364317 4.664864 
127 "G6" 19.58038 19.58038 19.58038 3.993761 4.149436 4.430787 
128 "A2" 18.88151 18.88151 18.88151 3.797321 3.942781 4.205671 
129 "E1" 18.18112 18.18112 18.18112 3.608614 3.744261 3.989416 
130 "AL2" 17.48226 17.48226 17.48226 3.427548 3.553780 3.781919 
131 "AX3" 16.78340 16.78340 16.78340 3.254035 3.371244 3.583076 
132 "AO12" 16.08453 16.08453 16.08453 3.087980 3.196554 3.392780 
133 "AR1" 15.38415 15.38415 15.38415 2.929289 3.029611 3.210924 
134 "AE9" 14.68528 14.68528 14.68528 2.777866 2.870314 3.037396 
135 "AD9" 13.98642 13.98642 13.98642 2.633612 2.718559 2.872084 
136 "BJ4" 13.28603 13.28603 13.28603 2.496427 2.574241 2.714874 
137 "AT2" 12.58717 12.58717 12.58717 2.366209 2.437251 2.565646 
138 "AE11" 11.88830 11.88830 11.88830 2.242852 2.307480 2.424282 
139 "BI14" 11.18944 11.18944 11.18944 2.126250 2.184814 2.290658 
140 "BC3" 10.48905 10.48905 10.48905 2.016291 2.069138 2.164648 
141 "Z1" 9.790188 9.790188 9.790188 1.912864 1.960332 2.046122 
142 "AP10" 9.091325 9.091325 9.091325 1.815852 1.858276 1.934949 
143 "K14" 8.390936 8.390936 8.390936 1.725136 1.762843 1.830991 
144 "E11" 7.692073 7.692073 7.692073 1.640595 1.673906 1.734108 
145 "Y9" 6.993210 6.993210 6.993210 1.562101 1.591330 1.644156 
146 "AB1" 6.294347 6.294347 6.294347 1.489524 1.514980 1.560985 
147 "BH1" 5.593957 5.593957 5.593957 1.422730 1.444712 1.484440 
148 "BG1" 4.895094 4.895094 4.895094 1.361579 1.380381 1.414362 
149 "AM4" 4.196231 4.196231 4.196231 1.305925 1.321833 1.350583 
150 "BE5" 3.495842 3.495842 3.495842 1.254678 1.267921 1.291855 
151 "W13" 2.796979 2.796979 2.796979 1.203742 1.214337 1.233484 
152 "Q3" 2.098116 2.098116 2.098116 1.152807 1.160753 1.175113 
153 "AK14" 1.399252 1.399252 1.399252 1.101871 1.107168 1.116742 
154 "J14" 0.698863 0.698863 0.698863 1.050936 1.053584 1.058371 
155 "BJ7" 0.00000 0.00000 100.0000 18.87111 8.147314 95.12896 
156 "H8" 0.00000 100.0000 0.00000 36.40521 71.80052 12.80184 
157 "BK9" 0.00000 100.0000 83.21660 48.19651 76.51629 74.90784 
158 "AF12" 100.0000 0.00000 0.00000 41.83017 22.05217 2.913230 
159 "A6" 99.55596 100.0000 57.95529 82.09919 94.75028 42.48261 
160 "E12" 83.96124 0.00000 56.85512 33.54408 17.19471 28.93286 
161 "BG10" 69.41024 34.99199 35.82361 24.39117 18.12000 12.95252 
162 "AA2" 29.79934 54.34195 24.31678 13.89069 21.02197 8.700404 
163 "H4" 72.71077 50.94530 12.64515 29.06030 27.15008 5.940588 
164 "AI5" 0.00000 16.40040 47.51202 5.239756 3.996928 19.31801 
165 "Y10" 34.25956 8.987564 26.72313 6.264287 4.042159 6.748685 
166 "A11" 60.93538 63.68811 91.61212 41.96847 39.51928 83.07594 
167 "BG4" 0.00000 81.32601 97.83322 40.18611 52.16001 97.95141 
168 "AM6" 0.00000 48.37110 43.72015 10.92263 16.25525 18.45468 
169 "BH10" 70.54856 73.91165 55.94110 42.39993 48.35521 33.55751 
170 "AL10" 58.24369 94.58000 56.04639 49.28311 71.62582 37.79291 
171 "V10" 100.0000 0.00000 40.30518 44.24307 23.01717 15.62220 
172 "U1" 82.34226 39.52239 20.28229 32.50110 23.97884 6.961349 
173 "BI11" 66.57511 0.00000 6.215000 17.45456 9.473442 2.248602 
174 "M11" 49.76120 0.00000 62.66728 15.91449 7.965291 34.40452 
175 "E8" 70.58671 100.0000 98.70298 72.38785 88.34670 105.0491 
176 "L4" 0.00000 36.31189 94.49607 20.55498 14.96473 85.04994 
177 "BG9" 0.00000 57.80270 82.52384 22.96262 26.40736 65.41152 
178 "AO11" 57.26253 70.61723 0.00000 28.91381 39.39701 6.941572 
179 "F7" 89.67880 58.74876 75.86786 53.24117 42.80886 56.55154 
180 "O7" 85.64889 51.42443 100.0000 55.67105 39.07363 99.16045 
181 "P8" 99.60174 34.99046 34.96452 46.80936 29.68891 13.51977 
182 "BJ12" 68.78309 63.69726 23.14031 32.24066 36.11359 10.23140 
183 "AW1" 35.05150 32.32929 11.67773 8.364667 9.253271 3.406922 
184 "Z9" 85.51308 100.0000 0.00000 65.04844 86.56906 14.14401 
185 "R13" 29.22103 7.270924 0.00000 4.058229 2.907672 1.207165 
186 "E2" 0.00000 100.0000 99.08293 53.90583 78.79966 104.9794 
187 "Y13" 51.41833 25.56649 93.74990 27.60223 15.72484 83.35835 
188 "Y11" 22.90074 70.26627 52.54292 23.00525 35.59261 28.84792 
189 "G12" 48.51606 69.21950 69.23018 32.47137 39.28368 47.68560 
190 "BH13" 73.30739 58.02396 47.55016 35.18447 33.77998 23.52120 
191 "AY6" 59.78332 45.46120 52.66346 24.35873 21.71317 26.20914 
192 "BJ14" 82.45823 31.37865 49.59182 33.98887 21.79151 22.97738 
193 "BA8" 51.49462 0.00000 22.10880 11.03088 6.089150 5.207059 
194 "BA2" 50.40818 29.54452 9.816129 12.58241 10.68271 3.171505 
195 "AE8" 44.58228 0.00000 0.00000 7.829718 4.521425 1.320029 
196 "E5" 53.72549 1.414511 44.40986 14.21756 7.529623 17.10753 
197 "AH1" 0.00000 32.07141 42.33616 6.648899 8.012538 16.09394 
198 "K11" 0.00000 16.00824 0.00000 1.779014 2.557810 1.259673 
199 "AO6" 45.01869 84.84627 18.90440 32.90909 53.60800 12.26577 
200 "BL9" 5.377279 75.00420 71.00175 27.94063 41.39464 50.69925 
201 "AN14" 23.15862 15.82208 1.721218 3.575642 3.457398 1.463526 
202 "AL9" 73.11055 52.88930 52.47883 33.96072 30.20724 27.17338 
203 "AP12" 41.24361 51.11772 40.56153 17.18271 20.85939 16.80113 
204 "K10" 15.20256 16.55299 28.67018 3.841064 3.554242 7.604389 
205 "AR8" 60.37385 0.00000 16.95888 14.62125 7.972710 3.915155 
206 "K12" 17.66842 0.00000 8.149844 2.205855 1.606473 1.745669 
207 "Q1" 82.08896 15.94110 26.72160 28.93479 16.43071 7.945581 
208 "AB8" 0.00000 24.52583 23.12505 3.515533 4.781237 5.690849 
209 "U11" 100.0000 83.06401 58.49393 70.47752 70.72622 39.02398 
210 "BJ5" 0.00000 62.42161 0.128176 13.30689 25.60749 5.111080 
211 "S9" 0.00000 50.06180 91.57092 23.23244 22.04772 80.61072 
212 "AD3" 57.29915 68.93416 79.71771 38.79070 41.99679 63.04850 
213 "L10" 28.02777 19.11192 65.25368 11.53438 7.236744 37.56562 
214 "BE12" 97.68215 56.19593 55.91821 54.35878 42.44704 31.76489 
215 "N11" 96.60792 64.57618 44.02228 54.92277 48.14942 22.51632 
216 "AW14" 55.95789 38.40696 64.81117 23.22951 18.09026 38.50670 
217 "F14" 32.96407 22.51011 20.55543 6.716371 6.054382 4.940856 
218 "J13" 16.78492 33.03273 8.348211 5.271814 7.872007 2.818037 
219 "I1" 31.37407 39.51324 59.77111 14.50531 14.11428 32.41537 
220 "AC6" 40.92622 57.81338 82.52384 28.66089 29.35169 65.67974 
221 "L6" 100.0000 83.18608 0.00000 65.17085 68.72700 10.69352 
222 "E7" 59.08446 50.02213 91.57092 35.79336 28.50453 81.19549 
223 "J8" 100.0000 0.00000 100.0000 59.70128 29.19948 97.04219 
224 "BA11" 45.64736 86.79179 92.30640 48.76936 62.02421 88.38656 
225 "AY10" 78.37797 70.39597 81.65103 51.90674 49.77860 66.96527 
226 "R10" 0.00000 55.39940 65.56649 17.39345 22.70583 40.62466 
227 "L12" 0.00000 100.0000 64.18708 43.01080 74.44234 47.59417 
228 "F11" 80.10529 65.33761 37.90951 41.45926 41.81591 17.86789 
229 "BJ2" 80.66377 38.83116 72.71077 39.24969 26.27271 49.54514 
230 "AG2" 47.44335 54.15732 20.98878 18.46454 23.30549 7.783686 
231 "V13" 57.15572 47.73785 29.13710 20.78377 21.23581 10.33244 
232 "B10" 40.83772 53.17922 57.75082 20.56471 23.33757 31.72540 
233 "AQ1" 71.36339 0.00000 85.45510 32.61208 15.85142 67.82636 
234 "AW12" 100.0000 70.54551 22.17899 58.68825 54.61136 12.08623 
235 "R11" 35.66796 57.69284 0.143435 15.61717 23.89427 4.659822 
236 "AE7" 64.85389 85.20790 73.07851 49.89148 61.75582 56.35111 
237 "Q11" 19.67193 25.05379 19.45983 4.681064 5.517467 4.624390 
238 "Q8" 76.91310 92.09583 67.30297 60.27789 74.30274 50.49051 
239 "T5" 39.11498 70.97124 79.02342 33.02759 40.57197 61.98561 
240 "P5" 27.05882 67.12596 67.13359 25.17625 34.06813 44.35787 
241 "B5" 85.27962 84.45716 55.24376 58.36963 65.87451 35.40698 
242 "BC11" 100.0000 78.84642 74.59068 71.74780 67.12205 58.39679 
243 "L11" 44.98665 38.66178 31.47021 13.78475 13.92388 10.38471 
244 "AV12" 46.37522 19.59411 21.62814 10.24584 7.361551 5.339539 
245 "BE1" 23.98413 0.00000 33.96963 4.603176 2.662559 9.980846 
246 "AH12" 25.15145 71.58465 37.79965 21.88192 36.26535 17.76008 
247 "BD10" 79.70245 79.54376 0.00000 46.55458 55.81122 9.180885 
248 "S4" 58.22690 20.66224 0.00000 14.42368 9.771238 1.986104 
249 "Y7" 93.26162 19.95880 79.71771 47.72146 25.58408 59.41083 
250 "AC8" 34.97063 38.82506 72.59174 18.19535 15.41879 48.39174 
251 "AM13" 57.58145 76.06165 39.14397 34.24275 46.21097 19.86961 
252 "A4" 19.64446 20.96284 4.827955 3.655533 4.262623 1.844401 
253 "BH2" 47.40673 88.11322 64.18860 41.97239 60.80218 45.01852 
254 "BD2" 0.00000 0.366217 73.48592 9.932024 4.588280 47.99644 
255 "P1" 11.24132 42.53147 60.54322 12.65629 14.28891 33.39425 
256 "AO4" 100.0000 88.97841 95.17357 84.96947 82.76813 96.09160 
257 "AC11" 50.99870 40.56306 40.32044 17.38129 16.35763 15.76215 
258 "B8" 8.667124 45.43832 28.97230 8.717746 13.99247 9.496310 
259 "AT9" 57.95377 28.41535 42.19120 18.03468 12.92459 16.34052 
260 "AC13" 14.15579 11.85626 4.896620 2.257863 2.331513 1.550872 
261 "BF7" 100.0000 51.54650 0.00000 49.92490 38.23937 5.611497 
262 "H10" 30.98039 63.70184 23.14031 17.84335 28.69342 9.557372 
263 "AC14" 63.00908 23.67590 19.36675 17.66308 11.93018 5.152355 
264 "AZ3" 84.99580 76.85664 64.82948 55.54806 57.34477 44.40548 
265 "V8" 37.69894 0.00000 86.62242 18.69633 8.631409 69.20565 
266 "O3" 100.0000 43.57366 72.59327 56.15213 36.80296 50.52161 
267 "AO3" 48.64424 76.86427 100.0000 46.65221 51.47874 102.0300 
268 "AW13" 89.10964 95.27733 86.56138 77.04262 85.79361 80.92134 
269 "C4" 48.23529 92.50935 83.90936 50.76931 69.30339 74.54355 
270 "AF9" 0.00000 28.69612 72.03174 11.90341 9.152719 46.73462 
271 "AT5" 87.27855 51.23217 60.13733 44.70498 34.72789 35.20319 
272 "BH11" 77.18471 59.63531 83.57214 46.78400 39.74504 68.47998 
273 "Z2" 84.40833 42.89311 36.36530 36.21464 27.02683 14.36330 
274 "H12" 84.32746 69.24392 13.12734 44.51670 46.38297 8.927836 
275 "BM7" 65.80453 39.20348 28.76478 22.65720 18.71950 9.582255 
276 "BE4" 11.58160 0.694285 22.48722 2.275351 1.600239 4.926460 
277 "BF12" 64.83864 9.623865 40.30365 19.17995 10.59114 14.54219 
278 "AG4" 89.47738 61.07118 52.53529 48.71348 42.51166 28.82286 
279 "C13" 91.31762 0.00000 16.95888 34.66163 18.30560 4.854212 
280 "A13" 100.0000 61.71817 95.26360 69.83697 52.45245 91.21679 
281 "AL13" 69.77646 70.76829 77.20455 45.37695 46.84777 59.74765 
282 "Z13" 73.82010 88.98451 95.17357 64.73559 72.34171 95.14468 
283 "C2" 25.22927 40.32044 35.69390 9.769462 12.40541 12.54530 
284 "AP14" 18.22538 5.598535 1.858549 2.321651 1.914759 1.241716 
285 "F8" 81.68154 93.15023 91.60754 71.61765 80.44254 89.40412 
286 "R2" 44.37476 81.18715 79.71923 40.56629 52.95835 65.07361 
287 "BB7" 0.00000 12.48493 18.32914 2.009853 2.215002 3.817473 
288 "AB9" 85.73892 100.0000 61.58236 71.24805 89.06830 45.90493 
289 "BE10" 88.14069 37.02144 44.36561 38.62522 25.99195 19.35246 
290 "F1" 83.26848 50.34104 22.24765 36.39160 30.57744 8.644107 
291 "AQ11" 82.21103 28.15595 20.20600 30.09687 19.31862 6.165625 
292 "Q14" 37.43648 27.74395 37.30526 9.985926 8.683319 12.76144 
293 "K8" 29.96414 38.00259 48.63661 11.81048 12.42581 21.52825 
294 "M5" 65.40627 100.0000 15.57031 52.51248 80.06219 15.51037 
295 "V6" 92.99916 31.15435 0.00000 38.42629 24.45254 3.555849 
296 "BL13" 41.02388 50.07095 29.70626 15.60702 19.66463 10.55949 
297 "Y2" 64.54719 61.40383 53.80331 32.63158 34.40311 29.29271 
298 "AO8" 78.07279 0.00000 33.95438 26.02789 13.70940 10.97645 
299 "BM12" 84.20691 63.70489 23.14031 42.31931 41.31489 10.70458 
300 "H3" 35.19799 4.966812 17.24422 5.738723 3.596537 3.608781 
301 "G3" 0.00000 85.98154 34.36027 27.87403 51.97555 18.48537 
302 "AD8" 34.76005 38.29252 0.00000 9.336202 11.66722 2.620032 
303 "B9" 24.92256 25.06752 87.98962 18.24724 11.03375 72.12987 
304 "AA1" 21.62509 16.65064 22.32547 4.133153 3.771806 5.194165 
305 "R14" 0.00000 9.935149 4.431220 1.412879 1.727202 1.441221 
306 "Q6" 99.26909 86.57053 44.58076 69.67995 73.96408 27.13759 
307 "BE13" 66.46677 31.63500 76.81392 30.04413 19.12354 54.61437 
308 "AS14" 76.86427 28.66255 28.67170 27.09891 17.82812 9.135234 
309 "AS3" 47.59442 24.51362 16.79561 11.01919 8.688396 4.203329 
310 "AV5" 25.62753 42.40177 0.00000 8.503624 12.76783 2.876331 
311 "H9" 55.18578 54.16953 68.39857 28.45066 27.65646 44.56707 
312 "BJ9" 0.00000 56.77272 31.06889 12.39547 21.53926 11.73289 
313 "AZ6" 62.40482 84.85237 0.00000 39.58869 57.11929 9.800262 
314 "Q7" 68.51606 43.83459 62.25223 30.32675 23.88475 36.23992 
315 "B12" 6.041047 40.48524 85.39101 18.52404 15.75156 68.44047 
316 "BF5" 49.62081 48.29175 72.59785 25.30995 22.96368 49.48144 
317 "AA3" 83.93225 77.14046 100.0000 66.03776 61.70727 102.9834 
318 "AP13" 79.41405 7.055772 0.00000 25.46497 13.93189 2.207707 
319 "AI14" 77.51125 86.44999 36.85664 51.42277 64.54622 21.09435 
320 "S10" 54.98131 46.03342 0.00000 18.08458 19.22240 3.617641 
321 "AY7" 48.10254 100.0000 42.39414 47.12982 77.01954 27.32309 
322 "X9" 0.00000 83.26696 52.26215 28.60235 49.46161 30.97287 
323 "AR7" 12.41627 43.59503 46.46677 10.49195 13.89556 20.11439 
324 "AU14" 0.00000 7.118334 62.22019 7.383434 3.899511 33.55346 
325 "X6" 80.63478 48.71901 46.59495 36.54743 29.58239 21.87218 
326 "U8" 100.0000 52.77943 38.45731 52.53710 39.96615 17.26674 
327 "AI1" 30.49668 22.22324 42.27207 8.193485 6.526341 15.68123 
328 "BI5" 56.43854 62.00504 14.61357 24.83241 31.24396 7.337846 
329 "BF10" 23.77508 0.00000 3.521782 2.931387 1.990194 1.344841 
330 "AN8" 62.02029 37.98428 42.95720 21.97129 17.75537 17.60876 
331 "AQ13" 89.55825 55.53063 0.00000 42.31377 36.42868 5.662846 
332 "BI8" 37.20912 61.74258 52.47730 21.91990 29.12154 27.59617 
333 "AX2" 78.96849 36.38819 59.77111 34.44902 23.31827 33.14184 
334 "BG11" 0.00000 84.29694 65.47799 31.95181 51.85144 45.37584 
335 "Z12" 95.97162 76.71015 64.19623 64.25292 61.72629 44.03153 
336 "V12" 48.25208 32.77028 72.03479 20.73247 14.79610 47.36195 
337 "R12" 6.793317 30.61112 19.24620 4.486481 6.743097 4.810891 
338 "AT1" 51.85779 16.62165 39.57885 13.61364 8.471811 13.95185 
339 "AV9" 78.52293 100.0000 42.39109 62.73521 85.06578 28.05228 
340 "D2" 70.65385 15.01488 64.01465 26.93601 14.64529 36.69337 
341 "AV7" 48.15900 97.91104 99.83520 60.60950 79.75764 106.4040 
342 "AP5" 0.00000 82.98619 86.01511 36.91809 52.50291 75.65009 
343 "K13" 0.00000 44.92256 74.14054 16.12005 16.67680 50.94058 
344 "AL3" 0.00000 39.08293 3.485161 5.528204 9.978035 2.747212 
345 "B6" 95.88464 0.00000 51.37255 42.16753 21.75695 24.10301 
346 "AW3" 30.11826 38.60838 41.32296 10.92441 12.30308 15.99433 
347 "AQ9" 87.65698 24.97292 41.74411 35.68520 21.25070 16.70709 
348 "Z10" 52.05768 52.29572 38.76097 21.11225 23.50920 15.93576 
349 "BH6" 36.00519 24.96834 2.992294 7.189526 6.853274 2.020818 
350 "M6" 62.02029 48.59846 43.72015 24.98464 23.61212 19.13401 
351 "AK9" 85.27352 40.61952 0.00000 34.32240 25.39284 3.953499 
352 "AU7" 34.63188 53.77890 52.07446 18.06686 22.48940 26.14943 
353 "AK11" 100.0000 44.69062 96.18524 64.14247 40.49953 91.06267 
354 "BG6" 29.26070 85.20943 73.07851 37.29445 55.26168 55.76102 
355 "AO5" 92.64363 88.10254 69.58877 69.79764 74.98742 53.08483 
356 "BC4" 0.00000 28.54658 55.51537 8.147401 7.610893 27.07366 
357 "AV14" 39.67193 27.26024 18.33219 8.972909 8.226448 4.611735 
358 "AI3" 43.52941 18.73960 46.49729 11.79950 7.730206 18.87916 
359 "BC9" 63.32647 89.01045 41.83566 45.44900 63.96886 24.50136 
360 "AQ7" 71.48699 16.60487 75.94415 30.60337 16.38735 52.75629 
361 "BL11" 69.28969 76.04486 69.59030 45.86485 51.53705 49.82009 
362 "T14" 34.81956 16.77577 0.00000 5.906142 4.787176 1.472638 
