Pre-made_Targets/Patch Width 12-15mm - Intermediate (Easy with ruler)/Designed Targets/CM-Interm-A4-325p-1page-w13.0mm-13x25-randomized/325-target.ti1
CTI1   

DESCRIPTOR "Argyll Calibration Target chart information 1"
ORIGINATOR "Argyll targen"
CREATED "Fri Jun 20 20:52:02 2025"
APPROX_WHITE_POINT "95.106486 100.000000 108.844025"
COLOR_REP "iRGB"
WHITE_COLOR_PATCHES "2"
BLACK_COLOR_PATCHES "4"
COMP_GREY_STEPS "32"
NEUTRAL_STEPS "48"
MULTI_DIM_BCC_STEPS "2"
OFPS_PATCHES "235"

NUMBER_OF_FIELDS 7
BEGIN_DATA_FORMAT
SAMPLE_ID RGB_R RGB_G RGB_B XYZ_X XYZ_Y XYZ_Z 
END_DATA_FORMAT

NUMBER_OF_SETS 325
BEGIN_DATA
1 100.0000 100.0000 100.0000 95.10649 100.0000 108.8440 
2 31.27532 31.77015 31.84530 8.647083 9.096990 9.909385 
3 42.92114 100.0000 38.10636 44.84823 75.90575 24.39070 
4 100.0000 50.54244 69.42741 57.44842 40.70824 46.90418 
5 29.03226 29.03226 29.03226 7.449909 7.785303 8.391458 
6 9.444172 57.28136 60.82169 17.42778 23.91076 35.30851 
7 11.37581 11.56237 60.29102 7.702412 4.453447 31.47767 
8 93.54839 93.54839 93.54839 81.88117 86.08697 93.68810 
9 90.32258 90.32258 90.32258 75.70274 79.58726 86.60775 
10 87.09677 87.09677 87.09677 69.80876 73.38680 79.85337 
11 83.87097 83.87097 83.87097 64.19536 67.48150 73.42053 
12 80.64516 80.64516 80.64516 58.85858 61.86721 67.30470 
13 77.41935 77.41935 77.41935 53.79440 56.53969 61.50125 
14 74.19355 74.19355 74.19355 48.99867 51.49459 56.00546 
15 70.96774 70.96774 70.96774 44.46718 46.72747 50.81246 
16 67.74194 67.74194 67.74194 40.19559 42.23375 45.91731 
17 64.51613 64.51613 64.51613 36.17945 38.00878 41.31490 
18 61.29032 61.29032 61.29032 32.41421 34.04774 37.00002 
19 58.06452 58.06452 58.06452 28.89517 30.34571 32.96727 
20 54.83871 54.83871 54.83871 25.61751 26.89761 29.21114 
21 51.61290 51.61290 51.61290 22.57624 23.69820 25.72591 
22 48.38710 48.38710 48.38710 19.76623 20.74207 22.50570 
23 45.16129 45.16129 45.16129 17.18217 18.02363 19.54442 
24 41.93548 41.93548 41.93548 14.81852 15.53708 16.83573 
25 38.70968 38.70968 38.70968 12.66958 13.27640 14.37309 
26 35.48387 35.48387 35.48387 10.72937 11.23530 12.14965 
27 32.25806 32.25806 32.25806 8.991660 9.407224 10.15827 
28 0.00000 0.00000 0.00000 1.000000 1.000000 1.000000 
29 25.80645 25.80645 25.80645 6.097238 6.362293 6.841326 
30 22.58065 22.58065 22.58065 4.926365 5.130535 5.499530 
31 19.35484 19.35484 19.35484 3.929543 4.081879 4.357194 
32 16.12903 16.12903 16.12903 3.098470 3.207589 3.404801 
33 12.90323 12.90323 12.90323 2.424161 2.498217 2.632058 
34 9.677419 9.677419 9.677419 1.896786 1.943418 2.027697 
35 6.451613 6.451613 6.451613 1.505402 1.531683 1.579180 
36 3.225806 3.225806 3.225806 1.234961 1.247179 1.269260 
37 0.00000 4.697921 4.572560 1.193586 1.285272 1.378623 
38 0.00000 4.694519 4.684153 1.195188 1.285747 1.387574 
39 0.00000 4.687790 4.792209 1.196659 1.286006 1.396338 
40 0.00000 4.682611 4.901524 1.198223 1.286379 1.405354 
41 0.00000 1.701313 2.157277 1.076462 1.105165 1.172710 
42 0.00000 3.428492 3.950893 1.148589 1.209729 1.319092 
43 4.175171 6.863145 7.212935 1.449605 1.525026 1.661218 
44 7.775818 9.659313 9.924078 1.795626 1.889050 2.057751 
45 10.69211 12.16774 12.38208 2.192746 2.306833 2.512843 
46 13.30119 14.52008 14.70027 2.644493 2.782086 3.030539 
47 15.74015 16.77916 16.93440 3.154377 3.318499 3.614857 
48 18.07544 18.97998 19.11606 3.725922 3.919780 4.269832 
49 20.34426 21.14391 21.26474 4.362642 4.589629 4.999502 
50 22.56959 23.28482 23.39319 5.068060 5.331750 5.807896 
51 24.76646 25.41213 25.51013 5.845694 6.149844 6.699048 
52 26.94516 27.53248 27.62170 6.699062 7.047614 7.676993 
53 29.11301 29.65065 29.73233 7.631686 8.028762 8.745760 
54 100.0000 100.0000 100.0000 95.10649 100.0000 108.8440 
55 33.43604 33.89360 33.96304 9.748773 10.25600 11.17190 
56 35.59815 36.02299 36.08738 10.94028 11.50950 12.53734 
57 37.76391 38.15982 38.21973 12.22511 12.86118 14.00973 
58 39.93510 40.30523 40.36113 13.60679 14.31476 15.59311 
59 42.11303 42.46012 42.51242 15.08884 15.87392 17.29152 
60 44.29883 44.62515 44.67419 16.67479 17.54238 19.10898 
61 46.49329 46.80083 46.84692 18.36815 19.32384 21.04953 
62 48.69706 48.98755 49.03095 20.17243 21.22200 23.11720 
63 50.91064 51.18561 51.22654 22.09116 23.24056 25.31602 
64 53.13442 53.39520 53.43387 24.12785 25.38322 27.65003 
65 55.36871 55.61647 55.65307 26.28603 27.65369 30.12326 
66 57.61374 57.84952 57.88419 28.56921 30.05567 32.73974 
67 59.86966 60.09439 60.12729 30.98092 32.59286 35.50351 
68 62.13660 62.35111 62.38236 33.52467 35.26897 38.41860 
69 64.41463 64.61968 64.64939 36.20399 38.08769 41.48904 
70 66.70380 66.90006 66.92834 39.02238 41.05272 44.71886 
71 69.00413 69.19221 69.21915 41.98338 44.16778 48.11211 
72 71.31562 71.49607 71.52175 45.09050 47.43656 51.67280 
73 73.63825 73.81157 73.83608 48.34726 50.86277 55.40498 
74 75.97198 76.13863 76.16203 51.75717 54.45011 59.31267 
75 78.31676 78.47717 78.49952 55.32377 58.20227 63.39992 
76 80.67254 80.82709 80.84845 59.05056 62.12297 67.67074 
77 83.03925 83.18829 83.20873 62.94107 66.21590 72.12919 
78 85.41682 85.56067 85.58023 66.99881 70.48477 76.77928 
79 87.80518 87.94414 87.96287 71.22731 74.93328 81.62505 
80 90.20423 90.33859 90.35652 75.63008 79.56513 86.67054 
81 92.61390 92.74391 92.76109 80.21065 84.38403 91.91978 
82 95.03411 95.16000 95.17646 84.97253 89.39367 97.37679 
83 97.46475 97.58674 97.60253 89.91924 94.59776 103.0456 
84 0.00000 100.0000 100.0000 54.27632 78.94783 106.9308 
85 100.0000 0.00000 100.0000 59.70128 29.19948 97.04219 
86 0.00000 0.00000 100.0000 18.87111 8.147314 95.12896 
87 100.0000 100.0000 0.00000 77.23538 92.85269 14.71507 
88 0.00000 100.0000 0.00000 36.40521 71.80052 12.80184 
89 100.0000 0.00000 0.00000 41.83017 22.05217 2.913230 
90 50.00000 50.00000 50.00000 21.14266 22.19007 24.08306 
91 80.63985 0.00000 100.0000 43.97061 21.08870 96.30508 
92 20.72755 0.00000 100.0000 20.31719 8.892921 95.19672 
93 0.00000 75.40807 0.00000 19.72586 38.44648 7.242005 
94 76.14575 0.00000 0.00000 23.07069 12.37972 2.034194 
95 49.85946 100.0000 0.00000 45.09153 76.27921 13.20886 
96 0.00000 100.0000 60.05365 42.10919 74.08175 42.84529 
97 0.00000 40.65247 100.0000 23.73887 17.88147 96.75156 
98 100.0000 50.77288 0.00000 49.66409 37.71782 5.524560 
99 100.0000 100.0000 51.19068 81.26045 94.46246 35.91553 
100 52.15903 100.0000 100.0000 63.85392 83.88608 107.3796 
101 100.0000 0.00000 75.23188 51.23289 25.81266 52.43834 
102 0.00000 0.00000 73.80779 10.00956 4.603255 48.45428 
103 100.0000 52.61516 100.0000 68.16489 46.12434 99.86342 
104 0.00000 80.09231 100.0000 40.30518 51.00946 102.2737 
105 100.0000 100.0000 24.15404 78.08524 93.19258 19.19136 
106 60.93334 0.00000 100.0000 32.32667 15.08505 95.75946 
107 50.74597 0.00000 0.00000 10.02391 5.652756 1.422845 
108 0.00000 27.49139 0.00000 3.174816 5.349025 1.724945 
109 100.0000 0.00000 49.78548 45.61993 23.56783 22.87431 
110 0.00000 0.00000 24.25392 1.856745 1.342644 5.512564 
111 57.82749 0.00000 64.12110 19.58548 9.820427 36.27533 
112 62.80720 100.0000 49.40906 54.51784 80.70823 33.11232 
113 0.00000 78.45847 59.32082 27.01734 44.14519 37.06549 
114 48.83256 30.61168 100.0000 29.87729 17.83158 96.41863 
115 100.0000 53.56782 46.06859 53.83738 40.93307 22.73721 
116 70.78541 79.33323 0.00000 40.73213 52.62381 8.872280 
117 100.0000 27.66677 0.00000 44.03284 26.45689 3.647459 
118 0.00000 28.19150 76.94056 13.17467 9.528175 53.84057 
119 45.70387 75.81287 0.00000 27.15431 42.61149 7.654730 
120 0.00000 100.0000 20.49949 37.02502 72.04840 16.06646 
121 0.00000 38.65125 42.91956 8.133212 10.85425 16.97886 
122 49.21109 23.78485 0.00000 11.07798 8.621021 1.940290 
123 19.48821 0.00000 43.22416 5.086020 2.783068 15.80054 
124 0.00000 100.0000 80.37162 47.30918 76.16142 70.23418 
125 23.91180 100.0000 0.00000 38.30903 72.78214 12.89105 
126 77.58006 0.00000 50.15938 27.86427 14.40581 22.36494 
127 21.99819 81.89493 100.0000 43.02455 54.04323 102.7161 
128 78.32515 100.0000 100.0000 77.78745 91.07025 108.0325 
129 44.03839 100.0000 60.09138 48.77035 77.51535 43.19856 
130 100.0000 23.64853 100.0000 61.31690 32.43029 97.58074 
131 0.00000 51.13375 23.41721 9.755092 17.22782 7.865683 
132 38.65216 0.00000 47.61297 9.489439 4.979044 19.36655 
133 48.80960 55.38639 100.0000 36.63207 31.35174 98.67265 
134 100.0000 81.49436 30.83330 65.50038 67.17218 17.63077 
135 0.00000 0.00000 46.18753 4.224567 2.289623 17.98413 
136 24.86865 20.86771 0.00000 4.325966 4.599843 1.519702 
137 100.0000 17.98873 17.53132 43.25585 24.16187 5.674532 
138 100.0000 79.73552 100.0000 80.92154 71.63407 104.1157 
139 100.0000 28.94687 79.97660 55.02639 31.18888 60.51763 
140 25.29976 0.00000 0.00000 3.126615 2.096490 1.099649 
141 0.00000 0.00000 0.00000 1.000000 1.000000 1.000000 
142 42.60239 0.00000 100.0000 25.07087 11.34393 95.41947 
143 0.00000 52.30469 0.00000 9.355502 17.70867 3.785191 
144 52.92951 0.00000 18.83546 11.41648 6.309600 4.248749 
145 25.39710 42.42952 100.0000 26.34366 19.91020 97.00597 
146 77.39571 100.0000 0.00000 59.29555 83.60285 13.87444 
147 82.60303 35.30713 100.0000 48.98812 29.05220 97.57800 
148 100.0000 25.83434 59.42025 49.32458 28.12394 32.90531 
149 100.0000 100.0000 77.69041 87.34003 96.89391 67.93731 
150 50.95500 51.71431 0.00000 18.25676 21.99639 4.144034 
151 85.67723 47.55184 35.93033 38.46437 30.19019 14.60293 
152 28.67698 100.0000 81.28420 50.31920 77.68098 71.83784 
153 80.94880 100.0000 58.74833 67.15649 87.02731 42.61576 
154 100.0000 73.02916 79.22561 69.81968 61.13288 64.33376 
155 0.00000 20.61269 100.0000 20.11192 10.62859 95.54257 
156 22.53406 68.69015 56.92963 22.97869 34.31698 32.87027 
157 72.60430 39.26954 0.00000 25.36746 20.27958 3.438132 
158 0.00000 58.66951 100.0000 29.60730 29.61669 98.70772 
159 0.00000 75.49345 29.18078 21.01086 39.03632 13.77607 
160 42.53086 12.83457 59.05001 13.20532 7.445421 30.41781 
161 100.0000 76.79571 0.00000 61.33610 61.05856 9.415260 
162 65.57854 76.00298 28.66725 37.07717 47.74773 14.38326 
163 21.83346 0.00000 70.32043 10.68461 5.057925 43.67431 
164 100.0000 76.99769 56.02167 66.34912 63.24758 35.25156 
165 24.84962 83.35658 39.84522 28.85651 49.89091 21.31734 
166 55.84836 28.92134 43.66443 17.38239 12.68974 17.38538 
167 76.58540 46.77252 85.89083 42.58250 30.71607 70.92889 
168 100.0000 62.94773 25.31730 55.29721 47.49136 12.00094 
169 0.00000 100.0000 40.94304 38.89955 72.79809 25.93976 
170 100.0000 0.00000 26.68030 42.86427 22.46574 8.359933 
171 100.0000 27.97166 39.01844 46.33516 27.45592 15.53274 
172 24.98623 100.0000 100.0000 56.35134 80.01772 107.0280 
173 51.00258 63.90542 33.77820 24.75148 32.28753 14.53535 
174 39.36316 35.31630 66.79752 17.08429 13.83792 40.45658 
175 69.10513 21.59945 100.0000 38.00287 20.02467 96.41400 
176 57.10617 100.0000 77.80849 58.21393 81.87241 66.75238 
177 26.11427 22.11738 100.0000 22.55458 12.15305 95.70818 
178 79.46758 100.0000 27.82301 61.81715 84.77294 19.86239 
179 0.00000 48.81251 69.62512 16.10581 18.55155 45.06622 
180 22.63334 69.69871 0.00000 18.42086 33.29719 6.316775 
181 0.00000 20.96255 51.31669 6.327661 5.180184 22.74077 
182 42.44840 79.12867 100.0000 45.88281 53.03254 102.3705 
183 21.56935 100.0000 40.45400 40.39696 73.57741 25.68329 
184 42.15347 89.22010 78.75290 44.81417 62.95447 65.26410 
185 78.06295 0.00000 22.90705 25.10163 13.33821 6.131194 
186 74.07436 46.23295 19.10528 28.69544 24.71808 6.966418 
187 51.17675 51.79292 77.50112 28.41929 26.11377 57.08910 
188 24.08679 62.10387 30.08377 16.41468 26.85325 12.07929 
189 0.00000 22.53346 23.97456 3.308812 4.277055 5.901966 
190 54.16835 0.00000 37.61590 13.48504 7.195958 12.47850 
191 87.64432 61.65629 52.80082 47.55938 42.28028 29.08494 
192 43.37722 0.00000 78.57670 17.80710 8.466919 55.89512 
193 71.89309 17.96835 62.86359 27.68038 15.45205 35.45715 
194 27.69651 65.32573 84.84790 29.46955 34.44658 70.53602 
195 27.80634 45.05196 0.00000 9.622550 14.43459 3.139134 
196 28.49062 100.0000 20.45693 39.71684 73.43659 16.17990 
197 70.88716 52.20216 100.0000 46.00262 34.48423 98.78378 
198 25.55274 38.52949 56.45387 12.49727 12.80420 28.78586 
199 48.36292 16.31568 90.32423 24.12619 12.47911 76.37344 
200 77.76137 49.60769 58.26084 36.92040 29.96043 32.67654 
201 26.30448 0.00000 20.52414 3.918152 2.432754 4.379687 
202 77.94956 19.02206 0.00000 25.32619 15.12634 2.445578 
203 0.00000 58.85576 49.80261 15.60371 24.13603 24.57967 
204 21.10719 100.0000 62.83395 44.20396 75.09266 46.06486 
205 96.77419 96.77419 96.77419 88.34785 92.88991 101.0988 
206 50.71216 81.91080 63.12310 38.92031 53.27238 42.46771 
207 100.0000 41.56540 22.68028 47.68422 32.55561 8.574759 
208 76.30058 59.63118 0.00000 34.29767 34.68127 5.747738 
209 61.35956 54.90149 21.99748 24.65755 26.89573 8.469633 
210 62.51536 78.62176 100.0000 53.66941 56.60416 102.6498 
211 75.60362 27.92569 84.95459 37.31795 21.62740 67.83136 
212 69.07425 33.92154 29.04224 23.31792 17.31411 9.399510 
213 40.04426 24.13045 12.32270 8.368617 7.264345 3.133994 
214 57.41938 100.0000 21.28212 48.88096 78.15608 16.86070 
215 22.14088 62.20128 100.0000 32.72070 33.40837 99.27565 
216 43.71458 63.11157 87.93169 33.50802 34.92732 75.83328 
217 74.75832 0.00000 77.08157 32.10932 15.89172 54.28472 
218 77.16500 61.57222 30.90799 37.06727 37.15425 13.36980 
219 17.47761 32.00585 86.90312 18.01289 12.65910 70.51581 
220 14.75173 75.06833 85.48463 32.84279 43.48133 73.20001 
221 73.63801 69.91044 15.31441 37.65800 43.33175 9.145853 
222 88.46505 36.75727 55.11077 40.58896 26.71205 28.65286 
223 15.78731 83.60315 60.12285 31.19980 50.94231 39.02910 
224 0.00000 70.21561 79.46229 27.59895 37.18652 62.30693 
225 25.30773 15.30755 49.87231 7.651435 5.057224 21.37593 
226 21.19708 74.14773 18.92549 21.07593 38.05317 9.892116 
227 50.88171 42.61621 24.73995 16.34671 16.79394 7.910058 
228 48.02926 70.97004 18.71974 25.89042 38.04528 9.580806 
229 59.50714 32.90082 79.08287 27.41898 18.05216 58.02755 
230 30.90902 82.34540 6.739874 27.09230 48.29904 9.288647 
231 71.90141 35.90776 47.58729 27.60666 19.88914 21.26949 
232 75.76014 82.77752 60.22620 51.64491 60.70735 39.95067 
233 30.96746 35.88838 12.44417 8.191974 10.24085 3.739426 
234 65.01869 16.12344 11.64766 17.54491 10.67519 3.192893 
235 31.54703 16.80670 71.27169 13.49639 7.741026 45.33209 
236 40.00540 68.40524 65.92968 28.50447 36.73472 43.19428 
237 0.00000 0.00000 0.00000 1.000000 1.000000 1.000000 
238 76.87280 100.0000 81.38272 70.16518 87.91011 72.92699 
239 56.78762 30.92082 60.22485 21.02482 14.75327 32.69141 
240 33.83137 82.80719 88.91180 41.61656 54.64479 80.98746 
241 36.91494 66.47433 43.27298 22.53027 32.76386 20.70426 
242 47.23852 15.17289 37.18375 11.47707 7.217625 12.32712 
243 17.90042 46.99790 72.09130 17.27978 18.24682 48.28855 
244 85.55513 29.07539 28.16974 33.26177 21.11313 9.226427 
245 52.46139 74.71632 48.24519 32.58378 44.09960 26.22144 
246 15.99473 46.13628 42.94675 11.03055 15.31097 17.70603 
247 52.83512 24.86155 24.60196 13.51206 9.993634 6.695721 
248 46.02929 63.12691 3.335013 20.97315 30.01333 5.790310 
249 81.23999 74.23272 100.0000 62.47195 57.46031 102.3514 
250 90.10156 87.84314 7.899258 59.74977 70.44459 11.97262 
251 88.47083 72.09150 41.01510 51.36829 51.81573 21.28160 
252 30.24171 82.70630 68.79322 34.78064 51.71881 49.39119 
253 61.65360 93.20815 62.98954 51.32402 71.00386 45.08143 
254 18.61654 28.33539 68.08973 12.02153 9.241359 41.47889 
255 55.78702 16.73152 70.21721 20.99292 11.62754 44.26111 
256 11.63531 60.60143 8.963778 13.20068 24.38259 5.666298 
257 68.27208 11.56185 29.01383 19.97289 11.30411 8.402908 
258 11.59578 40.83239 4.947319 6.500658 11.12022 3.028123 
259 39.34368 9.964515 5.242536 6.666334 4.436751 1.754492 
260 83.16769 12.27184 89.31378 42.22693 21.38830 75.27144 
261 91.51979 42.89468 81.41674 51.07177 33.61429 63.50719 
262 78.51142 58.40563 75.07346 44.62576 38.18808 54.94332 
263 44.12826 90.45916 13.14472 36.16260 60.95166 12.18340 
264 9.283471 89.33541 90.64527 43.08163 61.73054 85.48147 
265 46.35484 37.96523 7.243795 12.75154 13.30180 3.342632 
266 88.06076 50.94201 11.62297 39.72358 32.65019 6.262466 
267 37.41571 57.80065 14.07798 16.41906 24.33471 6.337059 
268 37.80624 27.10393 50.35439 11.81638 9.265164 22.38807 
269 11.12324 66.78949 40.31807 18.18890 30.79186 18.50377 
270 88.38512 89.06972 43.60609 61.94348 72.50708 26.54226 
271 92.65112 87.09616 68.15549 68.76575 73.48716 50.97630 
272 16.87956 6.611164 87.07641 15.24453 7.125235 69.90059 
273 67.42642 88.06486 83.61765 56.29198 67.52131 73.41733 
274 62.13346 51.43345 38.02501 25.23739 25.20668 15.58691 
275 90.44778 12.68762 50.27487 37.90480 20.35354 23.08491 
276 63.99749 64.01795 87.77673 42.30240 40.06657 76.08381 
277 11.53295 87.91613 23.45021 28.75618 54.45954 14.06324 
278 10.72223 50.95634 87.54098 22.56980 22.31022 73.27346 
279 63.96409 11.44174 47.66564 19.86577 10.98014 20.02141 
280 31.37457 12.84802 87.67575 18.07171 9.057524 71.19335 
281 90.46866 70.34626 12.27431 49.81521 49.94020 9.180222 
282 63.99894 11.28244 84.72936 28.70313 14.50086 66.52310 
283 13.86575 27.29902 41.05157 6.351180 6.651653 14.95929 
284 55.81670 43.05496 92.72370 32.65372 23.73947 82.64623 
285 33.36553 47.82255 84.51532 23.81027 21.56562 67.77861 
286 79.13728 33.92004 68.78305 36.09549 23.15297 43.79464 
287 32.24717 8.634749 33.65024 6.404792 4.017357 9.976436 
288 85.94547 31.80392 11.23961 33.10711 21.86413 4.465840 
289 8.347158 85.90629 45.54779 29.53778 52.59753 25.86400 
290 7.274636 37.10205 57.38808 10.43730 11.23031 29.54557 
291 18.05774 65.52089 72.09782 24.36380 32.38366 50.65331 
292 2.014413 69.69029 16.33060 17.17655 32.60223 8.384389 
293 88.17583 12.15708 68.06868 39.70442 20.80593 42.22610 
294 72.24862 60.74948 47.85604 35.69674 35.68877 24.11297 
295 36.87104 86.57216 52.08505 35.28849 56.09571 31.73871 
296 52.16615 91.15641 88.61440 52.86290 68.75672 82.57775 
297 0.00000 0.00000 0.00000 1.000000 1.000000 1.000000 
298 28.98457 54.58116 51.26689 16.99437 22.38477 25.45536 
299 21.63901 51.64211 15.32595 11.06104 18.20756 5.699500 
300 52.27660 74.49700 78.75349 39.26564 46.57116 62.39478 
301 12.41937 88.16108 75.25948 37.59752 58.26989 59.46215 
302 35.62591 49.96491 27.69310 13.93711 18.77141 9.588917 
303 12.64940 43.51979 28.17085 8.375842 13.01841 8.975084 
304 8.808823 11.67662 34.87883 3.574680 2.795174 10.55763 
305 68.45078 75.32314 45.80652 40.25008 48.59246 24.72699 
306 7.588187 16.02229 79.88514 12.80918 7.002586 57.92740 
307 71.86627 89.70017 38.73031 50.28289 67.21769 22.81732 
308 37.98668 51.90130 65.24345 20.93135 22.67840 40.03832 
309 38.92732 31.09275 84.24796 21.03473 14.06659 66.02193 
310 62.73433 45.56095 67.11633 28.84343 23.72028 42.14640 
311 60.28996 84.93861 11.59467 38.83456 56.78745 10.96376 
312 74.39390 93.61046 14.15973 52.74337 72.87131 13.80944 
313 63.15582 59.60268 7.050267 26.78397 30.77737 5.955697 
314 36.12229 79.32544 27.34290 27.44284 45.63934 13.91710 
315 89.84406 62.54633 89.26997 59.19873 47.75210 79.38616 
316 41.83871 11.35962 21.41711 8.073981 5.213865 4.972315 
317 87.98302 11.90351 25.66847 32.97092 18.06896 7.632153 
318 51.78184 86.45903 37.57616 37.97181 57.61013 20.89605 
319 85.12504 82.26149 23.52407 52.91932 61.45635 14.16699 
320 6.536510 32.16424 16.55535 4.629417 7.258708 4.206350 
321 78.56708 16.72103 40.75666 27.98706 15.87903 15.40187 
322 91.17326 67.57916 66.98975 56.03533 50.30529 45.68620 
323 97.77813 12.64052 83.85171 52.30917 26.83601 66.16825 
324 61.99079 34.03430 12.67383 18.59513 15.02448 4.156249 
325 12.13150 88.20869 6.128008 28.28731 54.59580 10.37947 
END_DATA
CTI1   

DESCRIPTOR "Argyll Calibration Target chart information 1"
ORIGINATOR "Argyll targen"
DENSITY_EXTREME_VALUES "8"
CREATED "June 20, 2025"

NUMBER_OF_FIELDS 7
BEGIN_DATA_FORMAT
INDEX RGB_R RGB_G RGB_B XYZ_X XYZ_Y XYZ_Z 
END_DATA_FORMAT

NUMBER_OF_SETS 8
BEGIN_DATA
0 100.0000 100.0000 100.0000 95.10649 100.0000 108.8440 
1 0.00000 47.36069 100.0000 25.61297 21.62916 97.37627 
2 100.0000 0.00000 79.35138 52.42580 26.28975 58.72152 
3 0.00000 0.00000 58.99714 6.485834 3.193987 29.89445 
4 100.0000 66.65930 0.00000 56.05879 50.50543 7.656144 
5 0.00000 35.60114 0.00000 4.685619 8.370208 2.228550 
6 84.44436 0.00000 0.00000 28.84279 15.35583 2.304665 
7 0.00000 0.00000 0.00000 1.000000 1.000000 1.000000 
END_DATA
CTI1   

DESCRIPTOR "Argyll Calibration Target chart information 1"
ORIGINATOR "Argyll targen"
DEVICE_COMBINATION_VALUES "9"
CREATED "June 20, 2025"

NUMBER_OF_FIELDS 7
BEGIN_DATA_FORMAT
INDEX RGB_R RGB_G RGB_B XYZ_X XYZ_Y XYZ_Z 
END_DATA_FORMAT

NUMBER_OF_SETS 9
BEGIN_DATA
0 100.0000 100.0000 100.0000 95.10649 100.0000 108.8440 
1 0.00000 100.0000 100.0000 54.27632 78.94783 106.9308 
2 100.0000 0.00000 100.0000 59.70128 29.19948 97.04219 
3 0.00000 0.00000 100.0000 18.87111 8.147314 95.12896 
4 100.0000 100.0000 0.00000 77.23538 92.85269 14.71507 
5 0.00000 100.0000 0.00000 36.40521 71.80052 12.80184 
6 100.0000 0.00000 0.00000 41.83017 22.05217 2.913230 
7 0.00000 0.00000 0.00000 1.000000 1.000000 1.000000 
8 50.00000 50.00000 50.00000 21.14266 22.19007 24.08306 
END_DATA
