Pre-made_Targets/Patch Width 12-15mm - Intermediate (Easy with ruler)/Designed Targets/CM-Interm-A4-325p-1page-w13.0mm-13x25-randomized/325-target.ti2
CTI2   

DESCRIPTOR "Argyll Calibration Target chart information 2"
ORIGINATOR "Argyll printtarg"
CREATED "Fri Jun 20 21:00:10 2025"
TARGET_INSTRUMENT "X-Rite ColorMunki"
COMP_GREY_STEPS "32"
APPROX_WHITE_POINT "95.106486 100.000000 108.844025"
COLOR_REP "iRGB"
PAPER_SIZE "350.0x400.0"
RANDOM_START "235"
STEPS_IN_PASS "25"
PASSES_IN_STRIPS2 "13"
STRIP_INDEX_PATTERN "A-Z, A-Z"
PATCH_INDEX_PATTERN "0-9,@-9,@-9;1-999"
INDEX_ORDER "STRIP_THEN_PATCH"

NUMBER_OF_FIELDS 8
BEGIN_DATA_FORMAT
SAMPLE_ID SAMPLE_LOC RGB_R RGB_G RGB_B XYZ_X XYZ_Y XYZ_Z 
END_DATA_FORMAT

NUMBER_OF_SETS 325
BEGIN_DATA
1 "K16" 100.0000 100.0000 100.0000 95.10649 100.0000 108.8440 
2 "I24" 31.27489 31.77081 31.84558 8.647083 9.096990 9.909385 
3 "I18" 42.92058 100.0000 38.10636 44.84823 75.90575 24.39070 
4 "M1" 100.0000 50.54246 69.42702 57.44842 40.70824 46.90418 
5 "B9" 29.03182 29.03182 29.03182 7.449909 7.785303 8.391458 
6 "M21" 9.443809 57.28084 60.82094 17.42778 23.91076 35.30851 
7 "M9" 11.37560 11.56176 60.29145 7.702412 4.453447 31.47767 
8 "H22" 93.54849 93.54849 93.54849 81.88117 86.08697 93.68810 
9 "M19" 90.32273 90.32273 90.32273 75.70274 79.58726 86.60775 
10 "H19" 87.09697 87.09697 87.09697 69.80876 73.38680 79.85337 
11 "B18" 83.87121 83.87121 83.87121 64.19536 67.48150 73.42053 
12 "K24" 80.64546 80.64546 80.64546 58.85858 61.86721 67.30470 
13 "E8" 77.41970 77.41970 77.41970 53.79440 56.53969 61.50125 
14 "J15" 74.19394 74.19394 74.19394 48.99867 51.49459 56.00546 
15 "D6" 70.96818 70.96818 70.96818 44.46718 46.72747 50.81246 
16 "G2" 67.74243 67.74243 67.74243 40.19559 42.23375 45.91731 
17 "L6" 64.51667 64.51667 64.51667 36.17945 38.00878 41.31490 
18 "M24" 61.29091 61.29091 61.29091 32.41421 34.04774 37.00002 
19 "G16" 58.06516 58.06516 58.06516 28.89517 30.34571 32.96727 
20 "D8" 54.83940 54.83940 54.83940 25.61751 26.89761 29.21114 
21 "G11" 51.61364 51.61364 51.61364 22.57624 23.69820 25.72591 
22 "L21" 48.38636 48.38636 48.38636 19.76623 20.74207 22.50570 
23 "G18" 45.16060 45.16060 45.16060 17.18217 18.02363 19.54442 
24 "K10" 41.93484 41.93484 41.93484 14.81852 15.53708 16.83573 
25 "A4" 38.70909 38.70909 38.70909 12.66958 13.27640 14.37309 
26 "C21" 35.48333 35.48333 35.48333 10.72937 11.23530 12.14965 
27 "L12" 32.25757 32.25757 32.25757 8.991660 9.407224 10.15827 
28 "A23" 0.00000 0.00000 0.00000 1.000000 1.000000 1.000000 
29 "C17" 25.80606 25.80606 25.80606 6.097238 6.362293 6.841326 
30 "H6" 22.58030 22.58030 22.58030 4.926365 5.130535 5.499530 
31 "H4" 19.35454 19.35454 19.35454 3.929543 4.081879 4.357194 
32 "F19" 16.12879 16.12879 16.12879 3.098470 3.207589 3.404801 
33 "A11" 12.90303 12.90303 12.90303 2.424161 2.498217 2.632058 
34 "I15" 9.677272 9.677272 9.677272 1.896786 1.943418 2.027697 
35 "F12" 6.451514 6.451514 6.451514 1.505402 1.531683 1.579180 
36 "D12" 3.225757 3.225757 3.225757 1.234961 1.247179 1.269260 
37 "J7" 0.00000 4.698253 4.573129 1.193586 1.285272 1.378623 
38 "L10" 0.00000 4.695201 4.684520 1.195188 1.285747 1.387574 
39 "E12" 0.00000 4.687572 4.792859 1.196659 1.286006 1.396338 
40 "D24" 0.00000 4.682994 4.901198 1.198223 1.286379 1.405354 
41 "H24" 0.00000 1.701381 2.157626 1.076462 1.105165 1.172710 
42 "G6" 0.00000 3.428702 3.950561 1.148589 1.209729 1.319092 
43 "C12" 4.174868 6.863508 7.212940 1.449605 1.525026 1.661218 
44 "J3" 7.775998 9.658961 9.924468 1.795626 1.889050 2.057751 
45 "D17" 10.69200 12.16754 12.38270 2.192746 2.306833 2.512843 
46 "B21" 13.30129 14.52049 14.70054 2.644493 2.782086 3.030539 
47 "K19" 15.73968 16.77882 16.93446 3.154377 3.318499 3.614857 
48 "F10" 18.07584 18.98070 19.11650 3.725922 3.919780 4.269832 
49 "L19" 20.34485 21.14443 21.26497 4.362642 4.589629 4.999502 
50 "G4" 22.56962 23.28527 23.39361 5.068060 5.331750 5.807896 
51 "E3" 24.76692 25.41238 25.51003 5.845694 6.149844 6.699048 
52 "C15" 26.94591 27.53185 27.62188 6.699062 7.047614 7.676993 
53 "J12" 29.11269 29.65133 29.73220 7.631686 8.028762 8.745760 
54 "I6" 100.0000 100.0000 100.0000 95.10649 100.0000 108.8440 
55 "I13" 33.43557 33.89334 33.96353 9.748773 10.25600 11.17190 
56 "H10" 35.59777 36.02350 36.08759 10.94028 11.50950 12.53734 
57 "I20" 37.76455 38.15976 38.21927 12.22511 12.86118 14.00973 
58 "H12" 39.93439 40.30518 40.36164 13.60679 14.31476 15.59311 
59 "I8" 42.11337 42.45975 42.51316 15.08884 15.87392 17.29152 
60 "H8" 44.29847 44.62501 44.67384 16.67479 17.54238 19.10898 
61 "A19" 46.49271 46.80095 46.84672 18.36815 19.32384 21.04953 
62 "F6" 48.69764 48.98756 49.03029 20.17243 21.22200 23.11720 
63 "G9" 50.91020 51.18486 51.22606 22.09116 23.24056 25.31602 
64 "E17" 53.13497 53.39590 53.43404 24.12785 25.38322 27.65003 
65 "A21" 55.36889 55.61608 55.65270 26.28603 27.65369 30.12326 
66 "E15" 57.61349 57.85000 57.88357 28.56921 30.05567 32.73974 
67 "M10" 59.87030 60.09461 60.12665 30.98092 32.59286 35.50351 
68 "G14" 62.13626 62.35142 62.38193 33.52467 35.26897 38.41860 
69 "J5" 64.41444 64.62043 64.64942 36.20399 38.08769 41.48904 
70 "A6" 66.70329 66.90013 66.92760 39.02238 41.05272 44.71886 
71 "D2" 69.00435 69.19203 69.21950 41.98338 44.16778 48.11211 
72 "K21" 71.31609 71.49615 71.52209 45.09050 47.43656 51.67280 
73 "M17" 73.63851 73.81094 73.83536 48.34726 50.86277 55.40498 
74 "D4" 75.97162 76.13794 76.16236 51.75717 54.45011 59.31267 
75 "K7" 78.31693 78.47715 78.50004 55.32377 58.20227 63.39992 
76 "E20" 80.67292 80.82704 80.84840 59.05056 62.12297 67.67074 
77 "I11" 83.03960 83.18761 83.20897 62.94107 66.21590 72.12919 
78 "J22" 85.41695 85.56039 85.58022 66.99881 70.48477 76.77928 
79 "H17" 87.80499 87.94385 87.96216 71.22731 74.93328 81.62505 
80 "B24" 90.20371 90.33799 90.35630 75.63008 79.56513 86.67054 
81 "D10" 92.61463 92.74434 92.76112 80.21065 84.38403 91.91978 
82 "I4" 95.03471 95.15984 95.17662 84.97253 89.39367 97.37679 
83 "A2" 97.46548 97.58602 97.60281 89.91924 94.59776 103.0456 
84 "H20" 0.00000 100.0000 100.0000 54.27632 78.94783 106.9308 
85 "F17" 100.0000 0.00000 100.0000 59.70128 29.19948 97.04219 
86 "G12" 0.00000 0.00000 100.0000 18.87111 8.147314 95.12896 
87 "G15" 100.0000 100.0000 0.00000 77.23538 92.85269 14.71507 
88 "K3" 0.00000 100.0000 0.00000 36.40521 71.80052 12.80184 
89 "C24" 100.0000 0.00000 0.00000 41.83017 22.05217 2.913230 
90 "F8" 50.00076 50.00076 50.00076 21.14266 22.19007 24.08306 
91 "I25" 80.63935 0.00000 100.0000 43.97061 21.08870 96.30508 
92 "L20" 20.72786 0.00000 100.0000 20.31719 8.892921 95.19672 
93 "M23" 0.00000 75.40856 0.00000 19.72586 38.44648 7.242005 
94 "K25" 76.14557 0.00000 0.00000 23.07069 12.37972 2.034194 
95 "G8" 49.85885 100.0000 0.00000 45.09153 76.27921 13.20886 
96 "H9" 0.00000 100.0000 60.05341 42.10919 74.08175 42.84529 
97 "I7" 0.00000 40.65309 100.0000 23.73887 17.88147 96.75156 
98 "M25" 100.0000 50.77287 0.00000 49.66409 37.71782 5.524560 
99 "K23" 100.0000 100.0000 51.19097 81.26045 94.46246 35.91553 
100 "L16" 52.15839 100.0000 100.0000 63.85392 83.88608 107.3796 
101 "H11" 100.0000 0.00000 75.23156 51.23289 25.81266 52.43834 
102 "F9" 0.00000 0.00000 73.80789 10.00956 4.603255 48.45428 
103 "D23" 100.0000 52.61463 100.0000 68.16489 46.12434 99.86342 
104 "H18" 0.00000 80.09155 100.0000 40.30518 51.00946 102.2737 
105 "A22" 100.0000 100.0000 24.15351 78.08524 93.19258 19.19136 
106 "I9" 60.93385 0.00000 100.0000 32.32667 15.08505 95.75946 
107 "I16" 50.74540 0.00000 0.00000 10.02391 5.652756 1.422845 
108 "A24" 0.00000 27.49065 0.00000 3.174816 5.349025 1.724945 
109 "A5" 100.0000 0.00000 49.78561 45.61993 23.56783 22.87431 
110 "G7" 0.00000 0.00000 24.25422 1.856745 1.342644 5.512564 
111 "I21" 57.82712 0.00000 64.12146 19.58548 9.820427 36.27533 
112 "K11" 62.80766 100.0000 49.40871 54.51784 80.70823 33.11232 
113 "I1" 0.00000 78.45884 59.32097 27.01734 44.14519 37.06549 
114 "L22" 48.83192 30.61112 100.0000 29.87729 17.83158 96.41863 
115 "J23" 100.0000 53.56832 46.06851 53.83738 40.93307 22.73721 
116 "E21" 70.78508 79.33318 0.00000 40.73213 52.62381 8.872280 
117 "G17" 100.0000 27.66613 0.00000 44.03284 26.45689 3.647459 
118 "E23" 0.00000 28.19104 76.94057 13.17467 9.528175 53.84057 
119 "K8" 45.70382 75.81292 0.00000 27.15431 42.61149 7.654730 
120 "L11" 0.00000 100.0000 20.49897 37.02502 72.04840 16.06646 
121 "L8" 0.00000 38.65110 42.91905 8.133212 10.85425 16.97886 
122 "M12" 49.21035 23.78424 0.00000 11.07798 8.621021 1.940290 
123 "J2" 19.48882 0.00000 43.22423 5.086020 2.783068 15.80054 
124 "C20" 0.00000 100.0000 80.37232 47.30918 76.16142 70.23418 
125 "H3" 23.91241 100.0000 0.00000 38.30903 72.78214 12.89105 
126 "J20" 77.57992 0.00000 50.15946 27.86427 14.40581 22.36494 
127 "L1" 21.99893 81.89517 100.0000 43.02455 54.04323 102.7161 
128 "L14" 78.32456 100.0000 100.0000 77.78745 91.07025 108.0325 
129 "C22" 44.03906 100.0000 60.09155 48.77035 77.51535 43.19856 
130 "K9" 100.0000 23.64843 100.0000 61.31690 32.43029 97.58074 
131 "K14" 0.00000 51.13451 23.41650 9.755092 17.22782 7.865683 
132 "C16" 38.65263 0.00000 47.61273 9.489439 4.979044 19.36655 
133 "E2" 48.80903 55.38567 100.0000 36.63207 31.35174 98.67265 
134 "I23" 100.0000 81.49386 30.83391 65.50038 67.17218 17.63077 
135 "G1" 0.00000 0.00000 46.18753 4.224567 2.289623 17.98413 
136 "I22" 24.86915 20.86824 0.00000 4.325966 4.599843 1.519702 
137 "M11" 100.0000 17.98886 17.53109 43.25585 24.16187 5.674532 
138 "H14" 100.0000 79.73602 100.0000 80.92154 71.63407 104.1157 
139 "L5" 100.0000 28.94636 79.97711 55.02639 31.18888 60.51763 
140 "K2" 25.29946 0.00000 0.00000 3.126615 2.096490 1.099649 
141 "M13" 0.00000 0.00000 0.00000 1.000000 1.000000 1.000000 
142 "B25" 42.60166 0.00000 100.0000 25.07087 11.34393 95.41947 
143 "E7" 0.00000 52.30488 0.00000 9.355502 17.70867 3.785191 
144 "B12" 52.92897 0.00000 18.83574 11.41648 6.309600 4.248749 
145 "C18" 25.39712 42.42924 100.0000 26.34366 19.91020 97.00597 
146 "M16" 77.39528 100.0000 0.00000 59.29555 83.60285 13.87444 
147 "D18" 82.60319 35.30785 100.0000 48.98812 29.05220 97.57800 
148 "M22" 100.0000 25.83505 59.42016 49.32458 28.12394 32.90531 
149 "E1" 100.0000 100.0000 77.68978 87.34003 96.89391 67.93731 
150 "B14" 50.95445 51.71435 0.00000 18.25676 21.99639 4.144034 
151 "F2" 85.67788 47.55169 35.93042 38.46437 30.19019 14.60293 
152 "B17" 28.67628 100.0000 81.28481 50.31920 77.68098 71.83784 
153 "E11" 80.94911 100.0000 58.74876 67.15649 87.02731 42.61576 
154 "I2" 100.0000 73.02968 79.22637 69.81968 61.13288 64.33376 
155 "H13" 0.00000 20.61341 100.0000 20.11192 10.62859 95.54257 
156 "L4" 22.53452 68.69001 56.92988 22.97869 34.31698 32.87027 
157 "E9" 72.60395 39.26909 0.00000 25.36746 20.27958 3.438132 
158 "G22" 0.00000 58.66941 100.0000 29.60730 29.61669 98.70772 
159 "D1" 0.00000 75.49401 29.18135 21.01086 39.03632 13.77607 
160 "A7" 42.53147 12.83436 59.04936 13.20532 7.445421 30.41781 
161 "I19" 100.0000 76.79561 0.00000 61.33610 61.05856 9.415260 
162 "H23" 65.57870 76.00366 28.66712 37.07717 47.74773 14.38326 
163 "A14" 21.83413 0.00000 70.31968 10.68461 5.057925 43.67431 
164 "B1" 100.0000 76.99702 56.02197 66.34912 63.24758 35.25156 
165 "J16" 24.84932 83.35698 39.84588 28.85651 49.89091 21.31734 
166 "K4" 55.84802 28.92195 43.66369 17.38239 12.68974 17.38538 
167 "C14" 76.58503 46.77195 85.89151 42.58250 30.71607 70.92889 
168 "K15" 100.0000 62.94804 25.31777 55.29721 47.49136 12.00094 
169 "J25" 0.00000 100.0000 40.94301 38.89955 72.79809 25.93976 
170 "G24" 100.0000 0.00000 26.68040 42.86427 22.46574 8.359933 
171 "E4" 100.0000 27.97131 39.01884 46.33516 27.45592 15.53274 
172 "D11" 24.98665 100.0000 100.0000 56.35134 80.01772 107.0280 
173 "J24" 51.00328 63.90478 33.77890 24.75148 32.28753 14.53535 
174 "E6" 39.36370 35.31701 66.79789 17.08429 13.83792 40.45658 
175 "E14" 69.10506 21.59915 100.0000 38.00287 20.02467 96.41400 
176 "B23" 57.10689 100.0000 77.80880 58.21393 81.87241 66.75238 
177 "E18" 26.11429 22.11795 100.0000 22.55458 12.15305 95.70818 
178 "J13" 79.46746 100.0000 27.82330 61.81715 84.77294 19.86239 
179 "F3" 0.00000 48.81209 69.62539 16.10581 18.55155 45.06622 
180 "G13" 22.63371 69.69863 0.00000 18.42086 33.29719 6.316775 
181 "B20" 0.00000 20.96284 51.31609 6.327661 5.180184 22.74077 
182 "D14" 42.44907 79.12871 100.0000 45.88281 53.03254 102.3705 
183 "L24" 21.56863 100.0000 40.45472 40.39696 73.57741 25.68329 
184 "I5" 42.15305 89.21950 78.75334 44.81417 62.95447 65.26410 
185 "D5" 78.06363 0.00000 22.90684 25.10163 13.33821 6.131194 
186 "H25" 74.07492 46.23331 19.10582 28.69544 24.71808 6.966418 
187 "F16" 51.17723 51.79217 77.50057 28.41929 26.11377 57.08910 
188 "I10" 24.08637 62.10422 30.08316 16.41468 26.85325 12.07929 
189 "B3" 0.00000 22.53300 23.97498 3.308812 4.277055 5.901966 
190 "H21" 54.16800 0.00000 37.61654 13.48504 7.195958 12.47850 
191 "A16" 87.64477 61.65560 52.80079 47.55938 42.28028 29.08494 
192 "I12" 43.37682 0.00000 78.57633 17.80710 8.466919 55.89512 
193 "I3" 71.89288 17.96902 62.86412 27.68038 15.45205 35.45715 
194 "A17" 27.69665 65.32540 84.84779 29.46955 34.44658 70.53602 
195 "F18" 27.80652 45.05226 0.00000 9.622550 14.43459 3.139134 
196 "G10" 28.49012 100.0000 20.45624 39.71684 73.43659 16.17990 
197 "L9" 70.88731 52.20264 100.0000 46.00262 34.48423 98.78378 
198 "I17" 25.55276 38.52903 56.45380 12.49727 12.80420 28.78586 
199 "G19" 48.36347 16.31495 90.32425 24.12619 12.47911 76.37344 
200 "C19" 77.76150 49.60708 58.26047 36.92040 29.96043 32.67654 
201 "B7" 26.30503 0.00000 20.52338 3.918152 2.432754 4.379687 
202 "K22" 77.94919 19.02190 0.00000 25.32619 15.12634 2.445578 
203 "F21" 0.00000 58.85557 49.80240 15.60371 24.13603 24.57967 
204 "A10" 21.10780 100.0000 62.83360 44.20396 75.09266 46.06486 
205 "L17" 96.77424 96.77424 96.77424 88.34785 92.88991 101.0988 
206 "F15" 50.71183 81.91043 63.12352 38.92031 53.27238 42.46771 
207 "J18" 100.0000 41.56558 22.68101 47.68422 32.55561 8.574759 
208 "B19" 76.30121 59.63073 0.00000 34.29767 34.68127 5.747738 
209 "C9" 61.35958 54.90196 21.99741 24.65755 26.89573 8.469633 
210 "C10" 62.51469 78.62211 100.0000 53.66941 56.60416 102.6498 
211 "L7" 75.60388 27.92554 84.95460 37.31795 21.62740 67.83136 
212 "M7" 69.07454 33.92081 29.04250 23.31792 17.31411 9.399510 
213 "F23" 40.04425 24.13062 12.32319 8.368617 7.264345 3.133994 
214 "F5" 57.41970 100.0000 21.28176 48.88096 78.15608 16.86070 
215 "H16" 22.14084 62.20188 100.0000 32.72070 33.40837 99.27565 
216 "C2" 43.71405 63.11131 87.93164 33.50802 34.92732 75.83328 
217 "L25" 74.75853 0.00000 77.08095 32.10932 15.89172 54.28472 
218 "F4" 77.16487 61.57168 30.90867 37.06727 37.15425 13.36980 
219 "J6" 17.47768 32.00580 86.90318 18.01289 12.65910 70.51581 
220 "M8" 14.75242 75.06828 85.48409 32.84279 43.48133 73.20001 
221 "M18" 73.63851 69.91073 15.31395 37.65800 43.33175 9.145853 
222 "M20" 88.46571 36.75746 55.11101 40.58896 26.71205 28.65286 
223 "B8" 15.78698 83.60266 60.12360 31.19980 50.94231 39.02910 
224 "K12" 0.00000 70.21592 79.46288 27.59895 37.18652 62.30693 
225 "F25" 25.30709 15.30785 49.87259 7.651435 5.057224 21.37593 
226 "J8" 21.19783 74.14817 18.92576 21.07593 38.05317 9.892116 
227 "G23" 50.88121 42.61692 24.73945 16.34671 16.79394 7.910058 
228 "B2" 48.02930 70.96971 18.71977 25.89042 38.04528 9.580806 
229 "M2" 59.50713 32.90150 79.08293 27.41898 18.05216 58.02755 
230 "F7" 30.90867 82.34531 6.739910 27.09230 48.29904 9.288647 
231 "B5" 71.90204 35.90753 47.58679 27.60666 19.88914 21.26949 
232 "L2" 75.75952 82.77714 60.22583 51.64491 60.70735 39.95067 
233 "E5" 30.96818 35.88769 12.44373 8.191974 10.24085 3.739426 
234 "E25" 65.01869 16.12268 11.64721 17.54491 10.67519 3.192893 
235 "B22" 31.54650 16.80629 71.27184 13.49639 7.741026 45.33209 
236 "J19" 40.00610 68.40467 65.92966 28.50447 36.73472 43.19428 
237 "E24" 0.00000 0.00000 0.00000 1.000000 1.000000 1.000000 
238 "A1" 76.87343 100.0000 81.38247 70.16518 87.91011 72.92699 
239 "E13" 56.78798 30.92088 60.22431 21.02482 14.75327 32.69141 
240 "A15" 33.83078 82.80766 88.91127 41.61656 54.64479 80.98746 
241 "C3" 36.91463 66.47440 43.27306 22.53027 32.76386 20.70426 
242 "M14" 47.23888 15.17357 37.18318 11.47707 7.217625 12.32712 
243 "M6" 17.90036 46.99779 72.09125 17.27978 18.24682 48.28855 
244 "F20" 85.55581 29.07607 28.16968 33.26177 21.11313 9.226427 
245 "F1" 52.46204 74.71580 48.24445 32.58378 44.09960 26.22144 
246 "E22" 15.99451 46.13565 42.94652 11.03055 15.31097 17.70603 
247 "D22" 52.83436 24.86152 24.60212 13.51206 9.993634 6.695721 
248 "K6" 46.02884 63.12657 3.335622 20.97315 30.01333 5.790310 
249 "L15" 81.24056 74.23209 100.0000 62.47195 57.46031 102.3514 
250 "A20" 90.10147 87.84314 7.899596 59.74977 70.44459 11.97262 
251 "F14" 88.47028 72.09125 41.01472 51.36829 51.81573 21.28160 
252 "C1" 30.24186 82.70695 68.79377 34.78064 51.71881 49.39119 
253 "K5" 61.65408 93.20821 62.98924 51.32402 71.00386 45.08143 
254 "D16" 18.61601 28.33600 68.09033 12.02153 9.241359 41.47889 
255 "B10" 55.78698 16.73152 70.21744 20.99292 11.62754 44.26111 
256 "K1" 11.63500 60.60121 8.963149 13.20068 24.38259 5.666298 
257 "G5" 68.27192 11.56176 29.01350 19.97289 11.30411 8.402908 
258 "G25" 11.59533 40.83314 4.946975 6.500658 11.12022 3.028123 
259 "C6" 39.34386 9.964141 5.243000 6.666334 4.436751 1.754492 
260 "E16" 83.16777 12.27131 89.31411 42.22693 21.38830 75.27144 
261 "C25" 91.51904 42.89464 81.41604 51.07177 33.61429 63.50719 
262 "A13" 78.51072 58.40543 75.07286 44.62576 38.18808 54.94332 
263 "D20" 44.12757 90.45853 13.14412 36.16260 60.95166 12.18340 
264 "K17" 9.283589 89.33547 90.64469 43.08163 61.73054 85.48147 
265 "M5" 46.35538 37.96597 7.243458 12.75154 13.30180 3.342632 
266 "D13" 88.06134 50.94224 11.62280 39.72358 32.65019 6.262466 
267 "B4" 37.41512 57.80117 14.07797 16.41906 24.33471 6.337059 
268 "C4" 37.80575 27.10460 50.35477 11.81638 9.265164 22.38807 
269 "C5" 11.12383 66.78874 40.31739 18.18890 30.79186 18.50377 
270 "E19" 88.38483 89.06996 43.60571 61.94348 72.50708 26.54226 
271 "H15" 92.65126 87.09545 68.15595 68.76575 73.48716 50.97630 
272 "F24" 16.87953 6.611734 87.07713 15.24453 7.125235 69.90059 
273 "B13" 67.42657 88.06439 83.61791 56.29198 67.52131 73.41733 
274 "L23" 62.13321 51.43359 38.02548 25.23739 25.20668 15.58691 
275 "J10" 90.44785 12.68788 50.27543 37.90480 20.35354 23.08491 
276 "L3" 63.99786 64.01770 87.77600 42.30240 40.06657 76.08381 
277 "A18" 11.53277 87.91638 23.45006 28.75618 54.45954 14.06324 
278 "F22" 10.72251 50.95598 87.54101 22.56980 22.31022 73.27346 
279 "A25" 63.96429 11.44121 47.66613 19.86577 10.98014 20.02141 
280 "H7" 31.37407 12.84810 87.67529 18.07171 9.057524 71.19335 
281 "K18" 90.46921 70.34562 12.27436 49.81521 49.94020 9.180222 
282 "J4" 63.99939 11.28252 84.72877 28.70313 14.50086 66.52310 
283 "M4" 13.86587 27.29839 41.05135 6.351180 6.651653 14.95929 
284 "G3" 55.81598 43.05486 92.72297 32.65372 23.73947 82.64623 
285 "H5" 33.36538 47.82330 84.51514 23.81027 21.56562 67.77861 
286 "J14" 79.13787 33.91928 68.78309 36.09549 23.15297 43.79464 
287 "F13" 32.24689 8.635080 33.65072 6.404792 4.017357 9.976436 
288 "L13" 85.94491 31.80438 11.23980 33.10711 21.86413 4.465840 
289 "A3" 8.346685 85.90677 45.54818 29.53778 52.59753 25.86400 
290 "C7" 7.273976 37.10231 57.38766 10.43730 11.23031 29.54557 
291 "J9" 18.05753 65.52071 72.09735 24.36380 32.38366 50.65331 
292 "G20" 2.014191 69.69100 16.33021 17.17655 32.60223 8.384389 
293 "C8" 88.17578 12.15686 68.06897 39.70442 20.80593 42.22610 
294 "G21" 72.24842 60.74922 47.85534 35.69674 35.68877 24.11297 
295 "D21" 36.87037 86.57206 52.08515 35.28849 56.09571 31.73871 
296 "B11" 52.16602 91.15587 88.61372 52.86290 68.75672 82.57775 
297 "B15" 0.00000 0.00000 0.00000 1.000000 1.000000 1.000000 
298 "D19" 28.98451 54.58152 51.26726 16.99437 22.38477 25.45536 
299 "J21" 21.63882 51.64263 15.32616 11.06104 18.20756 5.699500 
300 "E10" 52.27588 74.49760 78.75334 39.26564 46.57116 62.39478 
301 "C11" 12.41932 88.16052 75.25902 37.59752 58.26989 59.46215 
302 "M15" 35.62524 49.96567 27.69360 13.93711 18.77141 9.588917 
303 "B6" 12.64973 43.52026 28.17121 8.375842 13.01841 8.975084 
304 "B16" 8.809033 11.67620 34.87907 3.574680 2.795174 10.55763 
305 "D15" 68.45045 75.32311 45.80606 40.25008 48.59246 24.72699 
306 "F11" 7.588312 16.02197 79.88556 12.80918 7.002586 57.92740 
307 "C13" 71.86694 89.70016 38.73045 50.28289 67.21769 22.81732 
308 "C23" 37.98734 51.90204 65.24300 20.93135 22.67840 40.03832 
309 "K20" 38.92729 31.09331 84.24811 21.03473 14.06659 66.02193 
310 "J17" 62.73442 45.56039 67.11681 28.84343 23.72028 42.14640 
311 "J11" 60.28992 84.93935 11.59533 38.83456 56.78745 10.96376 
312 "D7" 74.39384 93.61105 14.16037 52.74337 72.87131 13.80944 
313 "A12" 63.15557 59.60327 7.049668 26.78397 30.77737 5.955697 
314 "I14" 36.12268 79.32555 27.34264 27.44284 45.63934 13.91710 
315 "H1" 89.84360 62.54673 89.26986 59.19873 47.75210 79.38616 
316 "A9" 41.83871 11.36034 21.41756 8.073981 5.213865 4.972315 
317 "D25" 87.98352 11.90356 25.66873 32.97092 18.06896 7.632153 
318 "D3" 51.78149 86.45914 37.57687 37.97181 57.61013 20.89605 
319 "J1" 85.12551 82.26139 23.52331 52.91932 61.45635 14.16699 
320 "A8" 6.536965 32.16449 16.55604 4.629417 7.258708 4.206350 
321 "L18" 78.56718 16.72084 40.75685 27.98706 15.87903 15.40187 
322 "K13" 91.17266 67.57916 66.99016 56.03533 50.30529 45.68620 
323 "D9" 97.77829 12.64057 83.85138 52.30917 26.83601 66.16825 
324 "M3" 61.99130 34.03372 12.67414 18.59513 15.02448 4.156249 
325 "H2" 12.13092 88.20935 6.128023 28.28731 54.59580 10.37947 
END_DATA
